;Generated with Cura_SteamEngine 15.01
; Default start code
G28 ; Home extruder
G1 Z15 F2000
M107 ; Turn off fan
G90 ; Absolute positioning
M82 ; Extruder in absolute mode
M104 T0 S180
M190 S50
; Activate all used extruder
G92 E0 ; Reset extruder position
; Wait for all used extruders to reach temperature
M109 T0 S210 R210
;Layer count: 45
;LAYER:0
M107
G0 F9000 X58.050 Y44.723 Z0.300
;TYPE:SKIRT
G1 F1800 X58.912 Y43.586 E0.07118
G1 X62.210 Y39.316 E0.34036
G1 X66.654 Y34.709 E0.65971
G1 X67.075 Y34.315 E0.68848
G1 X72.004 Y30.216 E1.00831
G1 X73.333 Y29.334 E1.08788
G1 X77.620 Y26.501 E1.34424
G1 X83.586 Y23.437 E1.67885
G1 X89.490 Y21.182 E1.99415
G1 X89.850 Y21.044 E2.01339
G1 X95.967 Y19.450 E2.32876
G1 X96.340 Y19.352 E2.34800
G1 X102.593 Y18.436 E2.66329
G1 X102.593 Y18.435 E2.66334
G1 X102.973 Y18.378 E2.68251
G1 X105.771 Y18.279 E2.82219
G1 X109.680 Y18.138 E3.01734
G1 X116.369 Y18.632 E3.35196
G1 X122.868 Y19.836 E3.68172
G1 X129.027 Y21.683 E4.00251
G1 X129.415 Y21.804 E4.02279
G1 X135.476 Y24.386 E4.35147
G1 X170.158 Y41.459 E6.28005
G1 X184.360 Y48.451 E7.06981
G1 X188.329 Y50.785 E7.29952
G1 X188.668 Y50.984 E7.31913
G1 X192.644 Y54.201 E7.57429
G1 X194.975 Y56.743 E7.74636
G1 X194.986 Y56.747 E7.74695
G1 X194.986 Y56.755 E7.74735
G1 X195.863 Y57.711 E7.81207
G1 X195.862 Y57.711 E7.81212
G1 X196.096 Y57.962 E7.82924
G1 X198.698 Y61.818 E8.06132
G1 X198.962 Y62.206 E8.08473
G1 X201.167 Y66.827 E8.34018
G1 X202.542 Y71.329 E8.57502
G1 X202.543 Y71.329 E8.57507
G1 X202.661 Y71.711 E8.59502
G1 X203.362 Y76.388 E8.83096
G1 X203.361 Y76.388 E8.83101
G1 X203.420 Y76.776 E8.85059
G1 X203.420 Y81.893 E9.10588
G1 X202.721 Y86.565 E9.34156
G1 X202.662 Y86.953 E9.36114
G1 X201.280 Y91.474 E9.59700
G1 X201.164 Y91.847 E9.61649
G1 X200.730 Y92.760 E9.66692
G1 X198.963 Y96.459 E9.87144
G1 X196.101 Y100.699 E10.12665
G1 X192.679 Y104.431 E10.37927
G1 X191.871 Y105.094 E10.43141
G1 X188.667 Y107.687 E10.63705
G1 X184.521 Y110.124 E10.87698
G1 X183.894 Y110.449 E10.91222
G1 X135.518 Y134.263 E13.60229
G1 X132.478 Y135.561 E13.76720
G1 X129.403 Y136.871 E13.93395
G1 X123.337 Y138.702 E14.25007
G1 X123.337 Y138.701 E14.25012
G1 X122.970 Y138.813 E14.26926
G1 X116.755 Y139.965 E14.58461
G1 X116.755 Y139.966 E14.58466
G1 X116.372 Y140.037 E14.60410
G1 X114.663 Y140.164 E14.68959
G1 X109.681 Y140.532 E14.93883
G1 X103.362 Y140.306 E15.25428
G1 X102.975 Y140.291 E15.27360
G1 X96.724 Y139.375 E15.58880
G1 X96.341 Y139.318 E15.60812
G1 X90.063 Y137.680 E15.93181
G1 X83.598 Y135.238 E16.27660
G1 X77.620 Y132.169 E16.61185
G1 X72.024 Y128.470 E16.94651
G1 X67.163 Y124.428 E17.26192
G1 X66.865 Y124.179 E17.28129
G1 X62.480 Y119.634 E17.59637
G1 X62.211 Y119.356 E17.61567
G1 X58.110 Y114.046 E17.95040
G1 X54.614 Y108.322 E18.28502
G1 X51.766 Y102.250 E18.61962
G1 X49.725 Y96.268 E18.93496
G1 X49.600 Y95.904 E18.95416
G1 X48.141 Y89.356 E19.28885
G1 X47.450 Y83.074 E19.60415
G1 X47.451 Y83.074 E19.60420
G1 X47.407 Y82.694 E19.62328
G1 X47.407 Y75.981 E19.95820
G1 X48.099 Y69.694 E20.27375
G1 X48.143 Y69.309 E20.29308
G1 X48.734 Y66.652 E20.42888
G1 X49.600 Y62.767 E20.62746
G1 X51.653 Y56.752 E20.94455
G1 X51.806 Y56.334 E20.96676
G1 X54.615 Y50.347 E21.29669
G1 X58.050 Y44.723 E21.62547
G1 F2400 E17.62547
G0 F9000 X61.193 Y46.868
;TYPE:WALL-INNER
G1 F2400 E21.62547
G1 F1800 X61.928 Y45.898 E21.68619
G1 X65.089 Y41.805 E21.94419
G1 X69.332 Y37.407 E22.24908
G1 X69.590 Y37.166 E22.26669
G1 X74.274 Y33.270 E22.57065
G1 X75.431 Y32.503 E22.63990
G1 X79.544 Y29.786 E22.88583
G1 X85.135 Y26.914 E23.19942
G1 X91.014 Y24.668 E23.51340
G1 X97.099 Y23.081 E23.82713
G1 X103.156 Y22.194 E24.13254
G1 X103.318 Y22.169 E24.14072
G1 X105.769 Y22.081 E24.26308
G1 X105.331 Y22.537 E24.29462
G1 X104.942 Y23.113 E24.32930
G1 X104.655 Y23.747 E24.36402
G1 X104.481 Y24.420 E24.39870
G1 X104.421 Y25.114 E24.43345
G1 X104.481 Y25.807 E24.46816
G1 X104.655 Y26.480 E24.50284
G1 X104.942 Y27.115 E24.53760
G1 X105.331 Y27.691 E24.57228
G1 X105.813 Y28.193 E24.60700
G1 X106.372 Y28.607 E24.64170
G1 X106.994 Y28.921 E24.67647
G1 X107.659 Y29.124 E24.71115
G1 X108.349 Y29.213 E24.74586
G1 X109.044 Y29.183 E24.78057
G1 X109.725 Y29.037 E24.81532
G1 X110.370 Y28.777 E24.85001
G1 X110.963 Y28.412 E24.88475
G1 X111.485 Y27.953 E24.91943
G1 X111.922 Y27.411 E24.95417
G1 X112.262 Y26.804 E24.98888
G1 X112.493 Y26.148 E25.02357
G1 X112.609 Y25.474 E25.05769
G1 X112.624 Y25.089 E25.07692
G1 X112.602 Y24.709 E25.09591
G1 X112.493 Y24.080 E25.12776
G1 X112.262 Y23.424 E25.16245
G1 X111.922 Y22.817 E25.19716
G1 X111.485 Y22.275 E25.23190
G1 X111.244 Y22.063 E25.24791
G1 X115.879 Y22.405 E25.47978
G1 X121.972 Y23.535 E25.78895
G1 X127.912 Y25.316 E26.09833
G1 X128.105 Y25.376 E26.10841
G1 X133.894 Y27.843 E26.42236
G1 X148.109 Y34.841 E27.21283
G1 X147.493 Y35.030 E27.24497
G1 X146.870 Y35.343 E27.27976
G1 X146.311 Y35.757 E27.31446
G1 X145.829 Y36.260 E27.34922
G1 X145.440 Y36.836 E27.38389
G1 X145.153 Y37.470 E27.41861
G1 X144.978 Y38.144 E27.45336
G1 X144.920 Y38.837 E27.48805
G1 X144.978 Y39.529 E27.52270
G1 X145.153 Y40.203 E27.55744
G1 X145.440 Y40.838 E27.59220
G1 X145.829 Y41.413 E27.62684
G1 X146.311 Y41.916 E27.66159
G1 X146.870 Y42.330 E27.69630
G1 X147.493 Y42.643 E27.73108
G1 X148.157 Y42.847 E27.76574
G1 X148.848 Y42.935 E27.80049
G1 X149.542 Y42.905 E27.83515
G1 X150.222 Y42.759 E27.86984
G1 X150.868 Y42.500 E27.90457
G1 X151.461 Y42.135 E27.93931
G1 X151.983 Y41.674 E27.97405
G1 X152.420 Y41.134 E28.00871
G1 X152.760 Y40.526 E28.04346
G1 X152.992 Y39.871 E28.07813
G1 X153.107 Y39.196 E28.11229
G1 X153.123 Y38.812 E28.13147
G1 X153.100 Y38.432 E28.15046
G1 X152.992 Y37.803 E28.18230
G1 X152.760 Y37.147 E28.21701
G1 X152.747 Y37.124 E28.21833
G1 X182.555 Y51.797 E29.87587
G1 X186.499 Y54.117 E30.10415
G1 X188.584 Y55.803 E30.23793
G1 X188.295 Y55.791 E30.25236
G1 X187.604 Y55.879 E30.28711
G1 X186.939 Y56.083 E30.32181
G1 X186.319 Y56.396 E30.35646
G1 X185.758 Y56.810 E30.39125
G1 X185.278 Y57.313 E30.42594
G1 X184.887 Y57.888 E30.46063
G1 X184.601 Y58.523 E30.49537
G1 X184.425 Y59.196 E30.53008
G1 X184.367 Y59.889 E30.56477
G1 X184.425 Y60.583 E30.59952
G1 X184.601 Y61.256 E30.63422
G1 X184.887 Y61.890 E30.66892
G1 X185.277 Y62.466 E30.70363
G1 X185.758 Y62.969 E30.73835
G1 X186.319 Y63.383 E30.77313
G1 X186.939 Y63.696 E30.80778
G1 X187.604 Y63.900 E30.84249
G1 X188.295 Y63.988 E30.87724
G1 X188.989 Y63.958 E30.91190
G1 X189.670 Y63.812 E30.94664
G1 X190.316 Y63.553 E30.98137
G1 X190.908 Y63.187 E31.01609
G1 X191.431 Y62.728 E31.05081
G1 X191.868 Y62.186 E31.08554
G1 X192.207 Y61.579 E31.12023
G1 X192.439 Y60.923 E31.15494
G1 X192.554 Y60.249 E31.18905
G1 X192.570 Y59.864 E31.20828
G1 X192.562 Y59.735 E31.21473
G1 X193.063 Y60.281 E31.25169
G1 X193.111 Y60.333 E31.25523
G1 X195.554 Y63.952 E31.47307
G1 X195.654 Y64.099 E31.48194
G1 X197.616 Y68.209 E31.70915
G1 X198.914 Y72.456 E31.93071
G1 X198.947 Y72.563 E31.93630
G1 X199.620 Y77.057 E32.16300
G1 X199.620 Y81.613 E32.39030
G1 X198.947 Y86.107 E32.61701
G1 X197.649 Y90.353 E32.83852
G1 X197.616 Y90.458 E32.84401
G1 X195.654 Y94.569 E33.07127
G1 X193.111 Y98.338 E33.29810
G1 X192.556 Y98.943 E33.33906
G1 X192.556 Y98.432 E33.36456
G1 X192.439 Y97.746 E33.39928
G1 X192.207 Y97.091 E33.43394
G1 X191.868 Y96.483 E33.46867
G1 X191.431 Y95.941 E33.50341
G1 X190.908 Y95.482 E33.53813
G1 X190.316 Y95.117 E33.57282
G1 X189.670 Y94.858 E33.60755
G1 X188.990 Y94.712 E33.64224
G1 X188.295 Y94.681 E33.67695
G1 X187.604 Y94.770 E33.71171
G1 X186.939 Y94.974 E33.74641
G1 X186.319 Y95.287 E33.78106
G1 X185.758 Y95.701 E33.81585
G1 X185.278 Y96.203 E33.85050
G1 X184.887 Y96.779 E33.88523
G1 X184.601 Y97.414 E33.91998
G1 X184.425 Y98.087 E33.95468
G1 X184.367 Y98.780 E33.98938
G1 X184.425 Y99.474 E34.02412
G1 X184.601 Y100.147 E34.05883
G1 X184.887 Y100.781 E34.09353
G1 X185.277 Y101.357 E34.12823
G1 X185.758 Y101.860 E34.16295
G1 X186.319 Y102.274 E34.19774
G1 X186.939 Y102.587 E34.23239
G1 X187.604 Y102.791 E34.26709
G1 X188.295 Y102.879 E34.30184
G1 X188.584 Y102.867 E34.31627
G1 X186.499 Y104.553 E34.45005
G1 X182.691 Y106.792 E34.67044
G1 X182.176 Y107.059 E34.69938
G1 X152.747 Y121.547 E36.33587
G1 X152.760 Y121.523 E36.33724
G1 X152.992 Y120.867 E36.37195
G1 X153.109 Y120.181 E36.40667
G1 X153.109 Y119.485 E36.44139
G1 X152.992 Y118.799 E36.47611
G1 X152.760 Y118.143 E36.51083
G1 X152.420 Y117.536 E36.54554
G1 X151.983 Y116.994 E36.58027
G1 X151.461 Y116.535 E36.61495
G1 X150.868 Y116.170 E36.64969
G1 X150.223 Y115.910 E36.68439
G1 X149.542 Y115.764 E36.71913
G1 X148.847 Y115.734 E36.75384
G1 X148.157 Y115.823 E36.78855
G1 X147.493 Y116.026 E36.82319
G1 X146.870 Y116.340 E36.85800
G1 X146.311 Y116.754 E36.89270
G1 X145.829 Y117.256 E36.92742
G1 X145.440 Y117.832 E36.96210
G1 X145.153 Y118.467 E36.99686
G1 X144.978 Y119.141 E37.03160
G1 X144.920 Y119.833 E37.06625
G1 X144.978 Y120.526 E37.10094
G1 X145.153 Y121.200 E37.13568
G1 X145.440 Y121.834 E37.17040
G1 X145.829 Y122.410 E37.20508
G1 X146.311 Y122.912 E37.23980
G1 X146.870 Y123.326 E37.27451
G1 X147.493 Y123.640 E37.30931
G1 X148.111 Y123.829 E37.34155
G1 X133.942 Y130.804 E38.12946
G1 X128.098 Y133.296 E38.44642
G1 X122.238 Y135.064 E38.75179
G1 X122.066 Y135.116 E38.76075
G1 X115.879 Y136.264 E39.07469
G1 X111.243 Y136.607 E39.30662
G1 X111.485 Y136.393 E39.32273
G1 X111.922 Y135.853 E39.35739
G1 X112.262 Y135.245 E39.39214
G1 X112.493 Y134.590 E39.42680
G1 X112.611 Y133.903 E39.46157
G1 X112.611 Y133.208 E39.49625
G1 X112.493 Y132.522 E39.53097
G1 X112.262 Y131.866 E39.56567
G1 X111.922 Y131.259 E39.60038
G1 X111.485 Y130.717 E39.63512
G1 X110.963 Y130.258 E39.66979
G1 X110.370 Y129.892 E39.70456
G1 X109.724 Y129.633 E39.73928
G1 X109.044 Y129.487 E39.77398
G1 X108.350 Y129.457 E39.80864
G1 X107.659 Y129.545 E39.84339
G1 X106.994 Y129.749 E39.87809
G1 X106.372 Y130.062 E39.91283
G1 X105.813 Y130.476 E39.94754
G1 X105.331 Y130.979 E39.98229
G1 X104.942 Y131.555 E40.01697
G1 X104.655 Y132.189 E40.05169
G1 X104.481 Y132.862 E40.08637
G1 X104.421 Y133.556 E40.12112
G1 X104.481 Y134.249 E40.15583
G1 X104.655 Y134.922 E40.19051
G1 X104.942 Y135.557 E40.22527
G1 X105.331 Y136.132 E40.25991
G1 X105.769 Y136.589 E40.29149
G1 X103.503 Y136.508 E40.40461
G1 X103.322 Y136.501 E40.41365
G1 X97.099 Y135.589 E40.72743
G1 X91.212 Y134.053 E41.03097
G1 X85.146 Y131.760 E41.35450
G1 X79.544 Y128.884 E41.66867
G1 X74.290 Y125.412 E41.98285
G1 X69.595 Y121.508 E42.28749
G1 X69.460 Y121.396 E42.29624
G1 X65.089 Y116.865 E42.61033
G1 X61.244 Y111.887 E42.92414
G1 X60.294 Y110.331 E43.01510
G1 X60.702 Y110.456 E43.03639
G1 X61.393 Y110.544 E43.07114
G1 X62.087 Y110.514 E43.10579
G1 X62.769 Y110.368 E43.14059
G1 X63.413 Y110.108 E43.17524
G1 X64.006 Y109.743 E43.20998
G1 X64.529 Y109.284 E43.24470
G1 X64.966 Y108.742 E43.27943
G1 X65.305 Y108.135 E43.31412
G1 X65.537 Y107.479 E43.34883
G1 X65.654 Y106.793 E43.38355
G1 X65.654 Y106.097 E43.41827
G1 X65.537 Y105.411 E43.45299
G1 X65.305 Y104.756 E43.48766
G1 X64.966 Y104.148 E43.52239
G1 X64.529 Y103.606 E43.55712
G1 X64.006 Y103.147 E43.59184
G1 X63.413 Y102.782 E43.62658
G1 X62.768 Y102.523 E43.66126
G1 X62.088 Y102.377 E43.69596
G1 X61.393 Y102.346 E43.73066
G1 X60.702 Y102.435 E43.76542
G1 X60.037 Y102.639 E43.80013
G1 X59.417 Y102.952 E43.83478
G1 X58.856 Y103.366 E43.86956
G1 X58.376 Y103.868 E43.90421
G1 X57.985 Y104.444 E43.93894
G1 X57.699 Y105.079 E43.97369
G1 X57.553 Y105.638 E44.00251
G1 X55.296 Y100.828 E44.26759
G1 X53.322 Y95.041 E44.57264
G1 X53.265 Y94.876 E44.58135
G1 X51.895 Y88.727 E44.89565
G1 X51.227 Y82.657 E45.20031
G1 X51.207 Y82.480 E45.20919
G1 X51.207 Y76.187 E45.52315
G1 X51.875 Y70.118 E45.82777
G1 X51.895 Y69.942 E45.83660
G1 X53.264 Y63.797 E46.15069
G1 X55.237 Y58.015 E46.45549
G1 X55.316 Y57.800 E46.46692
G1 X57.553 Y53.031 E46.72972
G1 X57.699 Y53.591 E46.75859
G1 X57.985 Y54.225 E46.79329
G1 X58.375 Y54.801 E46.82800
G1 X58.856 Y55.304 E46.86272
G1 X59.417 Y55.718 E46.89750
G1 X60.037 Y56.031 E46.93215
G1 X60.702 Y56.235 E46.96686
G1 X61.393 Y56.323 E47.00161
G1 X62.087 Y56.293 E47.03626
G1 X62.768 Y56.147 E47.07101
G1 X63.413 Y55.888 E47.10569
G1 X64.006 Y55.522 E47.14045
G1 X64.529 Y55.063 E47.17517
G1 X64.966 Y54.521 E47.20991
G1 X65.305 Y53.914 E47.24459
G1 X65.537 Y53.258 E47.27931
G1 X65.652 Y52.584 E47.31342
G1 X65.668 Y52.199 E47.33264
G1 X65.645 Y51.820 E47.35159
G1 X65.537 Y51.190 E47.38347
G1 X65.305 Y50.535 E47.41814
G1 X64.966 Y49.927 E47.45287
G1 X64.529 Y49.386 E47.48757
G1 X64.006 Y48.926 E47.52232
G1 X63.413 Y48.561 E47.55706
G1 X62.768 Y48.302 E47.59173
G1 X62.087 Y48.156 E47.62648
G1 X61.393 Y48.126 E47.66114
G1 X60.702 Y48.214 E47.69589
G1 X60.294 Y48.339 E47.71718
G1 X61.193 Y46.868 E47.80319
G0 F9000 X101.674 Y73.805
G1 F1800 X100.839 Y75.042 E47.87765
G1 X100.224 Y76.402 E47.95211
G1 X99.848 Y77.847 E48.02660
G1 X99.721 Y79.335 E48.10111
G1 X99.848 Y80.823 E48.17562
G1 X100.224 Y82.268 E48.25011
G1 X100.839 Y83.628 E48.32457
G1 X101.674 Y84.864 E48.39899
G1 X102.708 Y85.942 E48.47351
G1 X103.908 Y86.830 E48.54799
G1 X105.241 Y87.503 E48.62249
G1 X106.669 Y87.940 E48.69699
G1 X108.150 Y88.129 E48.77148
G1 X109.641 Y88.065 E48.84594
G1 X111.101 Y87.751 E48.92044
G1 X112.486 Y87.195 E48.99490
G1 X113.757 Y86.412 E49.06938
G1 X114.742 Y85.546 E49.13481
G1 X114.921 Y85.371 E49.14730
G1 X115.816 Y84.264 E49.21832
G1 X116.544 Y82.960 E49.29283
G1 X117.042 Y81.553 E49.36729
G1 X117.294 Y80.081 E49.44180
G1 X117.294 Y78.588 E49.51628
G1 X117.042 Y77.117 E49.59074
G1 X116.544 Y75.709 E49.66525
G1 X115.816 Y74.406 E49.73972
G1 X114.878 Y73.244 E49.81422
G1 X113.757 Y72.258 E49.88870
G1 X112.486 Y71.475 E49.96318
G1 X111.101 Y70.918 E50.03766
G1 X109.641 Y70.604 E50.11216
G1 X108.149 Y70.540 E50.18667
G1 X106.669 Y70.730 E50.26111
G1 X105.242 Y71.167 E50.33557
G1 X103.908 Y71.839 E50.41009
G1 X102.708 Y72.727 E50.48457
G1 X101.674 Y73.805 E50.55909
G0 F9000 X101.987 Y74.057
;TYPE:WALL-OUTER
G1 F1800 X101.190 Y75.238 E50.63017
G1 X100.603 Y76.536 E50.70124
G1 X100.243 Y77.915 E50.77235
G1 X100.122 Y79.335 E50.84345
G1 X100.243 Y80.755 E50.91455
G1 X100.603 Y82.134 E50.98565
G1 X101.190 Y83.432 E51.05672
G1 X101.987 Y84.612 E51.12776
G1 X102.973 Y85.641 E51.19887
G1 X104.119 Y86.488 E51.26996
G1 X105.391 Y87.130 E51.34105
G1 X106.754 Y87.547 E51.41216
G1 X108.167 Y87.728 E51.48323
G1 X109.590 Y87.667 E51.55429
G1 X110.984 Y87.367 E51.62543
G1 X112.305 Y86.836 E51.69646
G1 X113.518 Y86.089 E51.76753
G1 X114.470 Y85.252 E51.83077
G1 X114.625 Y85.101 E51.84157
G1 X115.483 Y84.039 E51.90968
G1 X116.178 Y82.795 E51.98077
G1 X116.653 Y81.452 E52.05184
G1 X116.894 Y80.047 E52.12296
G1 X116.894 Y78.622 E52.19406
G1 X116.653 Y77.218 E52.26513
G1 X116.178 Y75.874 E52.33624
G1 X115.483 Y74.631 E52.40729
G1 X114.588 Y73.522 E52.47839
G1 X113.518 Y72.581 E52.54948
G1 X112.305 Y71.834 E52.62055
G1 X110.984 Y71.302 E52.69160
G1 X109.590 Y71.002 E52.76274
G1 X108.166 Y70.941 E52.83385
G1 X106.754 Y71.123 E52.90488
G1 X105.391 Y71.540 E52.97599
G1 X104.119 Y72.181 E53.04705
G1 X102.973 Y73.028 E53.11815
G1 X101.987 Y74.057 E53.18925
G0 F9000 X101.740 Y73.890
G0 X65.200 Y53.894
G0 X64.939 Y53.749
G1 F1800 X65.148 Y53.157 E53.22057
G1 X65.253 Y52.542 E53.25169
G1 X65.267 Y52.203 E53.26862
G1 X65.247 Y51.866 E53.28546
G1 X65.148 Y51.291 E53.31457
G1 X64.939 Y50.700 E53.34585
G1 X64.633 Y50.152 E53.37716
G1 X64.239 Y49.664 E53.40845
G1 X63.767 Y49.249 E53.43981
G1 X63.232 Y48.920 E53.47114
G1 X62.651 Y48.686 E53.50239
G1 X62.036 Y48.554 E53.53377
G1 X61.410 Y48.527 E53.56503
G1 X60.787 Y48.607 E53.59637
G1 X60.187 Y48.791 E53.62768
G1 X59.627 Y49.073 E53.65896
G1 X59.172 Y49.408 E53.68715
G1 X60.864 Y46.638 E53.84909
G1 X61.611 Y45.653 E53.91076
G1 X64.783 Y41.545 E54.16970
G1 X69.037 Y37.136 E54.47536
G1 X69.321 Y36.870 E54.49477
G1 X74.035 Y32.950 E54.80064
G1 X79.344 Y29.438 E55.11822
G1 X84.973 Y26.547 E55.43392
G1 X90.887 Y24.288 E55.74977
G1 X97.022 Y22.688 E56.06608
G1 X103.286 Y21.770 E56.38193
G1 X107.325 Y21.625 E56.58357
G1 X107.143 Y21.680 E56.59305
