;Generated with Cura_SteamEngine 15.01
; Default start code
G28 ; Home extruder
G1 Z15 F2000
M107 ; Turn off fan
G90 ; Absolute positioning
M82 ; Extruder in absolute mode
M104 T0 S180
M190 S50
; Activate all used extruder
G92 E0 ; Reset extruder position
; Wait for all used extruders to reach temperature
M109 T0 S210 R210
;Layer count: 25
;LAYER:0
M107
G0 F9000 X87.969 Y54.399 Z0.300
G0 X87.653 Y54.971
;TYPE:SKIRT
G1 F1800 X87.969 Y54.399 E0.03260
G1 X91.059 Y50.070 E0.29795
G1 X91.320 Y49.719 E0.31977
G1 X91.984 Y48.980 E0.36934
G1 X94.166 Y46.553 E0.53216
G1 X95.067 Y45.552 E0.59936
G1 X99.258 Y41.834 E0.87886
G1 X99.910 Y41.364 E0.91896
G1 X101.686 Y40.115 E1.02729
G1 X103.959 Y38.516 E1.16594
G1 X108.725 Y35.911 E1.43691
G1 X108.908 Y35.805 E1.44746
G1 X113.829 Y33.797 E1.71263
G1 X114.197 Y33.646 E1.73247
G1 X118.567 Y32.413 E1.95900
G1 X119.665 Y32.103 E2.01592
G1 X125.270 Y31.186 E2.29928
G1 X130.543 Y30.924 E2.56267
G1 X130.939 Y30.904 E2.58245
G1 X136.296 Y31.241 E2.85024
G1 X136.864 Y31.306 E2.87877
G1 X142.202 Y32.255 E3.14926
G1 X147.646 Y33.870 E3.43256
G1 X152.588 Y35.965 E3.70035
G1 X154.848 Y37.064 E3.82573
G1 X167.185 Y43.138 E4.51178
G1 X188.549 Y53.655 E5.69978
G1 X189.166 Y53.959 E5.73410
G1 X201.675 Y60.118 E6.42972
G1 X202.450 Y60.582 E6.47478
G1 X203.575 Y61.262 E6.54037
G1 X205.049 Y62.151 E6.62624
G1 X207.677 Y64.430 E6.79979
G1 X208.115 Y64.811 E6.82875
G1 X210.443 Y67.660 E7.01231
G1 X210.714 Y68.011 E7.03443
G1 X212.486 Y71.148 E7.21418
G1 X212.675 Y71.486 E7.23350
G1 X213.892 Y74.900 E7.41432
G1 X214.035 Y75.297 E7.43537
G1 X214.454 Y77.719 E7.55800
G1 X214.728 Y79.300 E7.63806
G1 X214.728 Y83.356 E7.84041
G1 X214.168 Y86.595 E8.00440
G1 X214.036 Y87.355 E8.04289
G1 X213.171 Y89.782 E8.17143
G1 X212.673 Y91.175 E8.24524
G1 X210.695 Y94.680 E8.44602
G1 X208.325 Y97.589 E8.63322
G1 X208.002 Y97.945 E8.65720
G1 X205.311 Y100.279 E8.83492
G1 X205.045 Y100.508 E8.85243
G1 X203.696 Y101.322 E8.93104
G1 X201.694 Y102.531 E9.04772
G1 X189.166 Y108.699 E9.74439
G1 X188.548 Y109.003 E9.77875
G1 X180.430 Y112.998 E10.23014
G1 X177.932 Y114.229 E10.36908
G1 X177.280 Y114.550 E10.40534
G1 X168.568 Y118.838 E10.88978
G1 X167.185 Y119.520 E10.96671
G1 X152.791 Y126.605 E11.76711
G1 X148.008 Y128.633 E12.02629
G1 X147.652 Y128.786 E12.04563
G1 X142.512 Y130.309 E12.31308
G1 X142.007 Y130.436 E12.33906
G1 X136.962 Y131.333 E12.59470
G1 X136.609 Y131.395 E12.61259
G1 X131.335 Y131.728 E12.87623
G1 X130.947 Y131.753 E12.89563
G1 X125.661 Y131.492 E13.15967
G1 X125.265 Y131.471 E13.17945
G1 X124.286 Y131.310 E13.22895
G1 X119.666 Y130.554 E13.46251
G1 X114.578 Y129.120 E13.72624
G1 X114.199 Y129.012 E13.74590
G1 X109.282 Y127.004 E14.01088
G1 X108.894 Y126.839 E14.03191
G1 X106.281 Y125.411 E14.18047
G1 X103.960 Y124.141 E14.31247
G1 X100.071 Y121.407 E14.54964
G1 X99.313 Y120.872 E14.59593
G1 X95.218 Y117.240 E14.86901
G1 X95.065 Y117.104 E14.87922
G1 X91.984 Y113.679 E15.10906
G1 X91.269 Y112.882 E15.16248
G1 X87.970 Y108.260 E15.44578
G1 X85.213 Y103.295 E15.72911
G1 X83.829 Y99.972 E15.90870
G1 X83.031 Y98.051 E16.01248
G1 X81.558 Y92.963 E16.27675
G1 X81.452 Y92.600 E16.29561
G1 X80.501 Y87.022 E16.57792
G1 X80.453 Y86.235 E16.61725
G1 X80.361 Y84.571 E16.70040
G1 X80.177 Y81.329 E16.86240
G1 X80.361 Y78.084 E17.02456
G1 X80.497 Y75.659 E17.14573
G1 X81.387 Y70.438 E17.40996
G1 X81.459 Y70.035 E17.43039
G1 X82.588 Y66.131 E17.63314
G1 X83.027 Y64.620 E17.71164
G1 X83.747 Y62.884 E17.80540
G1 X85.213 Y59.363 E17.99569
G1 X87.653 Y54.971 E18.24635
G1 F2400 E14.24635
G0 F9000 X91.190 Y56.429
;TYPE:WALL-INNER
G1 F2400 E18.24635
G1 F1800 X94.133 Y52.304 E18.49915
G1 X94.263 Y52.129 E18.51003
G1 X97.747 Y48.254 E18.77000
G1 X101.636 Y44.803 E19.02940
G1 X102.110 Y44.463 E19.05851
G1 X105.973 Y41.745 E19.29416
G1 X110.578 Y39.229 E19.55595
G1 X115.273 Y37.312 E19.80896
G1 X115.442 Y37.243 E19.81807
G1 X120.489 Y35.819 E20.07970
G1 X125.674 Y34.970 E20.34182
G1 X130.738 Y34.719 E20.59478
G1 X130.914 Y34.710 E20.60357
G1 X135.969 Y35.028 E20.85626
G1 X136.310 Y35.067 E20.87338
G1 X141.329 Y35.960 E21.12772
G1 X146.363 Y37.453 E21.38968
G1 X151.001 Y39.419 E21.64100
G1 X153.179 Y40.478 E21.76182
G1 X199.853 Y63.456 E24.35729
G1 X200.490 Y63.837 E24.39432
G1 X202.807 Y65.236 E24.52935
G1 X205.374 Y67.463 E24.69890
G1 X207.474 Y70.033 E24.86448
G1 X207.537 Y70.113 E24.86956
G1 X209.174 Y73.013 E25.03570
G1 X209.205 Y73.067 E25.03880
G1 X210.317 Y76.189 E25.20415
G1 X210.348 Y76.274 E25.20866
G1 X210.928 Y79.625 E25.37833
G1 X210.928 Y83.032 E25.54830
G1 X210.348 Y86.385 E25.71807
G1 X209.204 Y89.592 E25.88794
G1 X207.546 Y92.529 E26.05621
G1 X205.440 Y95.115 E26.22259
G1 X205.342 Y95.223 E26.22987
G1 X202.826 Y97.404 E26.39599
G1 X199.864 Y99.197 E26.56873
G1 X151.207 Y123.150 E29.27444
G1 X146.524 Y125.135 E29.52820
G1 X146.362 Y125.205 E29.53700
G1 X141.513 Y126.642 E29.78932
G1 X141.214 Y126.717 E29.80470
G1 X136.156 Y127.616 E30.06100
G1 X131.095 Y127.935 E30.31399
G1 X130.912 Y127.947 E30.32314
G1 X125.853 Y127.697 E30.57584
G1 X125.675 Y127.688 E30.58474
G1 X120.487 Y126.838 E30.84702
G1 X115.439 Y125.414 E31.10869
G1 X110.752 Y123.501 E31.36125
G1 X110.559 Y123.417 E31.37176
G1 X105.967 Y120.907 E31.63284
G1 X101.675 Y117.888 E31.89464
G1 X97.747 Y114.403 E32.15662
G1 X94.235 Y110.499 E32.41860
G1 X91.188 Y106.227 E32.68039
G1 X88.642 Y101.644 E32.94195
G1 X86.620 Y96.785 E33.20452
G1 X85.208 Y91.906 E33.45792
G1 X85.161 Y91.743 E33.46639
G1 X84.282 Y86.591 E33.72713
G1 X84.247 Y86.012 E33.75607
G1 X83.983 Y81.329 E33.99008
G1 X84.279 Y76.083 E34.25222
G1 X85.130 Y71.092 E34.50482
G1 X85.166 Y70.893 E34.51491
G1 X86.617 Y65.882 E34.77518
G1 X88.637 Y61.024 E35.03766
G1 X91.190 Y56.429 E35.29991
G0 F9000 X98.318 Y51.972
G1 F1800 X98.525 Y52.279 E35.31839
G1 X98.804 Y52.561 E35.33818
G1 X99.102 Y52.772 E35.35639
G1 X99.424 Y52.928 E35.37424
G1 X99.743 Y53.026 E35.39089
G1 X100.110 Y53.074 E35.40936
G1 X100.505 Y53.052 E35.42910
G1 X100.861 Y52.969 E35.44733
G1 X101.198 Y52.827 E35.46558
G1 X101.504 Y52.630 E35.48373
G1 X101.769 Y52.390 E35.50157
G1 X101.981 Y52.129 E35.51835
G1 X102.159 Y51.810 E35.53657
G1 X102.280 Y51.466 E35.55476
G1 X102.340 Y51.117 E35.57243
G1 X102.348 Y50.901 E35.58322
G1 X102.334 Y50.692 E35.59367
G1 X102.269 Y50.348 E35.61113
G1 X102.143 Y50.006 E35.62932
G1 X101.959 Y49.689 E35.64760
G1 X101.724 Y49.409 E35.66584
G1 X101.447 Y49.174 E35.68396
G1 X101.133 Y48.988 E35.70217
G1 X100.798 Y48.859 E35.72008
G1 X100.471 Y48.789 E35.73676
G1 X100.103 Y48.772 E35.75514
G1 X99.710 Y48.828 E35.77495
G1 X99.362 Y48.941 E35.79320
G1 X99.040 Y49.111 E35.81137
G1 X98.754 Y49.330 E35.82934
G1 X98.522 Y49.571 E35.84603
G1 X98.315 Y49.878 E35.86450
G1 X98.161 Y50.236 E35.88394
G1 X98.077 Y50.558 E35.90055
G1 X98.045 Y50.923 E35.91883
G1 X98.069 Y51.197 E35.93255
G1 X98.163 Y51.628 E35.95456
G1 X98.318 Y51.972 E35.97338
G0 F9000 X98.094 Y63.836
G1 F1800 X97.403 Y63.924 E36.00813
G1 X96.738 Y64.128 E36.04284
G1 X96.116 Y64.441 E36.07757
G1 X95.557 Y64.855 E36.11228
G1 X95.075 Y65.358 E36.14704
G1 X94.686 Y65.934 E36.18171
G1 X94.399 Y66.568 E36.21643
G1 X94.225 Y67.241 E36.25111
G1 X94.165 Y67.935 E36.28587
G1 X94.225 Y68.628 E36.32057
G1 X94.399 Y69.301 E36.35525
G1 X94.686 Y69.936 E36.39001
G1 X95.075 Y70.512 E36.42469
G1 X95.557 Y71.014 E36.45941
G1 X96.119 Y71.430 E36.49429
G1 X96.778 Y71.753 E36.53091
G1 X97.403 Y71.945 E36.56353
G1 X98.094 Y72.034 E36.59829
G1 X98.789 Y72.003 E36.63300
G1 X99.468 Y71.857 E36.66765
G1 X100.114 Y71.598 E36.70237
G1 X100.706 Y71.233 E36.73707
G1 X101.229 Y70.774 E36.77178
G1 X101.666 Y70.232 E36.80652
G1 X102.005 Y69.624 E36.84125
G1 X102.237 Y68.969 E36.87591
G1 X102.355 Y68.283 E36.91064
G1 X102.355 Y67.587 E36.94537
G1 X102.237 Y66.901 E36.98009
G1 X102.005 Y66.245 E37.01481
G1 X101.666 Y65.638 E37.04949
G1 X101.229 Y65.096 E37.08423
G1 X100.706 Y64.637 E37.11894
G1 X100.114 Y64.272 E37.15364
G1 X99.469 Y64.012 E37.18834
G1 X98.788 Y63.866 E37.22308
G1 X98.094 Y63.836 E37.25774
G0 F9000 X100.114 Y64.274
G0 X101.665 Y65.639
G0 X102.354 Y67.587
G0 X102.767 Y68.616
G1 F1800 X101.295 Y72.564 E37.46795
G1 X101.241 Y72.706 E37.47553
G1 X100.313 Y76.973 E37.69339
G1 X100.001 Y81.329 E37.91127
G1 X100.312 Y85.672 E38.12850
G1 X101.241 Y89.950 E38.34690
G1 X102.729 Y93.941 E38.55940
G1 X102.767 Y94.042 E38.56478
G1 X104.819 Y97.801 E38.77845
G1 X104.860 Y97.875 E38.78267
G1 X107.475 Y101.369 E39.00040
G1 X110.563 Y104.456 E39.21824
G1 X114.059 Y107.072 E39.43608
G1 X117.890 Y109.165 E39.65387
G1 X121.831 Y110.633 E39.86369
G1 X122.021 Y110.698 E39.87370
G1 X126.247 Y111.618 E40.08948
G1 X130.603 Y111.931 E40.30736
G1 X134.958 Y111.618 E40.52519
G1 X138.883 Y110.765 E40.72558
G1 X139.225 Y110.690 E40.74305
G1 X143.272 Y109.181 E40.95854
G1 X147.147 Y107.072 E41.17864
G1 X150.643 Y104.456 E41.39648
G1 X153.710 Y101.388 E41.61291
G1 X156.347 Y97.874 E41.83210
G1 X158.362 Y94.181 E42.04198
G1 X158.466 Y93.967 E42.05385
G1 X159.911 Y90.094 E42.26009
G1 X159.965 Y89.952 E42.26767
G1 X160.770 Y86.246 E42.45687
G1 X160.893 Y85.684 E42.48557
G1 X161.205 Y81.329 E42.70340
G1 X160.894 Y76.985 E42.92068
G1 X159.965 Y72.708 E43.13904
G1 X158.477 Y68.716 E43.35158
G1 X158.439 Y68.615 E43.35697
G1 X156.347 Y64.783 E43.57478
G1 X154.042 Y61.705 E43.76663
G1 X153.709 Y61.268 E43.79404
G1 X150.643 Y58.201 E44.01040
G1 X147.147 Y55.585 E44.22824
G1 X143.315 Y53.493 E44.44605
G1 X139.225 Y51.967 E44.66384
G1 X134.958 Y51.039 E44.88170
G1 X130.603 Y50.727 E45.09953
G1 X126.247 Y51.039 E45.31741
G1 X122.021 Y51.958 E45.53317
G1 X117.890 Y53.493 E45.75303
G1 X114.059 Y55.585 E45.97080
G1 X110.563 Y58.201 E46.18865
G1 X107.546 Y61.218 E46.40151
G1 X105.753 Y63.591 E46.54990
G1 X104.859 Y64.784 E46.62427
G1 X102.767 Y68.616 E46.84208
G0 F9000 X105.753 Y63.591
G0 X107.548 Y61.219
G0 X115.058 Y52.486
G1 F1800 X115.680 Y52.800 E46.87685
G1 X116.345 Y53.003 E46.91154
G1 X117.034 Y53.092 E46.94619
G1 X117.731 Y53.062 E46.98100
G1 X118.411 Y52.915 E47.01571
G1 X119.056 Y52.656 E47.05039
G1 X119.648 Y52.291 E47.08508
G1 X120.171 Y51.832 E47.11980
G1 X120.608 Y51.290 E47.15453
G1 X120.947 Y50.683 E47.18922
G1 X121.179 Y50.027 E47.22394
G1 X121.296 Y49.341 E47.25865
G1 X121.296 Y48.645 E47.29338
G1 X121.179 Y47.959 E47.32810
G1 X120.947 Y47.303 E47.36281
G1 X120.608 Y46.696 E47.39750
G1 X120.171 Y46.154 E47.43223
G1 X119.648 Y45.695 E47.46695
G1 X119.056 Y45.330 E47.50165
G1 X118.411 Y45.070 E47.53634
G1 X117.730 Y44.924 E47.57109
G1 X117.034 Y44.894 E47.60584
G1 X116.345 Y44.982 E47.64050
G1 X115.679 Y45.186 E47.67525
G1 X115.058 Y45.500 E47.70997
G1 X114.499 Y45.914 E47.74467
G1 X114.018 Y46.415 E47.77932
G1 X113.627 Y46.992 E47.81409
G1 X113.341 Y47.626 E47.84879
G1 X113.165 Y48.299 E47.88350
G1 X113.107 Y48.993 E47.91824
G1 X113.165 Y49.686 E47.95294
G1 X113.341 Y50.359 E47.98764
G1 X113.629 Y50.997 E48.02257
G1 X114.047 Y51.601 E48.05921
G1 X114.499 Y52.072 E48.09178
G1 X115.058 Y52.486 E48.12648
G0 F9000 X117.035 Y53.090
G0 X119.056 Y52.655
G0 X120.607 Y51.289
G0 X121.295 Y49.340
G0 X128.931 Y39.685
G1 F1800 X129.209 Y39.965 E48.14617
G1 X129.506 Y40.178 E48.16440
G1 X129.830 Y40.334 E48.18234
G1 X130.149 Y40.433 E48.19901
G1 X130.516 Y40.479 E48.21746
G1 X130.910 Y40.457 E48.23715
G1 X131.266 Y40.375 E48.25537
G1 X131.604 Y40.233 E48.27366
G1 X131.911 Y40.035 E48.29189
G1 X132.180 Y39.790 E48.31004
G1 X132.400 Y39.507 E48.32793
G1 X132.563 Y39.216 E48.34457
G1 X132.686 Y38.871 E48.36284
G1 X132.745 Y38.523 E48.38045
G1 X132.754 Y38.308 E48.39118
G1 X132.739 Y38.096 E48.40179
G1 X132.676 Y37.757 E48.41899
G1 X132.562 Y37.437 E48.43594
G1 X132.365 Y37.097 E48.45554
G1 X132.131 Y36.815 E48.47382
G1 X131.852 Y36.578 E48.49209
G1 X131.538 Y36.394 E48.51024
G1 X131.205 Y36.266 E48.52804
G1 X130.878 Y36.194 E48.54475
G1 X130.508 Y36.178 E48.56322
G1 X130.116 Y36.233 E48.58297
G1 X129.767 Y36.346 E48.60127
G1 X129.448 Y36.515 E48.61929
G1 X129.181 Y36.713 E48.63587
G1 X128.928 Y36.977 E48.65411
G1 X128.722 Y37.283 E48.67252
G1 X128.566 Y37.640 E48.69195
G1 X128.481 Y37.965 E48.70871
G1 X128.451 Y38.333 E48.72713
G1 X128.488 Y38.722 E48.74663
G1 X128.574 Y39.047 E48.76340
G1 X128.725 Y39.379 E48.78160
G1 X128.931 Y39.685 E48.80000
G0 F9000 X140.415 Y46.992
G1 F1800 X140.129 Y47.626 E48.83470
G1 X139.953 Y48.299 E48.86940
G1 X139.895 Y48.993 E48.90415
G1 X139.953 Y49.686 E48.93884
G1 X140.129 Y50.359 E48.97355
G1 X140.417 Y50.997 E49.00847
G1 X140.835 Y51.601 E49.04512
G1 X141.286 Y52.072 E49.07765
G1 X141.846 Y52.486 E49.11240
G1 X142.467 Y52.800 E49.14711
G1 X143.132 Y53.003 E49.18180
G1 X143.822 Y53.092 E49.21651
G1 X144.518 Y53.062 E49.25127
G1 X145.199 Y52.915 E49.28602
G1 X145.844 Y52.656 E49.32070
G1 X146.436 Y52.291 E49.35540
G1 X146.959 Y51.832 E49.39011
G1 X147.396 Y51.290 E49.42485
G1 X147.735 Y50.683 E49.45954
G1 X147.967 Y50.027 E49.49425
G1 X148.084 Y49.341 E49.52897
G1 X148.084 Y48.645 E49.56369
G1 X147.967 Y47.959 E49.59841
G1 X147.735 Y47.303 E49.63313
G1 X147.396 Y46.696 E49.66781
G1 X146.959 Y46.154 E49.70255
G1 X146.436 Y45.695 E49.73726
G1 X145.844 Y45.330 E49.77196
G1 X145.199 Y45.070 E49.80666
G1 X144.517 Y44.924 E49.84145
G1 X143.823 Y44.894 E49.87611
G1 X143.132 Y44.982 E49.91086
G1 X142.467 Y45.186 E49.94556
G1 X141.846 Y45.500 E49.98028
G1 X141.286 Y45.914 E50.01502
G1 X140.806 Y46.416 E50.04968
G1 X140.415 Y46.992 E50.08441
G0 F9000 X141.847 Y45.501
G0 X143.823 Y44.896
G0 X145.844 Y45.332
G0 X147.395 Y46.697
G0 X161.432 Y49.010
G1 F1800 X161.399 Y49.379 E50.10289
G1 X161.439 Y49.769 E50.12245
G1 X161.523 Y50.092 E50.13910
G1 X161.673 Y50.424 E50.15728
G1 X161.880 Y50.731 E50.17575
G1 X162.159 Y51.013 E50.19554
G1 X162.457 Y51.224 E50.21376
G1 X162.779 Y51.380 E50.23161
G1 X163.098 Y51.478 E50.24826
G1 X163.466 Y51.526 E50.26677
G1 X163.860 Y51.503 E50.28646
G1 X164.215 Y51.421 E50.30464
G1 X164.553 Y51.279 E50.32293
G1 X164.860 Y51.081 E50.34116
G1 X165.129 Y50.836 E50.35931
G1 X165.349 Y50.554 E50.37715
G1 X165.513 Y50.262 E50.39386
G1 X165.635 Y49.918 E50.41207
G1 X165.695 Y49.568 E50.42979
G1 X165.703 Y49.354 E50.44047
G1 X165.689 Y49.143 E50.45102
G1 X165.625 Y48.803 E50.46828
G1 X165.512 Y48.484 E50.48517
G1 X165.314 Y48.142 E50.50488
G1 X165.080 Y47.861 E50.52312
G1 X164.801 Y47.625 E50.54136
G1 X164.488 Y47.440 E50.55949
G1 X164.153 Y47.311 E50.57740
G1 X163.826 Y47.241 E50.59409
G1 X163.458 Y47.224 E50.61247
G1 X163.065 Y47.280 E50.63227
G1 X162.717 Y47.393 E50.65053
G1 X162.399 Y47.560 E50.66845
G1 X162.130 Y47.759 E50.68514
G1 X161.877 Y48.023 E50.70338
G1 X161.670 Y48.330 E50.72186
G1 X161.516 Y48.688 E50.74130
G1 X161.432 Y49.010 E50.75790
G0 F9000 X162.765 Y63.836
G1 F1800 X162.074 Y63.924 E50.79265
G1 X161.409 Y64.128 E50.82736
G1 X160.789 Y64.441 E50.86201
G1 X160.228 Y64.855 E50.89679
G1 X159.747 Y65.358 E50.93151
G1 X159.357 Y65.934 E50.96622
G1 X159.071 Y66.568 E51.00092
G1 X158.895 Y67.241 E51.03562
G1 X158.837 Y67.935 E51.07037
G1 X158.895 Y68.628 E51.10506
G1 X159.071 Y69.301 E51.13977
G1 X159.357 Y69.936 E51.17451
G1 X159.748 Y70.512 E51.20924
G1 X160.228 Y71.014 E51.24390
G1 X160.789 Y71.428 E51.27868
G1 X161.409 Y71.741 E51.31333
G1 X162.074 Y71.945 E51.34803
G1 X162.765 Y72.034 E51.38279
G1 X163.460 Y72.003 E51.41750
G1 X164.140 Y71.857 E51.45220
G1 X164.785 Y71.598 E51.48688
G1 X165.378 Y71.233 E51.52162
G1 X165.901 Y70.774 E51.55633
G1 X166.224 Y70.373 E51.58202
G1 X166.362 Y70.188 E51.59353
G1 X166.677 Y69.624 E51.62576
G1 X166.909 Y68.969 E51.66043
G1 X167.026 Y68.283 E51.69515
G1 X167.026 Y67.587 E51.72987
G1 X166.909 Y66.901 E51.76459
G1 X166.677 Y66.245 E51.79931
G1 X166.338 Y65.638 E51.83399
G1 X165.901 Y65.096 E51.86873
G1 X165.378 Y64.637 E51.90344
G1 X164.785 Y64.272 E51.93818
G1 X164.141 Y64.012 E51.97283
G1 X163.459 Y63.866 E52.00763
G1 X162.765 Y63.836 E52.04229
G0 F9000 X160.790 Y64.442
G0 X159.358 Y65.935
G0 X158.838 Y67.935
G0 X159.358 Y69.935
G0 X160.790 Y71.427
G0 X162.765 Y90.624
G1 F1800 X162.074 Y90.712 E52.07704
G1 X161.409 Y90.916 E52.11174
G1 X160.789 Y91.229 E52.14639
G1 X160.228 Y91.643 E52.18118
