;Generated with Cura_SteamEngine 15.01
; Default start code
G28 ; Home extruder
G1 Z15 F2000
M107 ; Turn off fan
G90 ; Absolute positioning
M82 ; Extruder in absolute mode
M104 T0 S180
M190 S50
; Activate all used extruder
G92 E0 ; Reset extruder position
; Wait for all used extruders to reach temperature
M109 T0 S210 R210
;Layer count: 20
;LAYER:0
M107
G0 F9000 X79.454 Y63.509 Z0.300
;TYPE:SKIRT
G1 F1800 X82.481 Y59.582 E0.24737
G1 X86.950 Y54.936 E0.56898
G1 X87.376 Y54.514 E0.59890
G1 X92.579 Y50.171 E0.93702
G1 X96.260 Y47.727 E1.15746
G1 X98.337 Y46.348 E1.28184
G1 X104.054 Y43.397 E1.60282
G1 X104.556 Y43.148 E1.63078
G1 X105.736 Y42.693 E1.69388
G1 X110.931 Y40.695 E1.97156
G1 X117.614 Y38.933 E2.31637
G1 X123.952 Y37.986 E2.63609
G1 X124.448 Y37.911 E2.66111
G1 X130.854 Y37.661 E2.98095
G1 X130.854 Y37.662 E2.98100
G1 X131.356 Y37.642 E3.00607
G1 X137.753 Y38.092 E3.32600
G1 X138.256 Y38.129 E3.35117
G1 X144.559 Y39.275 E3.67078
G1 X145.053 Y39.365 E3.69583
G1 X146.805 Y39.886 E3.78702
G1 X151.678 Y41.336 E4.04067
G1 X157.967 Y43.986 E4.38115
G1 X165.213 Y47.516 E4.78327
G1 X165.756 Y47.781 E4.81341
G1 X176.114 Y52.827 E5.38823
G1 X176.906 Y53.213 E5.43219
G1 X205.968 Y67.373 E7.04505
G1 X209.980 Y69.688 E7.27614
G1 X210.380 Y69.919 E7.29918
G1 X213.708 Y72.518 E7.50985
G1 X214.480 Y73.120 E7.55869
G1 X218.097 Y76.864 E7.81841
G1 X220.885 Y80.700 E8.05499
G1 X221.157 Y81.074 E8.07807
G1 X223.382 Y85.256 E8.31440
G1 X223.600 Y85.665 E8.33752
G1 X225.220 Y90.118 E8.57393
G1 X225.380 Y90.555 E8.59714
G1 X226.366 Y95.190 E8.83356
G1 X226.463 Y95.644 E8.85672
G1 X226.794 Y100.373 E9.09323
G1 X226.827 Y100.837 E9.11644
G1 X226.496 Y105.571 E9.35319
G1 X226.463 Y106.032 E9.37625
G1 X225.476 Y110.672 E9.61292
G1 X225.379 Y111.123 E9.63594
G1 X223.758 Y115.578 E9.87245
G1 X223.599 Y116.013 E9.89556
G1 X221.372 Y120.198 E10.13207
G1 X221.155 Y120.606 E10.15513
G1 X218.370 Y124.437 E10.39142
G1 X218.098 Y124.812 E10.41454
G1 X216.623 Y126.340 E10.52049
G1 X214.481 Y128.556 E10.67425
G1 X210.379 Y131.759 E10.93390
G1 X206.212 Y134.163 E11.17391
G1 X205.582 Y134.491 E11.20934
G1 X157.967 Y157.692 E13.85187
G1 X151.693 Y160.335 E14.19152
G1 X145.537 Y162.169 E14.51198
G1 X145.052 Y162.313 E14.53722
G1 X138.750 Y163.457 E14.85677
G1 X138.750 Y163.458 E14.85682
G1 X138.253 Y163.549 E14.88203
G1 X131.860 Y163.999 E15.20176
G1 X131.362 Y164.036 E15.22668
G1 X124.953 Y163.787 E15.54666
G1 X124.449 Y163.767 E15.57183
G1 X118.111 Y162.819 E15.89155
G1 X117.613 Y162.743 E15.91668
G1 X111.417 Y161.110 E16.23636
G1 X110.930 Y160.981 E16.26149
G1 X104.480 Y158.501 E16.60625
G1 X98.784 Y155.560 E16.92607
G1 X98.336 Y155.328 E16.95124
G1 X96.260 Y153.950 E17.07555
G1 X92.579 Y151.506 E17.29599
G1 X87.657 Y147.399 E17.61581
G1 X87.270 Y147.076 E17.64096
G1 X82.481 Y142.095 E17.98569
G1 X79.464 Y138.181 E18.23224
G1 X78.260 Y136.618 E18.33067
G1 X77.904 Y136.031 E18.36492
G1 X74.666 Y130.717 E18.67537
G1 X71.736 Y124.455 E19.02029
G1 X69.508 Y117.913 E19.36508
G1 X68.117 Y111.658 E19.68477
G1 X68.118 Y111.658 E19.68482
G1 X68.008 Y111.168 E19.70988
G1 X67.308 Y104.795 E20.02974
G1 X67.253 Y104.295 E20.05483
G1 X67.253 Y97.383 E20.39967
G1 X67.952 Y91.012 E20.71943
G1 X68.007 Y90.511 E20.74458
G1 X69.399 Y84.253 E21.06442
G1 X69.509 Y83.762 E21.08952
G1 X71.581 Y77.676 E21.41027
G1 X71.766 Y77.158 E21.43771
G1 X74.666 Y70.961 E21.77906
G1 X78.154 Y65.235 E22.11356
G1 X79.454 Y63.509 E22.22136
G1 F2400 E18.22136
G0 F9000 X82.474 Y65.815
;TYPE:WALL-INNER
G1 F2400 E22.22136
G1 F1800 X85.363 Y62.067 E22.45745
G1 X89.651 Y57.608 E22.76609
G1 X89.927 Y57.335 E22.78546
G1 X94.858 Y53.220 E23.10587
G1 X100.269 Y49.627 E23.42992
G1 X105.767 Y46.789 E23.73861
G1 X106.083 Y46.632 E23.75621
G1 X112.104 Y44.316 E24.07806
G1 X118.384 Y42.660 E24.40208
G1 X124.799 Y41.701 E24.72568
G1 X131.297 Y41.447 E25.05011
G1 X137.482 Y41.883 E25.35945
G1 X137.776 Y41.904 E25.37415
G1 X144.166 Y43.066 E25.69818
G1 X150.393 Y44.918 E26.02230
G1 X156.402 Y47.450 E26.34761
G1 X204.177 Y70.727 E28.99897
G1 X208.252 Y73.079 E29.23371
G1 X211.930 Y75.950 E29.46649
G1 X215.182 Y79.316 E29.69999
G1 X217.924 Y83.089 E29.93269
G1 X220.121 Y87.218 E30.16603
G1 X221.651 Y91.424 E30.38932
G1 X221.718 Y91.605 E30.39895
G1 X222.650 Y95.986 E30.62241
G1 X222.691 Y96.177 E30.63215
G1 X223.017 Y100.839 E30.86531
G1 X222.691 Y105.501 E31.09847
G1 X221.760 Y109.877 E31.32167
G1 X221.718 Y110.071 E31.33157
G1 X220.188 Y114.276 E31.55482
G1 X220.123 Y114.454 E31.56427
G1 X217.924 Y118.588 E31.79788
G1 X215.182 Y122.361 E32.03058
G1 X211.930 Y125.727 E32.26408
G1 X208.252 Y128.598 E32.49686
G1 X204.381 Y130.832 E32.71984
G1 X203.863 Y131.102 E32.74898
G1 X156.402 Y154.228 E35.38296
G1 X150.408 Y156.753 E35.70745
G1 X144.166 Y158.612 E36.03238
G1 X137.785 Y159.772 E36.35595
G1 X131.592 Y160.209 E36.66569
G1 X131.304 Y160.230 E36.68009
G1 X124.799 Y159.977 E37.00487
G1 X118.384 Y159.017 E37.32848
G1 X112.101 Y157.360 E37.65266
G1 X106.037 Y155.029 E37.97678
G1 X100.269 Y152.050 E38.30066
G1 X94.853 Y148.454 E38.62500
G1 X90.093 Y144.483 E38.93426
G1 X89.871 Y144.297 E38.94871
G1 X85.359 Y139.605 E39.27347
G1 X81.401 Y134.468 E39.59701
G1 X78.019 Y128.917 E39.92130
G1 X75.268 Y123.037 E40.24517
G1 X73.174 Y116.888 E40.56925
G1 X71.827 Y110.832 E40.87876
G1 X71.761 Y110.543 E40.89355
G1 X71.053 Y104.090 E41.21743
G1 X71.053 Y97.587 E41.54186
G1 X71.761 Y91.140 E41.86544
G1 X73.108 Y85.081 E42.17510
G1 X73.171 Y84.796 E42.18967
G1 X75.168 Y78.932 E42.49872
G1 X75.287 Y78.600 E42.51632
G1 X78.019 Y72.761 E42.83794
G1 X81.300 Y67.373 E43.15266
G1 X82.474 Y65.815 E43.24999
G0 F9000 X83.314 Y71.578
G1 F1800 X82.939 Y71.628 E43.26886
G1 X82.602 Y71.732 E43.28646
G1 X82.264 Y71.905 E43.30540
G1 X81.972 Y72.125 E43.32364
G1 X81.723 Y72.388 E43.34171
G1 X81.523 Y72.688 E43.35970
G1 X81.374 Y73.026 E43.37813
G1 X81.285 Y73.365 E43.39561
G1 X81.255 Y73.730 E43.41388
G1 X81.289 Y74.106 E43.43272
G1 X81.380 Y74.455 E43.45071
G1 X81.537 Y74.793 E43.46931
G1 X81.743 Y75.091 E43.48738
G1 X81.985 Y75.344 E43.50485
G1 X82.281 Y75.563 E43.52322
G1 X82.619 Y75.728 E43.54198
G1 X82.952 Y75.831 E43.55937
G1 X83.316 Y75.879 E43.57769
G1 X83.696 Y75.861 E43.59667
G1 X84.053 Y75.780 E43.61493
G1 X84.389 Y75.642 E43.63305
G1 X84.688 Y75.457 E43.65060
G1 X84.972 Y75.205 E43.66954
G1 X85.199 Y74.918 E43.68779
G1 X85.372 Y74.601 E43.70581
G1 X85.490 Y74.271 E43.72330
G1 X85.549 Y73.924 E43.74086
G1 X85.558 Y73.718 E43.75114
G1 X85.546 Y73.515 E43.76129
G1 X85.485 Y73.170 E43.77877
G1 X85.360 Y72.826 E43.79703
G1 X85.180 Y72.511 E43.81513
G1 X84.958 Y72.237 E43.83272
G1 X84.670 Y71.989 E43.85168
G1 X84.362 Y71.802 E43.86966
G1 X84.037 Y71.670 E43.88716
G1 X83.679 Y71.594 E43.90542
G1 X83.314 Y71.578 E43.92365
G0 F9000 X84.957 Y72.237
G0 X88.823 Y75.188
G1 F1800 X85.991 Y80.475 E44.22287
G1 X83.829 Y86.070 E44.52212
G1 X82.369 Y91.888 E44.82139
G1 X81.633 Y97.840 E45.12059
G1 X81.633 Y103.838 E45.41983
G1 X82.369 Y109.790 E45.71904
G1 X83.829 Y115.607 E46.01826
G1 X85.991 Y121.202 E46.31751
G1 X88.822 Y126.489 E46.61671
G1 X92.281 Y131.388 E46.91591
G1 X96.314 Y135.828 E47.21516
G1 X100.861 Y139.739 E47.51438
G1 X105.853 Y143.063 E47.81359
G1 X111.215 Y145.749 E48.11279
G1 X116.867 Y147.758 E48.41205
G1 X122.722 Y149.059 E48.71128
G1 X128.691 Y149.632 E49.01045
G1 X134.687 Y149.469 E49.30970
G1 X140.617 Y148.572 E49.60891
G1 X146.392 Y146.954 E49.90813
G1 X151.909 Y144.648 E50.20645
G1 X199.581 Y121.180 E52.85738
G1 X202.881 Y119.187 E53.04971
G1 X205.814 Y116.645 E53.24335
G1 X208.269 Y113.640 E53.43694
G1 X210.177 Y110.259 E53.63063
G1 X211.481 Y106.604 E53.82423
G1 X212.142 Y102.779 E54.01789
G1 X212.142 Y98.899 E54.21147
G1 X211.481 Y95.074 E54.40512
G1 X210.177 Y91.418 E54.59878
G1 X208.269 Y88.038 E54.79242
G1 X205.814 Y85.032 E54.98605
G1 X202.881 Y82.490 E55.17969
G1 X199.581 Y80.497 E55.37202
G1 X151.909 Y57.029 E58.02295
G1 X146.392 Y54.723 E58.32127
G1 X140.617 Y53.105 E58.62048
G1 X134.687 Y52.208 E58.91970
G1 X128.691 Y52.045 E59.21895
G1 X122.722 Y52.618 E59.51811
G1 X116.867 Y53.919 E59.81735
G1 X111.215 Y55.928 E60.11661
G1 X105.853 Y58.615 E60.41583
G1 X100.861 Y61.939 E60.71504
G1 X96.314 Y65.849 E61.01423
G1 X92.281 Y70.289 E61.31348
G1 X88.823 Y75.188 E61.61265
G0 F9000 X92.281 Y70.289
G0 X96.315 Y65.850
G0 X100.862 Y61.940
G0 X105.854 Y58.615
G0 X111.216 Y55.928
G0 X116.867 Y53.920
G0 X128.701 Y47.984
G1 F1800 X128.953 Y48.241 E61.63061
G1 X129.237 Y48.452 E61.64826
G1 X129.575 Y48.618 E61.66704
G1 X129.910 Y48.722 E61.68454
G1 X130.273 Y48.768 E61.70280
G1 X130.652 Y48.750 E61.72173
G1 X131.009 Y48.671 E61.73997
G1 X131.346 Y48.532 E61.75816
G1 X131.646 Y48.346 E61.77577
G1 X131.928 Y48.093 E61.79467
G1 X132.154 Y47.809 E61.81278
G1 X132.330 Y47.490 E61.83095
G1 X132.446 Y47.160 E61.84840
G1 X132.506 Y46.812 E61.86602
G1 X132.514 Y46.608 E61.87621
G1 X132.503 Y46.405 E61.88635
G1 X132.440 Y46.059 E61.90390
G1 X132.317 Y45.715 E61.92212
G1 X132.136 Y45.400 E61.94025
G1 X131.915 Y45.126 E61.95781
G1 X131.627 Y44.878 E61.97677
G1 X131.319 Y44.692 E61.99472
G1 X130.995 Y44.561 E62.01216
G1 X130.637 Y44.483 E62.03044
G1 X130.269 Y44.467 E62.04881
G1 X129.895 Y44.518 E62.06765
G1 X129.558 Y44.622 E62.08524
G1 X129.222 Y44.794 E62.10407
G1 X128.929 Y45.014 E62.12235
G1 X128.680 Y45.278 E62.14046
G1 X128.483 Y45.571 E62.15807
G1 X128.330 Y45.915 E62.17686
G1 X128.243 Y46.254 E62.19432
G1 X128.211 Y46.620 E62.21265
G1 X128.246 Y46.997 E62.23154
G1 X128.334 Y47.334 E62.24891
G1 X128.485 Y47.669 E62.26725
G1 X128.701 Y47.984 E62.28630
G0 F9000 X130.273 Y48.766
G0 X168.829 Y59.638
G1 F1800 X168.741 Y59.975 E62.30368
G1 X168.709 Y60.342 E62.32206
G1 X168.744 Y60.718 E62.34090
G1 X168.833 Y61.060 E62.35853
G1 X168.992 Y61.404 E62.37743
G1 X169.197 Y61.703 E62.39552
G1 X169.439 Y61.956 E62.41299
G1 X169.736 Y62.174 E62.43137
G1 X170.072 Y62.341 E62.45009
G1 X170.408 Y62.445 E62.46764
G1 X170.772 Y62.491 E62.48594
G1 X171.151 Y62.473 E62.50487
G1 X171.508 Y62.392 E62.52313
G1 X171.843 Y62.254 E62.54121
G1 X172.143 Y62.070 E62.55877
G1 X172.426 Y61.816 E62.57774
G1 X172.653 Y61.530 E62.59596
G1 X172.828 Y61.212 E62.61406
G1 X172.944 Y60.883 E62.63147
G1 X173.006 Y60.525 E62.64959
G1 X173.007 Y60.164 E62.66761
G1 X172.939 Y59.782 E62.68696
G1 X172.815 Y59.439 E62.70516
G1 X172.635 Y59.122 E62.72335
G1 X172.412 Y58.849 E62.74093
G1 X172.126 Y58.601 E62.75982
G1 X171.817 Y58.414 E62.77784
G1 X171.492 Y58.282 E62.79534
G1 X171.134 Y58.206 E62.81360
G1 X170.769 Y58.190 E62.83182
G1 X170.394 Y58.240 E62.85070
G1 X170.055 Y58.344 E62.86839
G1 X169.719 Y58.518 E62.88727
G1 X169.427 Y58.737 E62.90548
G1 X169.178 Y59.001 E62.92358
G1 X168.981 Y59.294 E62.94120
G1 X168.829 Y59.638 E62.95996
G0 F9000 X168.993 Y61.402
G0 X170.408 Y62.443
G0 X172.142 Y62.069
G0 X208.428 Y80.345
G1 F1800 X208.275 Y80.691 E62.97883
G1 X208.187 Y81.030 E62.99631
G1 X208.157 Y81.395 E63.01458
G1 X208.191 Y81.770 E63.03336
G1 X208.280 Y82.113 E63.05104
G1 X208.439 Y82.458 E63.07000
G1 X208.645 Y82.756 E63.08807
G1 X208.887 Y83.009 E63.10554
G1 X209.183 Y83.228 E63.12391
G1 X209.521 Y83.393 E63.14267
G1 X209.854 Y83.496 E63.16006
G1 X210.218 Y83.544 E63.17838
G1 X210.599 Y83.526 E63.19741
G1 X210.957 Y83.445 E63.21572
G1 X211.291 Y83.307 E63.23375
G1 X211.590 Y83.122 E63.25129
G1 X211.874 Y82.870 E63.27023
G1 X212.099 Y82.585 E63.28835
G1 X212.272 Y82.276 E63.30602
G1 X212.394 Y81.921 E63.32474
G1 X212.453 Y81.577 E63.34216
G1 X212.454 Y81.218 E63.36007
G1 X212.388 Y80.839 E63.37926
G1 X212.262 Y80.492 E63.39768
G1 X212.082 Y80.176 E63.41582
G1 X211.860 Y79.902 E63.43342
G1 X211.572 Y79.654 E63.45238
G1 X211.264 Y79.467 E63.47035
G1 X210.940 Y79.335 E63.48781
G1 X210.582 Y79.259 E63.50607
G1 X210.216 Y79.243 E63.52434
G1 X209.841 Y79.293 E63.54322
G1 X209.504 Y79.397 E63.56081
G1 X209.166 Y79.570 E63.57976
G1 X208.874 Y79.790 E63.59800
G1 X208.627 Y80.052 E63.61596
G1 X208.428 Y80.345 E63.63363
G0 F9000 X208.281 Y82.112
G0 X211.480 Y95.075
G0 X212.141 Y98.899
G0 X212.141 Y102.779
G0 X211.480 Y106.603
G0 X210.216 Y118.133
G1 F1800 X209.840 Y118.184 E63.65256
G1 X209.504 Y118.288 E63.67011
G1 X209.166 Y118.461 E63.68905
G1 X208.874 Y118.681 E63.70729
G1 X208.627 Y118.943 E63.72526
G1 X208.428 Y119.236 E63.74293
G1 X208.275 Y119.582 E63.76180
G1 X208.187 Y119.921 E63.77928
G1 X208.157 Y120.286 E63.79755
G1 X208.191 Y120.662 E63.81638
G1 X208.279 Y121.000 E63.83381
G1 X208.430 Y121.336 E63.85219
G1 X208.645 Y121.647 E63.87105
G1 X208.887 Y121.900 E63.88852
G1 X209.183 Y122.119 E63.90689
G1 X209.521 Y122.284 E63.92565
G1 X209.854 Y122.387 E63.94304
G1 X210.219 Y122.435 E63.96141
G1 X210.599 Y122.416 E63.98039
G1 X210.956 Y122.336 E63.99864
G1 X211.291 Y122.198 E64.01672
G1 X211.590 Y122.013 E64.03426
G1 X211.874 Y121.761 E64.05320
G1 X212.099 Y121.476 E64.07132
G1 X212.272 Y121.167 E64.08898
G1 X212.394 Y120.812 E64.10771
G1 X212.451 Y120.480 E64.12452
G1 X212.460 Y120.274 E64.13481
G1 X212.448 Y120.070 E64.14500
G1 X212.388 Y119.728 E64.16232
G1 X212.261 Y119.382 E64.18071
G1 X212.082 Y119.067 E64.19879
G1 X211.860 Y118.793 E64.21638
G1 X211.572 Y118.545 E64.23534
G1 X211.264 Y118.358 E64.25332
G1 X210.940 Y118.226 E64.27077
G1 X210.583 Y118.150 E64.28898
G1 X210.216 Y118.133 E64.30731
G0 F9000 X208.875 Y118.682
G0 X172.635 Y140.119
G1 F1800 X172.412 Y139.844 E64.32498
G1 X172.125 Y139.597 E64.34387
G1 X171.817 Y139.411 E64.36182
G1 X171.493 Y139.280 E64.37925
G1 X171.135 Y139.202 E64.39753
G1 X170.768 Y139.186 E64.41586
G1 X170.393 Y139.237 E64.43474
G1 X170.056 Y139.341 E64.45234
G1 X169.720 Y139.513 E64.47117
G1 X169.427 Y139.733 E64.48945
G1 X169.178 Y139.997 E64.50755
G1 X168.981 Y140.290 E64.52517
G1 X168.828 Y140.634 E64.54395
G1 X168.741 Y140.973 E64.56141
G1 X168.709 Y141.339 E64.57974
G1 X168.744 Y141.716 E64.59863
G1 X168.832 Y142.053 E64.61601
G1 X168.983 Y142.388 E64.63434
G1 X169.199 Y142.703 E64.65340
G1 X169.451 Y142.960 E64.67135
G1 X169.735 Y143.171 E64.68901
G1 X170.073 Y143.337 E64.70779
G1 X170.408 Y143.441 E64.72529
G1 X170.772 Y143.487 E64.74360
G1 X171.150 Y143.469 E64.76248
G1 X171.507 Y143.390 E64.78072
G1 X171.844 Y143.251 E64.79891
G1 X172.144 Y143.065 E64.81652
G1 X172.426 Y142.812 E64.83542
G1 X172.653 Y142.528 E64.85356
G1 X172.828 Y142.208 E64.87175
G1 X172.944 Y141.879 E64.88916
G1 X173.004 Y141.531 E64.90677
G1 X173.012 Y141.327 E64.91696
G1 X173.001 Y141.124 E64.92710
G1 X172.938 Y140.778 E64.94465
G1 X172.815 Y140.435 E64.96283
G1 X172.635 Y140.119 E64.98097
G0 F9000 X171.134 Y139.203
G0 X169.428 Y139.734
G0 X168.709 Y141.338
G0 X132.440 Y154.501
G1 F1800 X132.317 Y154.157 E64.99920
G1 X132.136 Y153.842 E65.01732
G1 X131.915 Y153.569 E65.03485
G1 X131.628 Y153.320 E65.05380
G1 X131.319 Y153.133 E65.07182
G1 X130.994 Y153.001 E65.08932
G1 X130.636 Y152.925 E65.10758
G1 X130.270 Y152.909 E65.12586
G1 X129.896 Y152.959 E65.14468
G1 X129.557 Y153.063 E65.16237
G1 X129.221 Y153.237 E65.18125
G1 X128.929 Y153.456 E65.19946
G1 X128.680 Y153.720 E65.21757
G1 X128.483 Y154.013 E65.23518
G1 X128.330 Y154.357 E65.25396
G1 X128.243 Y154.696 E65.27142
G1 X128.210 Y155.061 E65.28971
G1 X128.246 Y155.437 E65.30855
G1 X128.335 Y155.779 E65.32618
G1 X128.494 Y156.123 E65.34509
G1 X128.699 Y156.422 E65.36318
G1 X128.941 Y156.675 E65.38064
G1 X129.238 Y156.893 E65.39902
G1 X129.574 Y157.060 E65.41774
G1 X129.910 Y157.164 E65.43529
G1 X130.273 Y157.210 E65.45355
G1 X130.652 Y157.192 E65.47248
G1 X131.010 Y157.112 E65.49078
G1 X131.346 Y156.973 E65.50892
G1 X131.645 Y156.789 E65.52643
G1 X131.929 Y156.534 E65.54548
G1 X132.154 Y156.249 E65.56359
G1 X132.329 Y155.932 E65.58166
G1 X132.446 Y155.602 E65.59913
G1 X132.506 Y155.254 E65.61674
G1 X132.514 Y155.049 E65.62698
G1 X132.503 Y154.847 E65.63707
G1 X132.440 Y154.501 E65.65462
G0 F9000 X131.318 Y153.134
G0 X111.216 Y145.749
G0 X105.854 Y143.063
G0 X100.862 Y139.738
G0 X96.314 Y135.827
G0 X85.372 Y128.821
G1 F1800 X85.490 Y128.492 E65.67205
G1 X85.549 Y128.143 E65.68971
G1 X85.558 Y127.939 E65.69990
G1 X85.546 Y127.735 E65.71010
G1 X85.485 Y127.389 E65.72762
