;Generated with Cura_SteamEngine 15.01
; Default start code
G28 ; Home extruder
G1 Z15 F2000
M107 ; Turn off fan
G90 ; Absolute positioning
M82 ; Extruder in absolute mode
M104 T0 S180
M190 S50
; Activate all used extruder
G92 E0 ; Reset extruder position
; Wait for all used extruders to reach temperature
M109 T0 S210 R210
;Layer count: 45
;LAYER:0
M107
G0 F9000 X41.662 Y54.979 Z0.300
;TYPE:SKIRT
G1 F1800 X46.591 Y50.881 E0.31980
G1 X47.920 Y49.999 E0.39938
G1 X52.206 Y47.166 E0.65569
G1 X54.851 Y45.806 E0.80408
G1 X58.173 Y44.102 E0.99034
G1 X64.077 Y41.847 E1.30565
G1 X64.437 Y41.709 E1.32488
G1 X70.554 Y40.115 E1.64025
G1 X70.922 Y40.017 E1.65925
G1 X71.600 Y39.917 E1.69344
G1 X77.565 Y39.043 E1.99422
G1 X83.873 Y38.817 E2.30913
G1 X84.263 Y38.803 E2.32860
G1 X88.094 Y39.085 E2.52024
G1 X90.956 Y39.297 E2.66342
G1 X94.567 Y39.966 E2.84664
G1 X97.551 Y40.520 E2.99805
G1 X103.615 Y42.349 E3.31405
G1 X104.001 Y42.469 E3.33422
G1 X110.062 Y45.050 E3.66288
G1 X158.946 Y69.115 E6.38122
G1 X162.915 Y71.450 E6.61096
G1 X163.254 Y71.649 E6.63057
G1 X166.449 Y74.234 E6.83560
G1 X167.229 Y74.864 E6.88563
G1 X170.435 Y78.362 E7.12235
G1 X170.682 Y78.627 E7.14043
G1 X173.550 Y82.875 E7.39614
G1 X174.796 Y85.490 E7.54065
G1 X174.797 Y85.490 E7.54070
G1 X175.752 Y87.491 E7.65132
G1 X177.129 Y91.993 E7.88620
G1 X177.247 Y92.375 E7.90615
G1 X177.948 Y97.053 E8.14214
G1 X177.947 Y97.053 E8.14219
G1 X178.006 Y97.441 E8.16177
G1 X178.006 Y102.557 E8.41701
G1 X177.307 Y107.230 E8.65274
G1 X177.248 Y107.618 E8.67232
G1 X175.866 Y112.139 E8.90817
G1 X175.749 Y112.514 E8.92777
G1 X174.865 Y114.368 E9.03024
G1 X173.549 Y117.125 E9.18266
G1 X172.435 Y118.774 E9.28194
G1 X170.688 Y121.363 E9.43776
G1 X167.264 Y125.097 E9.69052
G1 X166.456 Y125.759 E9.74263
G1 X163.253 Y128.351 E9.94820
G1 X159.107 Y130.788 E10.18813
G1 X158.480 Y131.113 E10.22336
G1 X110.105 Y154.928 E12.91341
G1 X108.008 Y155.824 E13.02718
G1 X103.988 Y157.535 E13.24515
G1 X97.923 Y159.366 E13.56122
G1 X97.556 Y159.478 E13.58036
G1 X91.341 Y160.630 E13.89571
G1 X91.341 Y160.631 E13.89576
G1 X90.957 Y160.702 E13.91524
G1 X88.306 Y160.897 E14.04786
G1 X84.267 Y161.196 E14.24992
G1 X77.949 Y160.970 E14.56533
G1 X77.562 Y160.955 E14.58465
G1 X71.310 Y160.039 E14.89989
G1 X70.927 Y159.982 E14.91921
G1 X64.649 Y158.346 E15.24288
G1 X58.184 Y155.902 E15.58770
G1 X54.852 Y154.193 E15.77452
G1 X52.206 Y152.833 E15.92295
G1 X46.611 Y149.135 E16.25755
G1 X41.750 Y145.093 E16.57295
G1 X41.452 Y144.844 E16.59232
G1 X37.070 Y140.301 E16.90723
G1 X36.799 Y140.020 E16.92671
G1 X32.697 Y134.712 E17.26138
G1 X29.200 Y128.987 E17.59607
G1 X26.352 Y122.914 E17.93072
G1 X24.311 Y116.933 E18.24601
G1 X24.186 Y116.569 E18.26521
G1 X22.727 Y110.020 E18.59995
G1 X22.036 Y103.739 E18.91520
G1 X22.037 Y103.739 E18.91525
G1 X21.993 Y103.359 E18.93434
G1 X21.993 Y96.645 E19.26930
G1 X22.685 Y90.359 E19.58480
G1 X22.729 Y89.974 E19.60414
G1 X23.530 Y86.375 E19.78808
G1 X24.186 Y83.432 E19.93851
G1 X26.239 Y77.417 E20.25560
G1 X26.392 Y76.999 E20.27781
G1 X29.201 Y71.012 E20.60774
G1 X32.636 Y65.387 E20.93657
G1 X33.498 Y64.250 E21.00775
G1 X36.797 Y59.981 E21.27692
G1 X41.241 Y55.373 E21.59630
G1 X41.662 Y54.979 E21.62507
G1 F2400 E17.62507
G0 F9000 X44.177 Y57.830
;TYPE:WALL-INNER
G1 F2400 E21.62507
G1 F1800 X48.861 Y53.935 E21.92899
G1 X50.018 Y53.168 E21.99825
G1 X54.130 Y50.450 E22.24416
G1 X59.721 Y47.579 E22.55772
G1 X65.601 Y45.333 E22.87175
G1 X71.513 Y43.791 E23.17657
G1 X71.680 Y43.747 E23.18519
G1 X77.911 Y42.834 E23.49937
G1 X84.016 Y42.615 E23.80415
G1 X84.203 Y42.608 E23.81348
G1 X90.465 Y43.070 E24.12674
G1 X96.658 Y44.219 E24.44099
G1 X102.498 Y45.980 E24.74530
G1 X102.691 Y46.041 E24.75540
G1 X108.481 Y48.507 E25.06937
G1 X157.141 Y72.462 E27.77526
G1 X161.085 Y74.782 E28.00355
G1 X164.620 Y77.641 E28.23037
G1 X167.649 Y80.946 E28.45403
G1 X167.697 Y80.998 E28.45756
G1 X170.240 Y84.765 E28.68431
G1 X172.202 Y88.874 E28.91148
G1 X173.500 Y93.120 E29.13299
G1 X173.533 Y93.227 E29.13858
G1 X174.206 Y97.722 E29.36534
G1 X174.206 Y102.277 E29.59259
G1 X173.533 Y106.772 E29.81934
G1 X172.235 Y111.018 E30.04085
G1 X172.202 Y111.123 E30.04634
G1 X170.240 Y115.234 E30.27360
G1 X167.694 Y119.006 E30.50065
G1 X164.648 Y122.328 E30.72551
G1 X164.056 Y122.813 E30.76369
G1 X161.085 Y125.217 E30.95436
G1 X157.277 Y127.456 E31.17474
G1 X156.762 Y127.723 E31.20369
G1 X108.529 Y151.469 E33.88586
G1 X102.684 Y153.960 E34.20284
G1 X96.824 Y155.729 E34.50823
G1 X96.652 Y155.781 E34.51719
G1 X90.465 Y156.929 E34.83113
G1 X84.201 Y157.391 E35.14449
G1 X78.090 Y157.172 E35.44957
G1 X77.909 Y157.165 E35.45861
G1 X71.685 Y156.253 E35.77244
G1 X65.798 Y154.718 E36.07596
G1 X59.732 Y152.424 E36.39951
G1 X54.130 Y149.549 E36.71366
G1 X48.877 Y146.077 E37.02780
G1 X44.182 Y142.173 E37.33243
G1 X44.047 Y142.061 E37.34119
G1 X39.676 Y137.529 E37.65531
G1 X35.830 Y132.552 E37.96912
G1 X32.551 Y127.183 E38.28298
G1 X29.882 Y121.492 E38.59658
G1 X27.908 Y115.706 E38.90158
G1 X27.851 Y115.541 E38.91029
G1 X26.481 Y109.391 E39.22464
G1 X25.813 Y103.322 E39.52925
G1 X25.793 Y103.145 E39.53814
G1 X25.793 Y96.851 E39.85214
G1 X26.461 Y90.783 E40.15671
G1 X26.481 Y90.607 E40.16554
G1 X27.850 Y84.462 E40.47964
G1 X29.823 Y78.680 E40.78443
G1 X29.902 Y78.465 E40.79586
G1 X32.551 Y72.816 E41.10714
G1 X35.779 Y67.532 E41.41606
G1 X36.514 Y66.562 E41.47677
G1 X39.676 Y62.470 E41.73477
G1 X43.919 Y58.071 E42.03969
G1 X44.177 Y57.830 E42.05731
G0 F9000 X37.271 Y71.052
G1 F1800 X36.946 Y70.890 E42.07542
G1 X36.607 Y70.786 E42.09311
G1 X36.244 Y70.738 E42.11138
G1 X35.868 Y70.756 E42.13016
G1 X35.513 Y70.835 E42.14831
G1 X35.183 Y70.968 E42.16606
G1 X34.864 Y71.166 E42.18479
G1 X34.593 Y71.408 E42.20292
G1 X34.370 Y71.683 E42.22058
G1 X34.191 Y72.003 E42.23887
G1 X34.070 Y72.347 E42.25707
G1 X34.010 Y72.695 E42.27468
G1 X34.003 Y72.895 E42.28467
G1 X34.011 Y73.095 E42.29465
G1 X34.073 Y73.442 E42.31224
G1 X34.192 Y73.779 E42.33007
G1 X34.377 Y74.103 E42.34868
G1 X34.606 Y74.384 E42.36677
G1 X34.874 Y74.620 E42.38458
G1 X35.193 Y74.814 E42.40321
G1 X35.522 Y74.946 E42.42090
G1 X35.879 Y75.024 E42.43913
G1 X36.247 Y75.040 E42.45750
G1 X36.617 Y74.990 E42.47613
G1 X36.966 Y74.882 E42.49436
G1 X37.290 Y74.715 E42.51254
G1 X37.582 Y74.498 E42.53069
G1 X37.829 Y74.239 E42.54855
G1 X38.037 Y73.927 E42.56726
G1 X38.184 Y73.596 E42.58533
G1 X38.273 Y73.253 E42.60301
G1 X38.305 Y72.888 E42.62128
G1 X38.271 Y72.514 E42.64002
G1 X38.178 Y72.163 E42.65814
G1 X38.026 Y71.829 E42.67644
G1 X37.819 Y71.527 E42.69471
G1 X37.565 Y71.266 E42.71288
G1 X37.271 Y71.052 E42.73102
G0 F9000 X75.425 Y95.706
G1 F1800 X74.810 Y97.067 E42.80553
G1 X74.434 Y98.512 E42.88003
G1 X74.307 Y100.000 E42.95453
G1 X74.434 Y101.487 E43.02899
G1 X74.810 Y102.932 E43.10348
G1 X75.425 Y104.293 E43.17799
G1 X76.262 Y105.529 E43.25246
G1 X77.294 Y106.607 E43.32692
G1 X78.494 Y107.495 E43.40140
G1 X79.828 Y108.167 E43.47592
G1 X81.255 Y108.604 E43.55037
G1 X82.735 Y108.794 E43.62482
G1 X84.227 Y108.730 E43.69932
G1 X85.687 Y108.416 E43.77383
G1 X87.072 Y107.859 E43.84830
G1 X88.292 Y107.108 E43.91978
G1 X89.463 Y106.091 E43.99716
G1 X90.402 Y104.928 E44.07173
G1 X91.130 Y103.625 E44.14619
G1 X91.628 Y102.218 E44.22066
G1 X91.880 Y100.746 E44.29516
G1 X91.880 Y99.253 E44.36965
G1 X91.628 Y97.781 E44.44416
G1 X91.130 Y96.374 E44.51862
G1 X90.402 Y95.071 E44.59308
G1 X89.464 Y93.909 E44.66759
G1 X88.343 Y92.923 E44.74207
G1 X87.072 Y92.140 E44.81655
G1 X85.687 Y91.583 E44.89102
G1 X84.227 Y91.269 E44.96553
G1 X82.735 Y91.205 E45.04003
G1 X81.255 Y91.395 E45.11448
G1 X79.828 Y91.832 E45.18893
G1 X78.494 Y92.504 E45.26346
G1 X77.294 Y93.392 E45.33793
G1 X76.262 Y94.470 E45.41239
G1 X75.425 Y95.706 E45.48686
G0 F9000 X82.837 Y47.913
G1 F1800 X83.201 Y47.929 E45.50504
G1 X83.573 Y47.880 E45.52376
G1 X83.921 Y47.772 E45.54194
G1 X84.248 Y47.605 E45.56025
G1 X84.539 Y47.386 E45.57842
G1 X84.784 Y47.129 E45.59614
G1 X84.993 Y46.818 E45.61483
G1 X85.141 Y46.486 E45.63297
G1 X85.231 Y46.142 E45.65071
G1 X85.261 Y45.768 E45.66943
G1 X85.228 Y45.404 E45.68766
G1 X85.135 Y45.053 E45.70578
G1 X84.983 Y44.719 E45.72408
G1 X84.774 Y44.417 E45.74241
G1 X84.521 Y44.156 E45.76054
G1 X84.228 Y43.942 E45.77864
G1 X83.903 Y43.779 E45.79678
G1 X83.563 Y43.674 E45.81454
G1 X83.199 Y43.628 E45.83284
G1 X82.825 Y43.645 E45.85152
G1 X82.469 Y43.725 E45.86972
G1 X82.140 Y43.858 E45.88743
G1 X81.822 Y44.054 E45.90606
G1 X81.549 Y44.297 E45.92430
G1 X81.326 Y44.574 E45.94204
G1 X81.149 Y44.892 E45.96020
G1 X81.026 Y45.236 E45.97842
G1 X80.967 Y45.583 E45.99598
G1 X80.958 Y45.785 E46.00607
G1 X80.969 Y45.985 E46.01606
G1 X81.029 Y46.331 E46.03358
G1 X81.149 Y46.667 E46.05138
G1 X81.333 Y46.993 E46.07006
G1 X81.563 Y47.274 E46.08818
G1 X81.831 Y47.510 E46.10599
G1 X82.150 Y47.704 E46.12462
G1 X82.480 Y47.837 E46.14237
G1 X82.837 Y47.913 E46.16058
G0 F9000 X121.525 Y58.959
G1 F1800 X121.465 Y59.307 E46.17820
G1 X121.458 Y59.507 E46.18818
G1 X121.466 Y59.707 E46.19817
G1 X121.528 Y60.054 E46.21575
G1 X121.647 Y60.390 E46.23354
G1 X121.831 Y60.715 E46.25217
G1 X122.061 Y60.996 E46.27029
G1 X122.329 Y61.234 E46.28817
G1 X122.649 Y61.427 E46.30681
G1 X122.977 Y61.558 E46.32443
G1 X123.334 Y61.636 E46.34266
G1 X123.699 Y61.652 E46.36089
G1 X124.071 Y61.603 E46.37961
G1 X124.422 Y61.494 E46.39795
G1 X124.746 Y61.327 E46.41613
G1 X125.037 Y61.110 E46.43424
G1 X125.284 Y60.852 E46.45206
G1 X125.491 Y60.541 E46.47070
G1 X125.639 Y60.209 E46.48883
G1 X125.728 Y59.865 E46.50656
G1 X125.760 Y59.500 E46.52484
G1 X125.726 Y59.126 E46.54358
G1 X125.633 Y58.775 E46.56169
G1 X125.481 Y58.441 E46.58000
G1 X125.274 Y58.140 E46.59823
G1 X125.020 Y57.879 E46.61640
G1 X124.726 Y57.664 E46.63457
G1 X124.401 Y57.502 E46.65268
G1 X124.061 Y57.397 E46.67044
G1 X123.697 Y57.351 E46.68874
G1 X123.324 Y57.368 E46.70737
G1 X122.968 Y57.447 E46.72556
G1 X122.638 Y57.580 E46.74331
G1 X122.319 Y57.778 E46.76205
G1 X122.049 Y58.019 E46.78010
G1 X121.824 Y58.295 E46.79787
G1 X121.646 Y58.616 E46.81618
G1 X121.525 Y58.959 E46.83432
G0 F9000 X121.832 Y60.715
G0 X123.335 Y61.635
G0 X125.036 Y61.109
G0 X161.093 Y79.668
G1 F1800 X160.972 Y80.012 E46.85252
G1 X160.912 Y80.360 E46.87014
G1 X160.905 Y80.560 E46.88012
G1 X160.913 Y80.760 E46.89011
G1 X160.975 Y81.107 E46.90769
G1 X161.094 Y81.444 E46.92552
G1 X161.279 Y81.768 E46.94414
G1 X161.508 Y82.049 E46.96222
G1 X161.776 Y82.285 E46.98004
G1 X162.095 Y82.479 E46.99866
G1 X162.424 Y82.611 E47.01635
G1 X162.781 Y82.689 E47.03458
G1 X163.149 Y82.705 E47.05296
G1 X163.519 Y82.655 E47.07158
G1 X163.867 Y82.547 E47.08976
G1 X164.193 Y82.380 E47.10804
G1 X164.484 Y82.163 E47.12615
G1 X164.731 Y81.904 E47.14400
G1 X164.939 Y81.592 E47.16271
G1 X165.086 Y81.262 E47.18073
G1 X165.177 Y80.918 E47.19849
G1 X165.207 Y80.543 E47.21726
G1 X165.174 Y80.178 E47.23554
G1 X165.080 Y79.827 E47.25367
G1 X164.928 Y79.494 E47.27193
G1 X164.721 Y79.192 E47.29020
G1 X164.467 Y78.932 E47.30833
G1 X164.174 Y78.717 E47.32646
G1 X163.848 Y78.555 E47.34462
G1 X163.509 Y78.451 E47.36231
G1 X163.146 Y78.403 E47.38058
G1 X162.770 Y78.421 E47.39936
G1 X162.415 Y78.500 E47.41751
G1 X162.085 Y78.633 E47.43526
G1 X161.766 Y78.831 E47.45399
G1 X161.495 Y79.073 E47.47211
G1 X161.272 Y79.348 E47.48978
G1 X161.093 Y79.668 E47.50807
G0 F9000 X160.915 Y80.759
G0 X162.770 Y117.311
G1 F1800 X162.414 Y117.391 E47.52628
G1 X162.085 Y117.524 E47.54398
G1 X161.767 Y117.721 E47.56264
G1 X161.495 Y117.963 E47.58081
G1 X161.272 Y118.240 E47.59855
G1 X161.093 Y118.558 E47.61675
G1 X160.972 Y118.902 E47.63495
G1 X160.912 Y119.250 E47.65256
G1 X160.905 Y119.451 E47.66260
G1 X160.913 Y119.650 E47.67253
G1 X160.975 Y119.998 E47.69017
G1 X161.094 Y120.334 E47.70795
G1 X161.279 Y120.659 E47.72661
G1 X161.508 Y120.939 E47.74466
G1 X161.776 Y121.176 E47.76251
G1 X162.095 Y121.370 E47.78113
G1 X162.425 Y121.503 E47.79888
G1 X162.781 Y121.579 E47.81704
G1 X163.147 Y121.596 E47.83532
G1 X163.519 Y121.546 E47.85405
G1 X163.867 Y121.438 E47.87223
G1 X164.194 Y121.271 E47.89055
G1 X164.484 Y121.053 E47.90865
G1 X164.731 Y120.796 E47.92643
G1 X164.939 Y120.483 E47.94518
G1 X165.086 Y120.153 E47.96320
G1 X165.177 Y119.809 E47.98096
G1 X165.207 Y119.434 E47.99972
G1 X165.174 Y119.069 E48.01801
G1 X165.080 Y118.718 E48.03614
G1 X164.928 Y118.385 E48.05440
G1 X164.721 Y118.084 E48.07262
G1 X164.467 Y117.822 E48.09083
G1 X164.173 Y117.607 E48.10900
G1 X163.848 Y117.446 E48.12710
G1 X163.509 Y117.342 E48.14479
G1 X163.147 Y117.294 E48.16301
G1 X162.770 Y117.311 E48.18183
G0 F9000 X125.481 Y139.438
G1 F1800 X125.274 Y139.137 E48.20006
G1 X125.020 Y138.874 E48.21830
G1 X124.726 Y138.661 E48.23641
G1 X124.402 Y138.498 E48.25451
G1 X124.061 Y138.393 E48.27231
G1 X123.697 Y138.347 E48.29061
G1 X123.323 Y138.364 E48.30929
G1 X122.967 Y138.444 E48.32749
G1 X122.638 Y138.577 E48.34520
G1 X122.320 Y138.773 E48.36384
G1 X122.048 Y139.016 E48.38203
G1 X121.824 Y139.292 E48.39977
G1 X121.646 Y139.611 E48.41799
G1 X121.525 Y139.955 E48.43618
G1 X121.465 Y140.303 E48.45380
G1 X121.458 Y140.504 E48.46384
G1 X121.466 Y140.703 E48.47377
G1 X121.528 Y141.050 E48.49136
G1 X121.647 Y141.385 E48.50909
G1 X121.831 Y141.712 E48.52781
G1 X122.062 Y141.993 E48.54596
G1 X122.329 Y142.229 E48.56374
G1 X122.648 Y142.423 E48.58237
G1 X122.978 Y142.556 E48.60012
G1 X123.335 Y142.632 E48.61833
G1 X123.699 Y142.648 E48.63651
G1 X124.071 Y142.599 E48.65522
G1 X124.421 Y142.491 E48.67350
G1 X124.746 Y142.324 E48.69173
G1 X125.037 Y142.106 E48.70987
G1 X125.284 Y141.848 E48.72769
G1 X125.491 Y141.537 E48.74633
G1 X125.639 Y141.205 E48.76446
G1 X125.728 Y140.862 E48.78214
G1 X125.760 Y140.497 E48.80042
G1 X125.726 Y140.123 E48.81916
G1 X125.633 Y139.772 E48.83727
G1 X125.481 Y139.438 E48.85558
G0 F9000 X124.059 Y138.394
G0 X122.321 Y138.774
G0 X121.466 Y140.304
G0 X85.135 Y153.494
G1 F1800 X84.983 Y153.159 E48.87393
G1 X84.774 Y152.859 E48.89217
G1 X84.522 Y152.598 E48.91027
G1 X84.228 Y152.383 E48.92845
G1 X83.902 Y152.221 E48.94661
G1 X83.563 Y152.116 E48.96431
G1 X83.199 Y152.070 E48.98262
G1 X82.826 Y152.087 E49.00125
G1 X82.470 Y152.166 E49.01944
G1 X82.140 Y152.299 E49.03719
G1 X81.822 Y152.496 E49.05585
G1 X81.549 Y152.738 E49.07405
G1 X81.326 Y153.015 E49.09179
G1 X81.148 Y153.334 E49.11002
G1 X81.026 Y153.678 E49.12823
G1 X80.967 Y154.025 E49.14579
G1 X80.958 Y154.226 E49.15583
G1 X80.969 Y154.427 E49.16587
G1 X81.029 Y154.773 E49.18339
G1 X81.150 Y155.110 E49.20125
G1 X81.333 Y155.434 E49.21982
G1 X81.562 Y155.715 E49.23790
G1 X81.832 Y155.953 E49.25586
G1 X82.151 Y156.146 E49.27446
G1 X82.479 Y156.277 E49.29208
G1 X82.836 Y156.355 E49.31031
G1 X83.201 Y156.371 E49.32854
G1 X83.573 Y156.322 E49.34726
G1 X83.922 Y156.213 E49.36550
G1 X84.248 Y156.046 E49.38377
G1 X84.538 Y155.829 E49.40184
G1 X84.784 Y155.571 E49.41963
G1 X84.993 Y155.260 E49.43832
G1 X85.141 Y154.928 E49.45646
G1 X85.231 Y154.582 E49.47429
G1 X85.261 Y154.209 E49.49296
G1 X85.228 Y153.845 E49.51120
G1 X85.135 Y153.494 E49.52931
G0 F9000 X83.901 Y152.222
G0 X38.037 Y128.148
G1 F1800 X38.184 Y127.817 E49.54738
G1 X38.273 Y127.474 E49.56506
G1 X38.305 Y127.109 E49.58334
G1 X38.271 Y126.735 E49.60208
G1 X38.178 Y126.384 E49.62019
G1 X38.026 Y126.050 E49.63850
G1 X37.819 Y125.749 E49.65673
G1 X37.565 Y125.486 E49.67497
G1 X37.270 Y125.272 E49.69315
G1 X36.946 Y125.111 E49.71120
G1 X36.607 Y125.007 E49.72889
G1 X36.245 Y124.959 E49.74711
G1 X35.868 Y124.976 E49.76594
G1 X35.512 Y125.056 E49.78414
G1 X35.183 Y125.189 E49.80185
G1 X34.865 Y125.386 E49.82051
G1 X34.593 Y125.628 E49.83867
G1 X34.370 Y125.905 E49.85641
G1 X34.191 Y126.223 E49.87462
G1 X34.070 Y126.567 E49.89281
G1 X34.010 Y126.915 E49.91043
G1 X34.003 Y127.116 E49.92046
G1 X34.011 Y127.315 E49.93040
G1 X34.073 Y127.662 E49.94799
G1 X34.192 Y127.998 E49.96577
G1 X34.377 Y128.324 E49.98447
G1 X34.606 Y128.604 E50.00252
G1 X34.874 Y128.841 E50.02036
G1 X35.193 Y129.035 E50.03899
G1 X35.523 Y129.168 E50.05674
G1 X35.879 Y129.244 E50.07490
G1 X36.245 Y129.261 E50.09318
G1 X36.617 Y129.211 E50.11191
G1 X36.966 Y129.103 E50.13014
