;Generated with Cura_SteamEngine 15.01
; Default start code
G28 ; Home extruder
G1 Z15 F2000
M107 ; Turn off fan
G90 ; Absolute positioning
M82 ; Extruder in absolute mode
M104 T0 S180
M190 S50
; Activate all used extruder
G92 E0 ; Reset extruder position
; Wait for all used extruders to reach temperature
M109 T0 S210 R210
;Layer count: 20
;LAYER:0
M107
G0 F9000 X120.038 Y60.922 Z0.300
;TYPE:SKIRT
G1 F1800 X123.470 Y55.288 E0.32913
G1 X123.719 Y54.906 E0.35188
G1 X124.837 Y53.457 E0.44318
G1 X127.852 Y49.544 E0.68963
G1 X132.322 Y44.897 E1.01132
G1 X132.748 Y44.474 E1.04127
G1 X137.950 Y40.133 E1.37929
G1 X141.632 Y37.688 E1.59980
G1 X143.710 Y36.310 E1.72420
G1 X149.425 Y33.358 E2.04511
G1 X149.928 Y33.108 E2.07313
G1 X151.107 Y32.656 E2.13613
G1 X151.107 Y32.655 E2.13618
G1 X156.302 Y30.656 E2.41388
G1 X159.473 Y29.821 E2.57748
G1 X162.985 Y28.894 E2.75869
G1 X169.324 Y27.947 E3.07846
G1 X169.820 Y27.872 E3.10348
G1 X176.226 Y27.623 E3.42332
G1 X176.226 Y27.624 E3.42337
G1 X176.727 Y27.604 E3.44839
G1 X183.125 Y28.053 E3.76837
G1 X183.628 Y28.090 E3.79353
G1 X189.931 Y29.236 E4.11314
G1 X190.427 Y29.326 E4.13829
G1 X192.178 Y29.848 E4.22945
G1 X197.050 Y31.298 E4.48305
G1 X203.339 Y33.947 E4.82351
G1 X210.585 Y37.477 E5.22563
G1 X211.129 Y37.742 E5.25582
G1 X221.486 Y42.789 E5.83062
G1 X222.278 Y43.175 E5.87457
G1 X251.340 Y57.335 E7.48743
G1 X255.352 Y59.650 E7.71852
G1 X255.752 Y59.881 E7.74156
G1 X259.853 Y63.082 E8.00111
G1 X261.995 Y65.299 E8.15491
G1 X263.468 Y66.825 E8.26072
G1 X266.257 Y70.662 E8.49738
G1 X266.529 Y71.036 E8.52045
G1 X268.754 Y75.218 E8.75678
G1 X268.972 Y75.627 E8.77991
G1 X270.592 Y80.079 E9.01627
G1 X270.752 Y80.516 E9.03948
G1 X271.737 Y85.151 E9.27589
G1 X271.834 Y85.605 E9.29905
G1 X272.165 Y90.334 E9.53556
G1 X272.198 Y90.798 E9.55877
G1 X271.867 Y95.533 E9.79557
G1 X271.834 Y95.994 E9.81863
G1 X270.848 Y100.632 E10.05519
G1 X270.752 Y101.084 E10.07825
G1 X269.130 Y105.540 E10.31483
G1 X268.971 Y105.975 E10.33793
G1 X266.744 Y110.160 E10.57444
G1 X266.527 Y110.568 E10.59750
G1 X263.739 Y114.402 E10.83401
G1 X263.469 Y114.774 E10.85694
G1 X259.852 Y118.519 E11.11669
G1 X259.080 Y119.121 E11.16553
G1 X255.751 Y121.721 E11.37627
G1 X251.584 Y124.124 E11.61625
G1 X250.954 Y124.452 E11.65169
G1 X203.339 Y147.653 E14.29421
G1 X197.065 Y150.296 E14.63386
G1 X190.909 Y152.130 E14.95432
G1 X190.909 Y152.129 E14.95437
G1 X190.426 Y152.274 E14.97953
G1 X184.122 Y153.419 E15.29919
G1 X184.122 Y153.420 E15.29924
G1 X183.625 Y153.511 E15.32444
G1 X177.231 Y153.961 E15.64423
G1 X176.733 Y153.998 E15.66915
G1 X170.324 Y153.748 E15.98913
G1 X169.821 Y153.728 E16.01425
G1 X163.482 Y152.781 E16.33401
G1 X162.984 Y152.705 E16.35915
G1 X156.788 Y151.072 E16.67882
G1 X156.301 Y150.943 E16.70396
G1 X151.107 Y148.945 E16.98160
G1 X149.850 Y148.461 E17.04880
G1 X144.156 Y145.522 E17.36848
G1 X143.708 Y145.290 E17.39365
G1 X137.950 Y141.468 E17.73844
G1 X133.029 Y137.360 E18.05825
G1 X132.642 Y137.037 E18.08340
G1 X127.852 Y132.057 E18.42813
G1 X123.632 Y126.579 E18.77312
G1 X123.275 Y125.992 E18.80740
G1 X120.038 Y120.678 E19.11783
G1 X117.583 Y115.434 E19.40670
G1 X117.108 Y114.417 E19.46270
G1 X114.880 Y107.875 E19.80749
G1 X113.489 Y101.619 E20.12723
G1 X113.490 Y101.619 E20.12728
G1 X113.380 Y101.129 E20.15233
G1 X112.680 Y94.757 E20.47215
G1 X112.625 Y94.257 E20.49724
G1 X112.625 Y87.344 E20.84213
G1 X113.324 Y80.974 E21.16184
G1 X113.379 Y80.473 E21.18699
G1 X114.771 Y74.215 E21.50683
G1 X114.881 Y73.724 E21.53193
G1 X116.953 Y67.637 E21.85273
G1 X117.138 Y67.121 E21.88007
G1 X117.583 Y66.167 E21.93259
G1 X120.038 Y60.922 E22.22151
G1 F2400 E18.22151
G0 F9000 X123.395 Y62.715
;TYPE:WALL-INNER
G1 F2400 E22.22151
G1 F1800 X126.678 Y57.324 E22.53642
G1 X130.734 Y52.029 E22.86918
G1 X135.023 Y47.569 E23.17789
G1 X135.304 Y47.291 E23.19761
G1 X140.224 Y43.185 E23.51732
G1 X145.641 Y39.589 E23.84170
G1 X151.138 Y36.750 E24.15036
G1 X151.457 Y36.591 E24.16814
G1 X157.472 Y34.278 E24.48966
G1 X163.755 Y32.621 E24.81383
G1 X170.171 Y31.662 E25.13748
G1 X176.668 Y31.409 E25.46187
G1 X182.854 Y31.844 E25.77125
G1 X183.148 Y31.865 E25.78596
G1 X189.538 Y33.027 E26.10998
G1 X195.765 Y34.880 E26.43411
G1 X201.774 Y37.411 E26.75941
G1 X249.549 Y60.689 E29.41079
G1 X253.624 Y63.041 E29.64552
G1 X257.306 Y65.915 E29.87856
G1 X260.550 Y69.273 E30.11149
G1 X263.296 Y73.051 E30.34451
G1 X265.493 Y77.180 E30.57785
G1 X267.023 Y81.385 E30.80109
G1 X267.090 Y81.566 E30.81072
G1 X268.021 Y85.947 E31.03417
G1 X268.062 Y86.138 E31.04392
G1 X268.388 Y90.800 E31.27707
G1 X268.062 Y95.463 E31.51028
G1 X267.132 Y99.838 E31.73343
G1 X267.090 Y100.033 E31.74338
G1 X265.560 Y104.238 E31.96662
G1 X265.495 Y104.416 E31.97608
G1 X263.296 Y108.550 E32.20969
G1 X260.553 Y112.323 E32.44241
G1 X257.302 Y115.689 E32.67588
G1 X253.624 Y118.560 E32.90866
G1 X249.754 Y120.793 E33.13157
G1 X249.235 Y121.063 E33.16076
G1 X201.774 Y144.189 E35.79473
G1 X195.780 Y146.714 E36.11922
G1 X189.538 Y148.573 E36.44415
G1 X183.157 Y149.734 E36.76773
G1 X176.963 Y150.171 E37.07752
G1 X176.675 Y150.192 E37.09193
G1 X170.171 Y149.938 E37.41666
G1 X163.755 Y148.979 E37.74031
G1 X157.472 Y147.322 E38.06449
G1 X151.408 Y144.990 E38.38862
G1 X145.641 Y142.012 E38.71243
G1 X140.224 Y138.416 E39.03682
G1 X135.237 Y134.253 E39.36091
G1 X130.734 Y129.572 E39.68497
G1 X126.772 Y124.429 E40.00886
G1 X123.391 Y118.878 E40.33313
G1 X120.640 Y112.999 E40.65695
G1 X118.546 Y106.850 E40.98103
G1 X117.199 Y100.793 E41.29060
G1 X117.133 Y100.504 E41.30539
G1 X116.425 Y94.052 E41.62921
G1 X116.425 Y87.548 E41.95370
G1 X117.133 Y81.102 E42.27722
G1 X118.480 Y75.043 E42.58689
G1 X118.543 Y74.758 E42.60145
G1 X120.540 Y68.893 E42.91055
G1 X120.655 Y68.570 E42.92766
G1 X123.395 Y62.715 E43.25017
G0 F9000 X126.656 Y63.326
G1 F1800 X126.626 Y63.692 E43.26849
G1 X126.660 Y64.069 E43.28737
G1 X126.753 Y64.417 E43.30534
G1 X126.909 Y64.755 E43.32392
G1 X127.114 Y65.052 E43.34192
G1 X127.355 Y65.304 E43.35932
G1 X127.651 Y65.524 E43.37772
G1 X127.990 Y65.691 E43.39657
G1 X128.325 Y65.794 E43.41406
G1 X128.688 Y65.840 E43.43231
G1 X129.067 Y65.822 E43.45124
G1 X129.424 Y65.743 E43.46948
G1 X129.761 Y65.604 E43.48767
G1 X130.061 Y65.418 E43.50528
G1 X130.343 Y65.165 E43.52418
G1 X130.569 Y64.881 E43.54229
G1 X130.745 Y64.562 E43.56047
G1 X130.861 Y64.232 E43.57792
G1 X130.921 Y63.884 E43.59553
G1 X130.929 Y63.680 E43.60572
G1 X130.918 Y63.477 E43.61586
G1 X130.855 Y63.131 E43.63341
G1 X130.732 Y62.787 E43.65164
G1 X130.551 Y62.472 E43.66976
G1 X130.330 Y62.198 E43.68732
G1 X130.042 Y61.950 E43.70628
G1 X129.734 Y61.764 E43.72423
G1 X129.410 Y61.633 E43.74167
G1 X129.052 Y61.555 E43.75995
G1 X128.684 Y61.539 E43.77833
G1 X128.310 Y61.590 E43.79716
G1 X127.974 Y61.694 E43.81471
G1 X127.636 Y61.866 E43.83363
G1 X127.343 Y62.086 E43.85191
G1 X127.094 Y62.351 E43.87005
G1 X126.895 Y62.649 E43.88793
G1 X126.746 Y62.986 E43.90631
G1 X126.656 Y63.326 E43.92386
G0 F9000 X127.115 Y65.051
G0 X128.688 Y65.838
G0 X130.342 Y65.164
G0 X134.194 Y65.150
G1 F1800 X131.362 Y70.437 E44.22308
G1 X129.200 Y76.032 E44.52233
G1 X127.740 Y81.849 E44.82155
G1 X127.005 Y87.801 E45.12075
G1 X127.005 Y93.799 E45.41999
G1 X127.740 Y99.751 E45.71919
G1 X129.200 Y105.569 E46.01845
G1 X131.362 Y111.163 E46.31766
G1 X134.194 Y116.450 E46.61688
G1 X137.652 Y121.350 E46.91609
G1 X141.686 Y125.789 E47.21534
G1 X146.233 Y129.700 E47.51456
G1 X151.225 Y133.024 E47.81377
G1 X156.587 Y135.711 E48.11300
G1 X162.238 Y137.720 E48.41221
G1 X168.093 Y139.021 E48.71144
G1 X174.063 Y139.594 E49.01066
G1 X180.058 Y139.431 E49.30986
G1 X185.989 Y138.533 E49.60913
G1 X191.764 Y136.916 E49.90833
G1 X197.280 Y134.610 E50.20660
G1 X244.952 Y111.142 E52.85753
G1 X248.253 Y109.149 E53.04991
G1 X251.185 Y106.607 E53.24351
G1 X253.641 Y103.601 E53.43717
G1 X255.549 Y100.221 E53.63081
G1 X256.852 Y96.565 E53.82445
G1 X257.514 Y92.741 E54.01807
G1 X257.514 Y88.859 E54.21174
G1 X256.852 Y85.035 E54.40536
G1 X255.549 Y81.379 E54.59900
G1 X253.641 Y77.999 E54.79264
G1 X251.185 Y74.994 E54.98626
G1 X248.253 Y72.451 E55.17989
G1 X244.952 Y70.459 E55.37224
G1 X197.280 Y46.991 E58.02318
G1 X191.764 Y44.684 E58.32147
G1 X185.989 Y43.067 E58.62067
G1 X180.058 Y42.170 E58.91993
G1 X174.063 Y42.007 E59.21913
G1 X168.093 Y42.580 E59.51835
G1 X162.238 Y43.880 E59.81757
G1 X156.587 Y45.890 E60.11680
G1 X151.225 Y48.576 E60.41600
G1 X146.233 Y51.900 E60.71521
G1 X141.686 Y55.811 E61.01443
G1 X137.652 Y60.250 E61.31368
G1 X134.194 Y65.150 E61.61289
G0 F9000 X137.652 Y60.250
G0 X141.686 Y55.812
G0 X146.234 Y51.901
G0 X151.226 Y48.576
G0 X156.588 Y45.890
G0 X162.238 Y43.881
G0 X174.071 Y37.942
G1 F1800 X174.313 Y38.195 E61.63035
G1 X174.608 Y38.413 E61.64865
G1 X174.946 Y38.580 E61.66746
G1 X175.281 Y38.684 E61.68496
G1 X175.645 Y38.730 E61.70327
G1 X176.025 Y38.712 E61.72225
G1 X176.382 Y38.631 E61.74051
G1 X176.718 Y38.493 E61.75863
G1 X177.016 Y38.309 E61.77611
G1 X177.300 Y38.055 E61.79512
G1 X177.527 Y37.769 E61.81333
G1 X177.700 Y37.452 E61.83135
G1 X177.818 Y37.122 E61.84883
G1 X177.877 Y36.775 E61.86639
G1 X177.886 Y36.569 E61.87668
G1 X177.874 Y36.366 E61.88683
G1 X177.813 Y36.021 E61.90431
G1 X177.688 Y35.677 E61.92257
G1 X177.508 Y35.362 E61.94067
G1 X177.286 Y35.088 E61.95826
G1 X176.999 Y34.840 E61.97718
G1 X176.691 Y34.653 E61.99516
G1 X176.366 Y34.521 E62.01266
G1 X176.008 Y34.445 E62.03092
G1 X175.642 Y34.429 E62.04920
G1 X175.267 Y34.479 E62.06807
G1 X174.930 Y34.583 E62.08567
G1 X174.592 Y34.756 E62.10461
G1 X174.300 Y34.977 E62.12288
G1 X174.052 Y35.240 E62.14091
G1 X173.855 Y35.531 E62.15845
G1 X173.702 Y35.876 E62.17728
G1 X173.613 Y36.216 E62.19481
G1 X173.583 Y36.581 E62.21308
G1 X173.617 Y36.956 E62.23187
G1 X173.706 Y37.300 E62.24959
G1 X173.866 Y37.644 E62.26852
G1 X174.071 Y37.942 E62.28657
G0 F9000 X175.645 Y38.728
G0 X214.200 Y49.599
G1 F1800 X214.111 Y49.939 E62.30410
G1 X214.081 Y50.304 E62.32237
G1 X214.115 Y50.680 E62.34121
G1 X214.204 Y51.021 E62.35879
G1 X214.364 Y51.366 E62.37776
G1 X214.569 Y51.665 E62.39585
G1 X214.811 Y51.918 E62.41332
G1 X215.107 Y52.137 E62.43169
G1 X215.445 Y52.302 E62.45045
G1 X215.778 Y52.405 E62.46784
G1 X216.143 Y52.453 E62.48621
G1 X216.523 Y52.434 E62.50519
G1 X216.879 Y52.355 E62.52338
G1 X217.216 Y52.216 E62.54157
G1 X217.516 Y52.030 E62.55918
G1 X217.798 Y51.777 E62.57808
G1 X218.025 Y51.492 E62.59626
G1 X218.198 Y51.174 E62.61432
G1 X218.316 Y50.845 E62.63176
G1 X218.377 Y50.485 E62.64997
G1 X218.378 Y50.127 E62.66783
G1 X218.311 Y49.743 E62.68728
G1 X218.185 Y49.400 E62.70551
G1 X218.007 Y49.086 E62.72352
G1 X217.785 Y48.810 E62.74119
G1 X217.497 Y48.562 E62.76015
G1 X217.189 Y48.376 E62.77810
G1 X216.864 Y48.244 E62.79560
G1 X216.507 Y48.168 E62.81381
G1 X216.140 Y48.151 E62.83214
G1 X215.764 Y48.202 E62.85107
G1 X215.428 Y48.306 E62.86862
G1 X215.091 Y48.478 E62.88750
G1 X214.798 Y48.698 E62.90578
G1 X214.550 Y48.962 E62.92385
G1 X214.353 Y49.254 E62.94142
G1 X214.200 Y49.599 E62.96025
G0 F9000 X214.365 Y51.366
G0 X215.778 Y52.404
G0 X217.515 Y52.029
G0 X253.800 Y70.308
G1 F1800 X253.648 Y70.651 E62.97897
G1 X253.558 Y70.991 E62.99652
G1 X253.528 Y71.357 E63.01484
G1 X253.562 Y71.734 E63.03372
G1 X253.652 Y72.072 E63.05117
G1 X253.802 Y72.407 E63.06948
G1 X254.016 Y72.717 E63.08828
G1 X254.258 Y72.970 E63.10574
G1 X254.555 Y73.189 E63.12415
G1 X254.892 Y73.355 E63.14290
G1 X255.227 Y73.459 E63.16040
G1 X255.590 Y73.505 E63.17865
G1 X255.969 Y73.487 E63.19758
G1 X256.326 Y73.408 E63.21582
G1 X256.663 Y73.269 E63.23401
G1 X256.963 Y73.083 E63.25162
G1 X257.245 Y72.830 E63.27052
G1 X257.470 Y72.548 E63.28852
G1 X257.644 Y72.237 E63.30630
G1 X257.765 Y71.882 E63.32501
G1 X257.825 Y71.539 E63.34238
G1 X257.826 Y71.178 E63.36039
G1 X257.759 Y70.800 E63.37955
G1 X257.634 Y70.452 E63.39799
G1 X257.453 Y70.137 E63.41612
G1 X257.232 Y69.863 E63.43368
G1 X256.944 Y69.615 E63.45264
G1 X256.636 Y69.429 E63.47059
G1 X256.312 Y69.298 E63.48803
G1 X255.954 Y69.220 E63.50631
G1 X255.586 Y69.204 E63.52468
G1 X255.212 Y69.255 E63.54352
G1 X254.875 Y69.359 E63.56111
G1 X254.539 Y69.531 E63.57994
G1 X254.246 Y69.751 E63.59822
G1 X253.997 Y70.015 E63.61633
G1 X253.800 Y70.308 E63.63394
G0 F9000 X253.653 Y72.071
G0 X256.851 Y85.036
G0 X257.513 Y88.860
G0 X257.513 Y92.740
G0 X256.851 Y96.564
G0 X255.587 Y108.095
G1 F1800 X255.213 Y108.145 E63.65277
G1 X254.874 Y108.249 E63.67046
G1 X254.538 Y108.423 E63.68934
G1 X254.246 Y108.642 E63.70755
G1 X253.997 Y108.906 E63.72565
G1 X253.800 Y109.199 E63.74327
G1 X253.648 Y109.542 E63.76198
G1 X253.558 Y109.882 E63.77953
G1 X253.528 Y110.248 E63.79785
G1 X253.562 Y110.625 E63.81674
G1 X253.652 Y110.963 E63.83419
G1 X253.802 Y111.298 E63.85250
G1 X254.016 Y111.608 E63.87129
G1 X254.258 Y111.861 E63.88876
G1 X254.555 Y112.079 E63.90714
G1 X254.891 Y112.246 E63.92586
G1 X255.227 Y112.350 E63.94341
G1 X255.590 Y112.396 E63.96166
G1 X255.969 Y112.378 E63.98059
G1 X256.326 Y112.299 E63.99883
G1 X256.663 Y112.160 E64.01702
G1 X256.963 Y111.974 E64.03463
G1 X257.245 Y111.721 E64.05353
G1 X257.470 Y111.439 E64.07153
G1 X257.644 Y111.128 E64.08931
G1 X257.765 Y110.773 E64.10802
G1 X257.823 Y110.440 E64.12488
G1 X257.831 Y110.236 E64.13507
G1 X257.820 Y110.033 E64.14521
G1 X257.759 Y109.690 E64.16259
G1 X257.634 Y109.343 E64.18099
G1 X257.453 Y109.028 E64.19912
G1 X257.232 Y108.755 E64.21664
G1 X256.944 Y108.505 E64.23567
G1 X256.635 Y108.319 E64.25366
G1 X256.312 Y108.189 E64.27103
G1 X255.954 Y108.111 E64.28931
G1 X255.587 Y108.095 E64.30764
G0 F9000 X254.247 Y108.643
G0 X218.006 Y130.081
G1 F1800 X217.785 Y129.807 E64.32520
G1 X217.498 Y129.559 E64.34413
G1 X217.189 Y129.372 E64.36215
G1 X216.864 Y129.240 E64.37965
G1 X216.506 Y129.164 E64.39791
G1 X216.140 Y129.148 E64.41618
G1 X215.765 Y129.198 E64.43506
G1 X215.428 Y129.302 E64.45265
G1 X215.090 Y129.475 E64.47160
G1 X214.798 Y129.696 E64.48987
G1 X214.550 Y129.959 E64.50790
G1 X214.353 Y130.250 E64.52543
G1 X214.200 Y130.595 E64.54426
G1 X214.111 Y130.935 E64.56180
G1 X214.081 Y131.300 E64.58007
G1 X214.115 Y131.675 E64.59885
G1 X214.204 Y132.019 E64.61658
G1 X214.364 Y132.363 E64.63551
G1 X214.569 Y132.661 E64.65355
G1 X214.811 Y132.914 E64.67102
G1 X215.106 Y133.132 E64.68932
G1 X215.444 Y133.299 E64.70813
G1 X215.779 Y133.403 E64.72563
G1 X216.143 Y133.449 E64.74393
G1 X216.523 Y133.431 E64.76291
G1 X216.880 Y133.350 E64.78118
G1 X217.215 Y133.212 E64.79925
G1 X217.515 Y133.028 E64.81681
G1 X217.799 Y132.773 E64.83585
G1 X218.025 Y132.488 E64.85400
G1 X218.198 Y132.171 E64.87202
G1 X218.316 Y131.841 E64.88950
G1 X218.375 Y131.494 E64.90706
G1 X218.384 Y131.288 E64.91735
G1 X218.372 Y131.085 E64.92749
G1 X218.311 Y130.740 E64.94497
G1 X218.186 Y130.396 E64.96323
G1 X218.006 Y130.081 E64.98133
G0 F9000 X216.506 Y129.165
G0 X214.799 Y129.697
G0 X214.081 Y131.299
G0 X177.813 Y144.461
G1 F1800 X177.687 Y144.119 E64.99952
G1 X177.508 Y143.804 E65.01759
G1 X177.286 Y143.530 E65.03519
G1 X176.999 Y143.282 E65.05411
G1 X176.691 Y143.095 E65.07209
G1 X176.366 Y142.963 E65.08959
G1 X176.009 Y142.887 E65.10780
G1 X175.642 Y142.870 E65.12613
G1 X175.266 Y142.921 E65.14506
G1 X174.930 Y143.025 E65.16260
G1 X174.593 Y143.197 E65.18148
G1 X174.300 Y143.417 E65.19976
G1 X174.052 Y143.681 E65.21783
G1 X173.855 Y143.973 E65.23540
G1 X173.702 Y144.318 E65.25423
G1 X173.613 Y144.658 E65.27177
G1 X173.583 Y145.023 E65.29004
G1 X173.617 Y145.399 E65.30887
G1 X173.706 Y145.740 E65.32646
G1 X173.866 Y146.085 E65.34543
G1 X174.071 Y146.384 E65.36352
G1 X174.313 Y146.637 E65.38098
G1 X174.609 Y146.856 E65.39935
G1 X174.947 Y147.021 E65.41812
G1 X175.280 Y147.124 E65.43551
G1 X175.645 Y147.172 E65.45387
G1 X176.025 Y147.153 E65.47286
G1 X176.381 Y147.074 E65.49105
G1 X176.719 Y146.935 E65.50928
G1 X177.016 Y146.749 E65.52677
G1 X177.300 Y146.498 E65.54568
G1 X177.527 Y146.210 E65.56397
G1 X177.700 Y145.893 E65.58199
G1 X177.818 Y145.564 E65.59942
G1 X177.877 Y145.215 E65.61708
G1 X177.886 Y145.011 E65.62727
G1 X177.874 Y144.807 E65.63747
G1 X177.813 Y144.461 E65.65499
G0 F9000 X176.690 Y143.096
G0 X156.588 Y135.711
