;Generated with Cura_SteamEngine 15.01
; Default start code
G28 ; Home extruder
G1 Z15 F2000
M107 ; Turn off fan
G90 ; Absolute positioning
M82 ; Extruder in absolute mode
M104 T0 S180
M190 S50
; Activate all used extruder
G92 E0 ; Reset extruder position
; Wait for all used extruders to reach temperature
M109 T0 S210 R210
;Layer count: 362
;LAYER:0
M107
G0 F9000 X83.600 Y84.582 Z0.300
G0 X83.600 Y85.659
;TYPE:SKIRT
G1 F1800 X83.600 Y84.582 E0.05373
G1 X85.756 Y83.504 E0.17399
G1 X86.357 Y82.905 E0.21632
G1 X86.754 Y82.706 E0.23848
G1 X87.358 Y82.104 E0.28102
G1 X88.151 Y81.707 E0.32527
G1 X88.354 Y81.505 E0.33956
G1 X89.151 Y81.107 E0.38400
G1 X89.578 Y80.680 E0.41413
G1 X90.851 Y80.257 E0.48105
G1 X92.597 Y79.383 E0.57847
G1 X94.508 Y78.906 E0.67673
G1 X95.600 Y78.540 E0.73419
G1 X104.729 Y78.540 E1.18964
G1 X106.201 Y78.907 E1.26532
G1 X107.851 Y79.458 E1.35211
G1 X111.146 Y81.105 E1.53589
G1 X111.347 Y81.306 E1.55007
G1 X112.142 Y81.703 E1.59441
G1 X112.347 Y81.907 E1.60883
G1 X112.744 Y82.106 E1.63099
G1 X113.343 Y82.704 E1.67322
G1 X113.744 Y82.904 E1.69557
G1 X117.700 Y86.860 E1.97469
G1 X117.700 Y87.060 E1.98467
G1 X118.500 Y87.861 E2.04115
G1 X118.500 Y88.062 E2.05118
G1 X119.100 Y88.663 E2.09354
G1 X119.100 Y88.859 E2.10332
G1 X119.300 Y89.059 E2.11743
G1 X119.300 Y89.259 E2.12741
G1 X119.500 Y89.459 E2.14152
G1 X119.500 Y89.659 E2.15150
G1 X119.700 Y89.859 E2.16561
G1 X119.700 Y90.059 E2.17559
G1 X119.900 Y90.259 E2.18970
G1 X119.900 Y90.459 E2.19968
G1 X120.100 Y90.659 E2.21379
G1 X120.100 Y91.059 E2.23375
G1 X120.300 Y91.259 E2.24786
G1 X120.300 Y91.459 E2.25784
G1 X120.500 Y91.659 E2.27195
G1 X120.500 Y91.740 E2.27599
G1 X121.300 Y91.740 E2.31590
G1 X121.300 Y94.859 E2.47151
G1 X121.500 Y95.059 E2.48562
G1 X121.500 Y95.659 E2.51555
G1 X121.700 Y95.859 E2.52966
G1 X121.700 Y104.021 E2.93687
G1 X121.500 Y104.221 E2.95098
G1 X121.500 Y104.821 E2.98091
G1 X121.300 Y105.021 E2.99502
G1 X121.300 Y108.140 E3.15063
G1 X120.381 Y108.140 E3.19648
G1 X120.300 Y108.221 E3.20220
G1 X120.300 Y108.621 E3.22215
G1 X120.100 Y108.821 E3.23626
G1 X120.100 Y109.021 E3.24624
G1 X119.900 Y109.221 E3.26035
G1 X119.900 Y109.421 E3.27033
G1 X119.700 Y109.621 E3.28444
G1 X119.700 Y109.821 E3.29442
G1 X119.500 Y110.021 E3.30853
G1 X119.500 Y110.221 E3.31851
G1 X119.300 Y110.421 E3.33262
G1 X119.300 Y110.621 E3.34260
G1 X119.100 Y110.821 E3.35671
G1 X119.100 Y111.017 E3.36649
G1 X118.700 Y111.418 E3.39474
G1 X118.700 Y111.617 E3.40467
G1 X118.300 Y112.018 E3.43293
G1 X118.300 Y112.217 E3.44286
G1 X117.700 Y112.818 E3.48523
G1 X117.700 Y113.020 E3.49530
G1 X113.944 Y116.776 E3.76031
G1 X113.547 Y116.974 E3.78244
G1 X113.345 Y117.176 E3.79670
G1 X112.943 Y117.377 E3.81912
G1 X112.741 Y117.578 E3.83334
G1 X112.343 Y117.777 E3.85554
G1 X112.142 Y117.977 E3.86968
G1 X111.347 Y118.374 E3.91402
G1 X111.146 Y118.575 E3.92820
G1 X107.851 Y120.222 E4.11198
G1 X106.205 Y120.772 E4.19856
G1 X104.281 Y121.253 E4.29750
G1 X102.553 Y121.540 E4.38489
G1 X98.345 Y121.540 E4.59483
G1 X95.264 Y121.025 E4.75068
G1 X94.507 Y120.774 E4.79047
G1 X92.597 Y120.297 E4.88868
G1 X90.851 Y119.423 E4.98609
G1 X89.578 Y119.000 E5.05302
G1 X89.151 Y118.573 E5.08315
G1 X88.354 Y118.175 E5.12759
G1 X88.153 Y117.974 E5.14177
G1 X87.356 Y117.576 E5.18622
G1 X86.955 Y117.176 E5.21448
G1 X86.559 Y116.978 E5.23656
G1 X86.357 Y116.777 E5.25078
G1 X85.959 Y116.578 E5.27298
G1 X85.756 Y116.376 E5.28727
G1 X83.600 Y115.298 E5.40753
G1 X83.600 Y114.221 E5.46126
G1 X82.000 Y112.620 E5.57418
G1 X82.000 Y112.418 E5.58426
G1 X81.600 Y112.017 E5.61252
G1 X81.600 Y111.818 E5.62245
G1 X81.200 Y111.417 E5.65070
G1 X81.200 Y111.218 E5.66063
G1 X80.600 Y110.617 E5.70300
G1 X80.600 Y110.421 E5.71278
G1 X80.400 Y110.221 E5.72689
G1 X80.400 Y110.021 E5.73687
G1 X80.200 Y109.821 E5.75098
G1 X80.200 Y109.621 E5.76096
G1 X80.000 Y109.421 E5.77507
G1 X80.000 Y109.221 E5.78505
G1 X79.800 Y109.021 E5.79916
G1 X79.800 Y108.821 E5.80914
G1 X79.600 Y108.621 E5.82325
G1 X79.600 Y108.221 E5.84320
G1 X79.400 Y108.021 E5.85731
G1 X79.400 Y107.621 E5.87727
G1 X79.200 Y107.421 E5.89138
G1 X79.200 Y107.021 E5.91134
G1 X79.000 Y106.821 E5.92545
G1 X79.000 Y106.421 E5.94540
G1 X78.800 Y106.221 E5.95952
G1 X78.800 Y105.621 E5.98945
G1 X78.600 Y105.421 E6.00356
G1 X78.600 Y104.821 E6.03349
G1 X78.400 Y104.621 E6.04761
G1 X78.400 Y95.059 E6.52466
G1 X78.600 Y94.859 E6.53877
G1 X78.600 Y94.259 E6.56870
G1 X78.800 Y94.059 E6.58281
G1 X78.800 Y93.459 E6.61275
G1 X79.000 Y93.259 E6.62686
G1 X79.000 Y93.059 E6.63684
G1 X79.200 Y92.859 E6.65095
G1 X79.200 Y92.459 E6.67090
G1 X79.400 Y92.259 E6.68501
G1 X79.400 Y91.859 E6.70497
G1 X79.600 Y91.659 E6.71908
G1 X79.600 Y91.259 E6.73904
G1 X79.800 Y91.059 E6.75315
G1 X79.800 Y90.859 E6.76313
G1 X80.000 Y90.659 E6.77724
G1 X80.000 Y90.459 E6.78722
G1 X80.200 Y90.259 E6.80133
G1 X80.200 Y90.059 E6.81130
G1 X80.400 Y89.859 E6.82542
G1 X80.400 Y89.659 E6.83539
G1 X80.600 Y89.459 E6.84950
G1 X80.600 Y89.061 E6.86936
G1 X81.400 Y88.260 E6.92584
G1 X81.400 Y88.063 E6.93567
G1 X82.000 Y87.462 E6.97804
G1 X82.000 Y87.260 E6.98812
G1 X83.600 Y85.659 E7.10104
G0 F9000 X84.000 Y85.825
G1 F1800 X84.000 Y84.829 E7.15073
G1 X85.992 Y83.833 E7.26184
G1 X86.594 Y83.234 E7.30421
G1 X86.992 Y83.034 E7.32643
G1 X87.595 Y82.433 E7.36891
G1 X88.387 Y82.037 E7.41308
G1 X88.591 Y81.833 E7.42748
G1 X89.390 Y81.434 E7.47203
G1 X89.794 Y81.030 E7.50054
G1 X91.010 Y80.626 E7.56446
G1 X92.737 Y79.761 E7.66083
G1 X94.613 Y79.291 E7.75731
G1 X95.665 Y78.940 E7.81264
G1 X104.680 Y78.940 E8.26240
G1 X106.089 Y79.291 E8.33485
G1 X107.697 Y79.829 E8.41944
G1 X110.909 Y81.434 E8.59858
G1 X111.110 Y81.634 E8.61273
G1 X111.905 Y82.032 E8.65708
G1 X112.109 Y82.235 E8.67144
G1 X112.508 Y82.435 E8.69371
G1 X113.108 Y83.034 E8.73601
G1 X113.507 Y83.233 E8.75825
G1 X117.300 Y87.026 E9.02587
G1 X117.300 Y87.226 E9.03585
G1 X118.100 Y88.027 E9.09233
G1 X118.100 Y88.227 E9.10230
G1 X118.700 Y88.828 E9.14467
G1 X118.700 Y89.025 E9.15450
G1 X118.900 Y89.225 E9.16861
G1 X118.900 Y89.425 E9.17859
G1 X119.100 Y89.625 E9.19270
G1 X119.100 Y89.825 E9.20268
G1 X119.300 Y90.025 E9.21679
G1 X119.300 Y90.225 E9.22677
G1 X119.500 Y90.425 E9.24088
G1 X119.500 Y90.625 E9.25086
G1 X119.700 Y90.825 E9.26497
G1 X119.700 Y91.225 E9.28492
G1 X119.900 Y91.425 E9.29904
G1 X119.900 Y91.625 E9.30901
G1 X120.100 Y91.825 E9.32312
G1 X120.100 Y92.140 E9.33884
G1 X120.900 Y92.140 E9.37875
G1 X120.900 Y95.025 E9.52269
G1 X121.100 Y95.225 E9.53680
G1 X121.100 Y95.825 E9.56673
G1 X121.300 Y96.025 E9.58084
G1 X121.300 Y103.855 E9.97148
G1 X121.100 Y104.055 E9.98559
G1 X121.100 Y104.655 E10.01553
G1 X120.900 Y104.855 E10.02964
G1 X120.900 Y107.740 E10.17357
G1 X120.100 Y107.740 E10.21348
G1 X120.100 Y107.855 E10.21922
G1 X119.900 Y108.055 E10.23333
G1 X119.900 Y108.455 E10.25329
G1 X119.700 Y108.655 E10.26740
G1 X119.700 Y108.855 E10.27738
G1 X119.500 Y109.055 E10.29149
G1 X119.500 Y109.255 E10.30147
G1 X119.300 Y109.455 E10.31558
G1 X119.300 Y109.655 E10.32556
G1 X119.100 Y109.855 E10.33967
G1 X119.100 Y110.055 E10.34964
G1 X118.900 Y110.255 E10.36376
G1 X118.900 Y110.455 E10.37373
G1 X118.700 Y110.655 E10.38784
G1 X118.700 Y110.851 E10.39762
G1 X118.300 Y111.252 E10.42588
G1 X118.300 Y111.451 E10.43581
G1 X117.900 Y111.852 E10.46407
G1 X117.900 Y112.052 E10.47404
G1 X117.300 Y112.653 E10.51641
G1 X117.300 Y112.854 E10.52644
G1 X113.707 Y116.447 E10.77995
G1 X113.311 Y116.645 E10.80203
G1 X113.109 Y116.847 E10.81629
G1 X112.707 Y117.048 E10.83871
G1 X112.505 Y117.249 E10.85293
G1 X112.106 Y117.448 E10.87517
G1 X111.905 Y117.648 E10.88932
G1 X111.110 Y118.046 E10.93367
G1 X110.909 Y118.246 E10.94782
G1 X107.697 Y119.851 E11.12696
G1 X106.093 Y120.387 E11.21133
G1 X104.200 Y120.861 E11.30869
G1 X102.520 Y121.140 E11.39365
G1 X98.378 Y121.140 E11.60030
G1 X95.361 Y120.635 E11.75291
G1 X94.613 Y120.388 E11.79221
G1 X92.737 Y119.919 E11.88869
G1 X91.010 Y119.054 E11.98505
G1 X89.794 Y118.650 E12.04898
G1 X89.390 Y118.246 E12.07748
G1 X88.591 Y117.847 E12.12204
G1 X88.389 Y117.645 E12.13629
G1 X87.593 Y117.247 E12.18069
G1 X87.191 Y116.847 E12.20898
G1 X86.795 Y116.649 E12.23107
G1 X86.593 Y116.448 E12.24529
G1 X86.195 Y116.249 E12.26749
G1 X85.992 Y116.046 E12.28181
G1 X84.000 Y115.051 E12.39290
G1 X84.000 Y114.055 E12.44259
G1 X82.400 Y112.454 E12.55552
G1 X82.400 Y112.252 E12.56559
G1 X82.000 Y111.851 E12.59385
G1 X82.000 Y111.652 E12.60378
G1 X81.600 Y111.251 E12.63204
G1 X81.600 Y111.053 E12.64191
G1 X81.000 Y110.452 E12.68428
G1 X81.000 Y110.255 E12.69411
G1 X80.800 Y110.055 E12.70822
G1 X80.800 Y109.855 E12.71820
G1 X80.600 Y109.655 E12.73231
G1 X80.600 Y109.455 E12.74229
G1 X80.400 Y109.255 E12.75640
G1 X80.400 Y109.055 E12.76638
G1 X80.200 Y108.855 E12.78049
G1 X80.200 Y108.655 E12.79047
G1 X80.000 Y108.455 E12.80458
G1 X80.000 Y108.055 E12.82453
G1 X79.800 Y107.855 E12.83865
G1 X79.800 Y107.455 E12.85860
G1 X79.600 Y107.255 E12.87271
G1 X79.600 Y106.855 E12.89267
G1 X79.400 Y106.655 E12.90678
G1 X79.400 Y106.255 E12.92674
G1 X79.200 Y106.055 E12.94085
G1 X79.200 Y105.455 E12.97078
G1 X79.000 Y105.255 E12.98489
G1 X79.000 Y104.655 E13.01483
G1 X78.800 Y104.455 E13.02894
G1 X78.800 Y95.225 E13.48942
G1 X79.000 Y95.025 E13.50354
G1 X79.000 Y94.425 E13.53347
G1 X79.200 Y94.225 E13.54758
G1 X79.200 Y93.625 E13.57751
G1 X79.400 Y93.425 E13.59163
G1 X79.400 Y93.225 E13.60160
G1 X79.600 Y93.025 E13.61572
G1 X79.600 Y92.625 E13.63567
G1 X79.800 Y92.425 E13.64978
G1 X79.800 Y92.025 E13.66974
G1 X80.000 Y91.825 E13.68385
G1 X80.000 Y91.425 E13.70381
G1 X80.200 Y91.225 E13.71792
G1 X80.200 Y91.025 E13.72789
G1 X80.400 Y90.825 E13.74201
G1 X80.400 Y90.625 E13.75198
G1 X80.600 Y90.425 E13.76609
G1 X80.600 Y90.225 E13.77607
G1 X80.800 Y90.025 E13.79018
G1 X80.800 Y89.825 E13.80016
G1 X81.000 Y89.625 E13.81427
G1 X81.000 Y89.227 E13.83413
G1 X81.800 Y88.426 E13.89061
G1 X81.800 Y88.228 E13.90049
G1 X82.400 Y87.627 E13.94286
G1 X82.400 Y87.426 E13.95288
G1 X84.000 Y85.825 E14.06581
G1 F2400 E10.06581
G0 F9000 X97.135 Y98.347
;TYPE:WALL-INNER
G1 F2400 E14.06581
G1 F1800 X100.000 Y96.693 E14.23085
G1 X102.864 Y98.347 E14.39585
G1 X102.864 Y101.653 E14.56079
G1 X99.999 Y103.307 E14.72584
G1 X97.135 Y101.654 E14.89081
G1 X97.135 Y98.347 E15.05580
G0 F9000 X96.735 Y98.115
;TYPE:WALL-OUTER
G1 F1800 X100.001 Y96.230 E15.24393
G1 X103.264 Y98.116 E15.43196
G1 X103.264 Y101.885 E15.62000
G1 X99.999 Y103.770 E15.80809
G1 X96.735 Y101.885 E15.99613
G1 X96.735 Y98.115 E16.18422
G0 F9000 X97.215 Y98.629
;TYPE:SKIN
G1 F1800 X101.140 Y102.554 E16.46115
G0 F9000 X101.498 Y102.347
G1 F1800 X97.423 Y98.272 E16.74866
G0 F9000 X97.782 Y98.065
G1 F1800 X101.858 Y102.140 E17.03621
G0 F9000 X102.216 Y101.933
G1 F1800 X98.140 Y97.857 E17.32380
G0 F9000 X98.499 Y97.651
G1 F1800 X102.575 Y101.726 E17.61134
G0 F9000 X102.783 Y101.369
G1 F1800 X98.858 Y97.444 E17.88827
G0 F9000 X99.216 Y97.237
G1 F1800 X102.783 Y100.803 E18.13991
G0 F9000 X102.783 Y100.238
G1 F1800 X99.576 Y97.030 E18.36622
G0 F9000 X99.934 Y96.823
G1 F1800 X102.783 Y99.672 E18.56723
G0 F9000 X102.783 Y99.106
G1 F1800 X101.095 Y97.418 E18.68633
G0 F9000 X102.435 Y98.192
G1 F1800 X102.783 Y98.540 E18.71088
G0 F9000 X100.781 Y102.761
G1 F1800 X97.215 Y99.195 E18.96248
G0 F9000 X97.215 Y99.760
G1 F1800 X100.423 Y102.968 E19.18882
G0 F9000 X100.064 Y103.175
G1 F1800 X97.215 Y100.326 E19.38983
G0 F9000 X97.215 Y100.892
G1 F1800 X98.907 Y102.584 E19.50921
G0 F9000 X97.569 Y101.812
G1 F1800 X97.215 Y101.457 E19.53423
G1 F2400 E15.53423
G0 F9000 X96.187 Y102.608
;TYPE:SUPPORT
G1 F2400 E19.53423
G1 F1800 X99.645 Y104.605 E19.73345
G1 X100.016 Y104.801 E19.75438
G1 X100.439 Y104.554 E19.77882
G1 X104.164 Y102.404 E19.99339
G1 X104.164 Y97.588 E20.23367
G1 X103.768 Y97.368 E20.25627
G1 X100.355 Y95.397 E20.45290
G1 X99.985 Y95.199 E20.47383
G1 X99.550 Y95.452 E20.49894
G1 X95.835 Y97.596 E20.71293
G1 X95.835 Y102.433 E20.95425
G1 X96.187 Y102.608 E20.97386
G0 F9000 X85.263 Y110.252
G0 X85.200 Y110.329
G1 F1800 X84.800 Y109.928 E21.00212
G1 X84.800 Y109.729 E21.01205
G1 X84.200 Y109.128 E21.05442
G1 X84.200 Y108.930 E21.06429
G1 X84.000 Y108.730 E21.07841
G1 X84.000 Y108.530 E21.08838
G1 X83.800 Y108.330 E21.10249
G1 X83.800 Y108.130 E21.11247
G1 X83.600 Y107.930 E21.12658
G1 X83.600 Y107.730 E21.13656
G1 X83.400 Y107.530 E21.15067
G1 X83.400 Y107.330 E21.16065
G1 X83.200 Y107.130 E21.17476
G1 X83.200 Y106.730 E21.19472
G1 X83.000 Y106.530 E21.20883
G1 X83.000 Y106.130 E21.22878
G1 X82.800 Y105.930 E21.24290
G1 X82.800 Y105.530 E21.26285
G1 X82.600 Y105.330 E21.27696
G1 X82.600 Y104.930 E21.29692
G1 X82.400 Y104.730 E21.31103
G1 X82.400 Y104.130 E21.34096
G1 X82.200 Y103.930 E21.35508
G1 X82.200 Y103.330 E21.38501
G1 X82.000 Y103.130 E21.39912
G1 X82.000 Y96.550 E21.72740
G1 X82.200 Y96.350 E21.74151
G1 X82.200 Y95.750 E21.77144
G1 X82.400 Y95.550 E21.78555
G1 X82.400 Y94.950 E21.81549
G1 X82.600 Y94.750 E21.82960
G1 X82.600 Y94.550 E21.83958
G1 X82.800 Y94.350 E21.85369
G1 X82.800 Y93.950 E21.87364
G1 X83.000 Y93.750 E21.88776
G1 X83.000 Y93.350 E21.90771
G1 X83.200 Y93.150 E21.92182
G1 X83.200 Y92.750 E21.94178
G1 X83.400 Y92.550 E21.95589
G1 X83.400 Y92.350 E21.96587
G1 X83.600 Y92.150 E21.97998
G1 X83.600 Y91.950 E21.98996
G1 X83.800 Y91.750 E22.00407
G1 X83.800 Y91.550 E22.01405
G1 X84.000 Y91.350 E22.02816
G1 X84.000 Y91.150 E22.03814
G1 X84.200 Y90.950 E22.05225
G1 X84.200 Y90.551 E22.07215
G1 X85.000 Y89.750 E22.12863
G1 X85.000 Y89.552 E22.13851
G1 X85.600 Y88.951 E22.18088
G1 X85.600 Y88.751 E22.19086
G1 X87.200 Y87.150 E22.30378
G1 X87.200 Y86.807 E22.32089
G1 X87.886 Y86.464 E22.35916
G1 X88.488 Y85.864 E22.40156
G1 X88.885 Y85.665 E22.42372
G1 X89.488 Y85.064 E22.46619
G1 X90.284 Y84.666 E22.51059
G1 X90.486 Y84.464 E22.52484
G1 X91.285 Y84.065 E22.56940
G1 X91.522 Y83.828 E22.58612
G1 X92.232 Y83.592 E22.62345
G1 X93.854 Y82.780 E22.71395
G1 X95.507 Y82.367 E22.79895
G1 X96.186 Y82.140 E22.83467
G1 X104.287 Y82.140 E23.23883
G1 X105.194 Y82.366 E23.28546
G1 X106.469 Y82.792 E23.35253
G1 X109.014 Y84.064 E23.49447
G1 X109.215 Y84.265 E23.50866
G1 X110.014 Y84.664 E23.55321
G1 X110.217 Y84.866 E23.56750
G1 X110.612 Y85.064 E23.58954
G1 X111.214 Y85.665 E23.63198
G1 X111.613 Y85.864 E23.65423
G1 X114.100 Y88.351 E23.82970
G1 X114.100 Y88.550 E23.83963
G1 X114.900 Y89.351 E23.89611
G1 X114.900 Y89.551 E23.90608
G1 X115.500 Y90.152 E23.94845
G1 X115.500 Y90.350 E23.95833
G1 X115.700 Y90.550 E23.97244
G1 X115.700 Y90.750 E23.98242
G1 X115.900 Y90.950 E23.99653
G1 X115.900 Y91.150 E24.00651
G1 X116.100 Y91.350 E24.02062
G1 X116.100 Y91.550 E24.03060
G1 X116.300 Y91.750 E24.04471
G1 X116.300 Y91.950 E24.05469
G1 X116.500 Y92.150 E24.06880
G1 X116.500 Y92.550 E24.08876
G1 X116.700 Y92.750 E24.10287
G1 X116.700 Y92.950 E24.11284
G1 X116.900 Y93.150 E24.12696
G1 X116.900 Y93.550 E24.14691
G1 X117.100 Y93.750 E24.16102
G1 X117.100 Y94.150 E24.18098
G1 X117.300 Y94.350 E24.19509
G1 X117.300 Y94.750 E24.21505
G1 X117.500 Y94.950 E24.22916
G1 X117.500 Y95.340 E24.24861
G1 X117.700 Y95.340 E24.25859
G1 X117.700 Y96.350 E24.30898
G1 X117.900 Y96.550 E24.32309
G1 X117.900 Y97.150 E24.35303
G1 X118.100 Y97.350 E24.36714
G1 X118.100 Y102.530 E24.62557
G1 X117.900 Y102.730 E24.63968
G1 X117.900 Y103.330 E24.66961
G1 X117.700 Y103.530 E24.68372
G1 X117.700 Y104.540 E24.73411
G1 X117.500 Y104.540 E24.74409
G1 X117.500 Y104.730 E24.75357
G1 X117.300 Y104.930 E24.76768
G1 X117.300 Y105.330 E24.78764
G1 X117.100 Y105.530 E24.80175
G1 X117.100 Y105.930 E24.82171
G1 X116.900 Y106.130 E24.83582
G1 X116.900 Y106.530 E24.85577
G1 X116.700 Y106.730 E24.86988
G1 X116.700 Y107.130 E24.88984
G1 X116.500 Y107.330 E24.90395
G1 X116.500 Y107.530 E24.91393
G1 X116.300 Y107.730 E24.92804
G1 X116.300 Y107.930 E24.93802
G1 X116.100 Y108.130 E24.95213
G1 X116.100 Y108.330 E24.96211
G1 X115.900 Y108.530 E24.97622
G1 X115.900 Y108.730 E24.98620
G1 X115.700 Y108.930 E25.00031
G1 X115.700 Y109.130 E25.01029
G1 X115.500 Y109.330 E25.02440
G1 X115.500 Y109.528 E25.03427
G1 X115.100 Y109.929 E25.06253
G1 X115.100 Y110.128 E25.07246
