;Generated with Cura_SteamEngine 15.01
; Default start code
G28 ; Home extruder
G1 Z15 F2000
M107 ; Turn off fan
G90 ; Absolute positioning
M82 ; Extruder in absolute mode
M104 T0 S180
M190 S50
; Activate all used extruder
G92 E0 ; Reset extruder position
; Wait for all used extruders to reach temperature
M109 T0 S210 R210
;Layer count: 85
;LAYER:0
M107
G0 F9000 X130.388 Y130.577 Z0.300
G0 X130.928 Y130.650
;TYPE:SKIRT
G1 F1800 X131.783 Y129.795 E0.06032
G1 X133.985 Y128.010 E0.20174
G1 X134.672 Y127.560 E0.24272
G1 X135.908 Y126.758 E0.31623
G1 X136.398 Y126.440 E0.34537
G1 X138.906 Y125.162 E0.48580
G1 X141.561 Y124.139 E0.62775
G1 X143.155 Y123.709 E0.71012
G1 X144.343 Y123.390 E0.77149
G1 X147.125 Y122.949 E0.91202
G1 X149.757 Y122.809 E1.04351
G1 X149.977 Y122.794 E1.05451
G1 X152.668 Y122.935 E1.18895
G1 X152.865 Y122.948 E1.19880
G1 X155.620 Y123.384 E1.33796
G1 X156.845 Y123.708 E1.40118
G1 X156.891 Y123.721 E1.40356
G1 X158.400 Y124.124 E1.48149
G1 X160.692 Y125.004 E1.60397
G1 X161.065 Y125.147 E1.62390
G1 X163.574 Y126.425 E1.76438
G1 X165.988 Y127.989 E1.90788
G1 X168.197 Y129.777 E2.04967
G1 X170.204 Y131.783 E2.19124
G1 X171.984 Y133.979 E2.33227
G1 X172.438 Y134.671 E2.37356
G1 X173.241 Y135.908 E2.44714
G1 X173.559 Y136.398 E2.47628
G1 X174.837 Y138.906 E2.61671
G1 X175.860 Y141.561 E2.75866
G1 X176.290 Y143.155 E2.84103
G1 X176.609 Y144.343 E2.90240
G1 X177.049 Y147.124 E3.04287
G1 X177.191 Y149.757 E3.17442
G1 X177.206 Y149.977 E3.18542
G1 X177.064 Y152.668 E3.31986
G1 X177.051 Y152.865 E3.32971
G1 X176.615 Y155.620 E3.46887
G1 X176.291 Y156.845 E3.53209
G1 X176.273 Y156.908 E3.53536
G1 X175.875 Y158.400 E3.61240
G1 X174.995 Y160.692 E3.73488
G1 X174.852 Y161.065 E3.75481
G1 X173.574 Y163.574 E3.89529
G1 X172.010 Y165.988 E4.03879
G1 X170.237 Y168.178 E4.17937
G1 X168.217 Y170.203 E4.32207
G1 X166.015 Y171.987 E4.46346
G1 X164.095 Y173.239 E4.57781
G1 X163.603 Y173.559 E4.60709
G1 X161.093 Y174.837 E4.74762
G1 X158.407 Y175.872 E4.89123
G1 X156.839 Y176.291 E4.97220
G1 X155.656 Y176.609 E5.03331
G1 X152.875 Y177.049 E5.17378
G1 X150.243 Y177.191 E5.30529
G1 X150.023 Y177.206 E5.31629
G1 X147.331 Y177.064 E5.45078
G1 X147.134 Y177.051 E5.46063
G1 X144.379 Y176.615 E5.59979
G1 X143.162 Y176.293 E5.66259
G1 X141.599 Y175.875 E5.74331
G1 X139.108 Y174.919 E5.87643
G1 X138.923 Y174.847 E5.88633
G1 X136.427 Y173.574 E6.02612
G1 X134.706 Y172.461 E6.12837
G1 X134.010 Y172.008 E6.16980
G1 X131.821 Y170.237 E6.31027
G1 X130.928 Y169.346 E6.37321
G1 X130.387 Y169.418 E6.40044
G1 X130.152 Y168.572 E6.44424
G1 X129.796 Y168.217 E6.46933
G1 X128.007 Y166.010 E6.61106
G1 X126.760 Y164.095 E6.72507
G1 X126.440 Y163.603 E6.75436
G1 X125.162 Y161.093 E6.89488
G1 X124.127 Y158.407 E7.03849
G1 X123.708 Y156.839 E7.11946
G1 X123.390 Y155.656 E7.18058
G1 X122.949 Y152.874 E7.32110
G1 X122.877 Y151.525 E7.38850
G1 X122.725 Y151.439 E7.39721
G1 X122.847 Y150.964 E7.42168
G1 X122.809 Y150.243 E7.45770
G1 X122.794 Y150.023 E7.46870
G1 X122.935 Y147.331 E7.60319
G1 X122.948 Y147.134 E7.61304
G1 X123.384 Y144.379 E7.75220
G1 X123.708 Y143.155 E7.81537
G1 X124.124 Y141.599 E7.89572
G1 X125.080 Y139.108 E8.02884
G1 X125.152 Y138.923 E8.03874
G1 X126.425 Y136.427 E8.17853
G1 X127.538 Y134.706 E8.28078
G1 X127.991 Y134.009 E8.32225
G1 X129.777 Y131.802 E8.46390
G1 X130.151 Y131.427 E8.49032
G1 X130.388 Y130.577 E8.53434
G1 X130.928 Y130.650 E8.56153
G1 F2400 E4.56153
G0 F9000 X135.684 Y131.759
;TYPE:WALL-INNER
G1 F2400 E8.56153
G1 F1800 X135.342 Y131.803 E8.57873
G1 X136.228 Y131.084 E8.63566
G1 X136.748 Y130.743 E8.66668
G1 X138.299 Y129.736 E8.75894
G1 X140.455 Y128.637 E8.87967
G1 X142.746 Y127.754 E9.00217
G1 X145.128 Y127.113 E9.12523
G1 X147.529 Y126.733 E9.24651
G1 X147.542 Y126.732 E9.24716
G1 X147.289 Y126.920 E9.26289
G1 X146.807 Y127.423 E9.29764
G1 X146.418 Y127.999 E9.33232
G1 X146.130 Y128.635 E9.36715
G1 X145.955 Y129.326 E9.40271
G1 X145.898 Y130.000 E9.43646
G1 X145.956 Y130.692 E9.47111
G1 X146.131 Y131.366 E9.50585
G1 X146.418 Y132.000 E9.54057
G1 X146.807 Y132.576 E9.57524
G1 X147.289 Y133.079 E9.61000
G1 X147.848 Y133.493 E9.64470
G1 X148.471 Y133.806 E9.67949
G1 X149.135 Y134.010 E9.71414
G1 X149.826 Y134.098 E9.74889
G1 X150.520 Y134.068 E9.78355
G1 X151.200 Y133.922 E9.81825
G1 X151.846 Y133.663 E9.85297
G1 X152.439 Y133.297 E9.88774
G1 X152.961 Y132.838 E9.92242
G1 X153.398 Y132.296 E9.95715
G1 X153.738 Y131.689 E9.99186
G1 X153.970 Y131.033 E10.02658
G1 X154.087 Y130.347 E10.06130
G1 X154.087 Y129.652 E10.09597
G1 X153.970 Y128.966 E10.13069
G1 X153.738 Y128.310 E10.16540
G1 X153.398 Y127.703 E10.20011
G1 X152.961 Y127.161 E10.23485
G1 X152.475 Y126.734 E10.26712
G1 X154.841 Y127.108 E10.38663
G1 X155.820 Y127.367 E10.43715
G1 X157.230 Y127.745 E10.50998
G1 X159.514 Y128.622 E10.63204
G1 X161.672 Y129.721 E10.75286
G1 X163.760 Y131.074 E10.87699
G1 X164.642 Y131.788 E10.93361
G1 X163.968 Y131.759 E10.96726
G1 X163.277 Y131.847 E11.00202
G1 X162.612 Y132.051 E11.03672
G1 X161.992 Y132.364 E11.07137
G1 X161.431 Y132.778 E11.10615
G1 X160.951 Y133.281 E11.14084
G1 X160.560 Y133.856 E11.17553
G1 X160.274 Y134.491 E11.21028
G1 X160.098 Y135.164 E11.24498
G1 X160.040 Y135.857 E11.27968
G1 X160.090 Y136.464 E11.31006
G1 X160.100 Y136.555 E11.31463
G1 X160.274 Y137.224 E11.34912
G1 X160.560 Y137.858 E11.38382
G1 X160.950 Y138.434 E11.41852
G1 X161.431 Y138.937 E11.45324
G1 X161.992 Y139.351 E11.48803
G1 X162.612 Y139.664 E11.52268
G1 X163.277 Y139.868 E11.55738
G1 X163.968 Y139.956 E11.59213
G1 X164.662 Y139.926 E11.62679
G1 X165.343 Y139.780 E11.66154
G1 X165.988 Y139.521 E11.69621
G1 X166.581 Y139.155 E11.73098
G1 X167.103 Y138.696 E11.76566
G1 X167.540 Y138.154 E11.80039
G1 X167.880 Y137.547 E11.83510
G1 X168.112 Y136.891 E11.86982
G1 X168.229 Y136.205 E11.90454
G1 X168.229 Y135.510 E11.93921
G1 X168.201 Y135.348 E11.94741
G1 X168.916 Y136.230 E12.00406
G1 X169.256 Y136.748 E12.03497
G1 X170.263 Y138.299 E12.12723
G1 X171.362 Y140.455 E12.24796
G1 X172.245 Y142.746 E12.37046
G1 X172.886 Y145.128 E12.49352
G1 X173.266 Y147.529 E12.61480
G1 X173.267 Y147.540 E12.61535
G1 X172.961 Y147.161 E12.63965
G1 X172.439 Y146.702 E12.67433
G1 X171.846 Y146.336 E12.70910
G1 X171.200 Y146.077 E12.74382
G1 X170.520 Y145.931 E12.77852
G1 X169.826 Y145.901 E12.81317
G1 X169.135 Y145.989 E12.84793
G1 X168.471 Y146.193 E12.88258
G1 X167.848 Y146.506 E12.91737
G1 X167.289 Y146.920 E12.95207
G1 X166.807 Y147.423 E12.98683
G1 X166.418 Y147.999 E13.02150
G1 X166.131 Y148.633 E13.05622
G1 X165.956 Y149.307 E13.09096
G1 X165.898 Y150.000 E13.12566
G1 X165.956 Y150.692 E13.16030
G1 X166.131 Y151.366 E13.19505
G1 X166.418 Y152.000 E13.22977
G1 X166.807 Y152.576 E13.26444
G1 X167.289 Y153.079 E13.29920
G1 X167.848 Y153.493 E13.33390
G1 X168.471 Y153.806 E13.36869
G1 X169.135 Y154.010 E13.40334
G1 X169.826 Y154.098 E13.43809
G1 X170.523 Y154.068 E13.47290
G1 X171.239 Y153.907 E13.50951
G1 X171.846 Y153.663 E13.54215
G1 X172.439 Y153.297 E13.57692
G1 X172.961 Y152.838 E13.61160
G1 X173.268 Y152.457 E13.63601
G1 X172.891 Y154.841 E13.75642
G1 X172.632 Y155.820 E13.80695
G1 X172.254 Y157.230 E13.87978
G1 X171.377 Y159.514 E14.00184
G1 X170.278 Y161.672 E14.12266
G1 X168.925 Y163.760 E14.24679
G1 X168.201 Y164.655 E14.30422
G1 X168.229 Y164.489 E14.31262
G1 X168.229 Y163.794 E14.34729
G1 X168.112 Y163.108 E14.38201
G1 X167.880 Y162.452 E14.41672
G1 X167.540 Y161.845 E14.45143
G1 X167.103 Y161.303 E14.48617
G1 X166.581 Y160.844 E14.52085
G1 X165.988 Y160.478 E14.55561
G1 X165.343 Y160.219 E14.59029
G1 X164.662 Y160.073 E14.62504
G1 X163.968 Y160.043 E14.65969
G1 X163.277 Y160.131 E14.69445
G1 X162.612 Y160.335 E14.72915
G1 X161.992 Y160.648 E14.76380
G1 X161.431 Y161.062 E14.79858
G1 X160.950 Y161.565 E14.83331
G1 X160.560 Y162.141 E14.86801
G1 X160.274 Y162.775 E14.90271
G1 X160.098 Y163.448 E14.93742
G1 X160.040 Y164.142 E14.97216
G1 X160.098 Y164.835 E15.00685
G1 X160.274 Y165.508 E15.04156
G1 X160.560 Y166.143 E15.07631
G1 X160.951 Y166.718 E15.11100
G1 X161.431 Y167.221 E15.14568
G1 X161.992 Y167.635 E15.18047
G1 X162.612 Y167.948 E15.21512
G1 X163.277 Y168.152 E15.24982
G1 X163.968 Y168.240 E15.28457
G1 X164.639 Y168.211 E15.31808
G1 X163.779 Y168.908 E15.37331
G1 X161.696 Y170.265 E15.49734
G1 X159.544 Y171.362 E15.61785
G1 X157.231 Y172.253 E15.74151
G1 X154.865 Y172.887 E15.86371
G1 X152.475 Y173.265 E15.98443
G1 X152.961 Y172.838 E16.01671
G1 X153.398 Y172.296 E16.05144
G1 X153.738 Y171.689 E16.08615
G1 X153.970 Y171.033 E16.12087
G1 X154.087 Y170.347 E16.15559
G1 X154.087 Y169.652 E16.19026
G1 X153.970 Y168.966 E16.22498
G1 X153.738 Y168.310 E16.25969
G1 X153.398 Y167.703 E16.29440
G1 X152.961 Y167.161 E16.32914
G1 X152.439 Y166.702 E16.36382
G1 X151.846 Y166.336 E16.39858
G1 X151.200 Y166.077 E16.43331
G1 X150.520 Y165.931 E16.46801
G1 X149.826 Y165.901 E16.50266
G1 X149.135 Y165.989 E16.53741
G1 X148.471 Y166.193 E16.57207
G1 X147.848 Y166.506 E16.60685
G1 X147.289 Y166.920 E16.64156
G1 X146.807 Y167.423 E16.67631
G1 X146.418 Y167.999 E16.71099
G1 X146.131 Y168.633 E16.74571
G1 X145.956 Y169.307 E16.78045
G1 X145.898 Y170.000 E16.81515
G1 X145.948 Y170.606 E16.84548
G1 X145.958 Y170.697 E16.85005
G1 X146.131 Y171.366 E16.88452
G1 X146.418 Y172.000 E16.91924
G1 X146.807 Y172.576 E16.95392
G1 X147.289 Y173.079 E16.98868
G1 X147.545 Y173.269 E17.00458
G1 X145.159 Y172.891 E17.12510
G1 X144.179 Y172.632 E17.17568
G1 X142.769 Y172.254 E17.24850
G1 X140.487 Y171.378 E17.37045
G1 X138.328 Y170.278 E17.49134
G1 X136.773 Y169.272 E17.58374
G1 X136.242 Y168.927 E17.61533
G1 X135.338 Y168.196 E17.67333
G1 X135.684 Y168.240 E17.69074
G1 X136.381 Y168.210 E17.72554
G1 X137.097 Y168.049 E17.76215
G1 X137.704 Y167.805 E17.79479
G1 X138.297 Y167.440 E17.82953
G1 X138.819 Y166.979 E17.86428
G1 X139.256 Y166.439 E17.89893
G1 X139.596 Y165.831 E17.93369
G1 X139.827 Y165.176 E17.96834
G1 X139.945 Y164.489 E18.00312
G1 X139.945 Y163.794 E18.03779
G1 X139.827 Y163.108 E18.07252
G1 X139.596 Y162.452 E18.10721
G1 X139.256 Y161.845 E18.14193
G1 X138.819 Y161.303 E18.17666
G1 X138.297 Y160.844 E18.21134
G1 X137.704 Y160.478 E18.24610
G1 X137.058 Y160.219 E18.28083
G1 X136.378 Y160.073 E18.31553
G1 X135.684 Y160.043 E18.35018
G1 X134.993 Y160.131 E18.38493
G1 X134.328 Y160.335 E18.41964
G1 X133.706 Y160.648 E18.45438
G1 X133.147 Y161.062 E18.48908
G1 X132.665 Y161.565 E18.52384
G1 X132.276 Y162.141 E18.55851
G1 X131.989 Y162.775 E18.59323
G1 X131.815 Y163.448 E18.62791
G1 X131.755 Y164.142 E18.66267
G1 X131.799 Y164.653 E18.68826
G1 X131.083 Y163.770 E18.74497
G1 X129.736 Y161.701 E18.86814
G1 X128.637 Y159.544 E18.98892
G1 X127.746 Y157.231 E19.11258
G1 X127.112 Y154.865 E19.23479
G1 X126.733 Y152.468 E19.35586
G1 X126.807 Y152.576 E19.36239
G1 X127.289 Y153.079 E19.39715
G1 X127.848 Y153.493 E19.43185
G1 X128.471 Y153.806 E19.46663
G1 X129.135 Y154.010 E19.50129
G1 X129.826 Y154.098 E19.53604
G1 X130.520 Y154.068 E19.57070
G1 X131.200 Y153.922 E19.60540
G1 X131.846 Y153.663 E19.64012
G1 X132.439 Y153.297 E19.67489
G1 X132.961 Y152.838 E19.70956
G1 X133.398 Y152.296 E19.74430
G1 X133.738 Y151.689 E19.77901
G1 X133.970 Y151.033 E19.81372
G1 X134.087 Y150.347 E19.84844
G1 X134.087 Y149.652 E19.88312
G1 X133.970 Y148.966 E19.91784
G1 X133.738 Y148.310 E19.95255
G1 X133.398 Y147.703 E19.98726
G1 X132.961 Y147.161 E20.02199
G1 X132.439 Y146.702 E20.05667
G1 X131.846 Y146.336 E20.09144
G1 X131.200 Y146.077 E20.12616
G1 X130.520 Y145.931 E20.16086
G1 X129.826 Y145.901 E20.19552
G1 X129.135 Y145.989 E20.23027
G1 X128.471 Y146.193 E20.26493
G1 X127.848 Y146.506 E20.29971
G1 X127.289 Y146.920 E20.33441
G1 X126.807 Y147.423 E20.36917
G1 X126.732 Y147.534 E20.37585
G1 X127.108 Y145.159 E20.49582
G1 X127.367 Y144.180 E20.54634
G1 X127.745 Y142.769 E20.61922
G1 X128.621 Y140.487 E20.74117
G1 X129.722 Y138.327 E20.86212
G1 X130.726 Y136.774 E20.95438
G1 X131.072 Y136.242 E20.98604
G1 X131.800 Y135.343 E21.04376
G1 X131.755 Y135.857 E21.06950
G1 X131.807 Y136.464 E21.09989
G1 X131.816 Y136.555 E21.10446
G1 X131.989 Y137.224 E21.13893
G1 X132.276 Y137.858 E21.17365
G1 X132.665 Y138.434 E21.20833
G1 X133.147 Y138.937 E21.24308
G1 X133.706 Y139.351 E21.27779
G1 X134.328 Y139.664 E21.31253
G1 X134.993 Y139.868 E21.34723
G1 X135.684 Y139.956 E21.38198
G1 X136.378 Y139.926 E21.41664
G1 X137.058 Y139.780 E21.45134
G1 X137.704 Y139.521 E21.48606
G1 X138.297 Y139.155 E21.52083
G1 X138.819 Y138.696 E21.55550
G1 X139.256 Y138.154 E21.59024
G1 X139.596 Y137.547 E21.62495
G1 X139.827 Y136.891 E21.65965
G1 X139.945 Y136.205 E21.69437
G1 X139.945 Y135.510 E21.72905
G1 X139.827 Y134.823 E21.76383
G1 X139.596 Y134.168 E21.79848
G1 X139.256 Y133.560 E21.83323
G1 X138.819 Y133.020 E21.86789
G1 X138.297 Y132.559 E21.90263
G1 X137.704 Y132.194 E21.93737
G1 X137.058 Y131.935 E21.97209
G1 X136.378 Y131.789 E22.00679
G1 X135.684 Y131.759 E22.04145
G0 F9000 X137.702 Y132.195
G0 X139.254 Y133.560
G0 X139.944 Y135.510
G0 X143.986 Y143.167
G1 F1800 X142.917 Y144.282 E22.11851
G1 X142.053 Y145.560 E22.19548
G1 X141.417 Y146.967 E22.27251
G1 X141.028 Y148.461 E22.34953
G1 X140.898 Y150.000 E22.42659
G1 X141.028 Y151.538 E22.50359
G1 X141.417 Y153.032 E22.58061
G1 X142.053 Y154.439 E22.65765
G1 X142.918 Y155.717 E22.73464
G1 X143.986 Y156.832 E22.81167
G1 X145.227 Y157.751 E22.88871
G1 X146.606 Y158.446 E22.96575
G1 X148.082 Y158.898 E23.04276
G1 X149.613 Y159.094 E23.11977
G1 X151.156 Y159.028 E23.19682
G1 X152.664 Y158.703 E23.27378
G1 X154.097 Y158.127 E23.35083
G1 X155.412 Y157.317 E23.42789
G1 X156.404 Y156.445 E23.49378
G1 X156.571 Y156.297 E23.50491
G1 X157.541 Y155.096 E23.58193
G1 X158.294 Y153.749 E23.65892
G1 X158.808 Y152.293 E23.73596
G1 X159.067 Y150.784 E23.81234
G1 X159.101 Y150.000 E23.85149
G1 X159.067 Y149.215 E23.89069
G1 X158.808 Y147.706 E23.96708
G1 X158.294 Y146.250 E24.04411
G1 X157.541 Y144.903 E24.12110
G1 X156.571 Y143.701 E24.19816
G1 X155.412 Y142.682 E24.27515
G1 X154.097 Y141.872 E24.35221
G1 X152.664 Y141.296 E24.42926
G1 X151.156 Y140.971 E24.50622
G1 X149.613 Y140.905 E24.58327
G1 X148.082 Y141.101 E24.66028
G1 X146.605 Y141.553 E24.73734
G1 X145.227 Y142.249 E24.81436
G1 X143.986 Y143.167 E24.89137
G0 F9000 X144.251 Y143.468
;TYPE:WALL-OUTER
G1 F1800 X143.230 Y144.534 E24.96501
G1 X142.404 Y145.756 E25.03860
G1 X141.796 Y147.101 E25.11224
G1 X141.424 Y148.529 E25.18586
G1 X141.299 Y150.000 E25.25951
G1 X141.424 Y151.470 E25.33312
G1 X141.796 Y152.898 E25.40674
G1 X142.404 Y154.243 E25.48038
G1 X143.230 Y155.465 E25.55396
G1 X144.251 Y156.531 E25.62761
G1 X145.438 Y157.409 E25.70126
G1 X146.755 Y158.073 E25.77485
G1 X148.167 Y158.505 E25.84852
G1 X149.630 Y158.693 E25.92211
G1 X151.105 Y158.630 E25.99576
G1 X152.547 Y158.319 E26.06936
G1 X153.916 Y157.768 E26.14298
G1 X155.173 Y156.994 E26.21663
G1 X156.281 Y156.020 E26.29023
G1 X157.208 Y154.871 E26.36388
G1 X157.928 Y153.584 E26.43746
G1 X158.419 Y152.192 E26.51110
G1 X158.668 Y150.741 E26.58455
G1 X158.700 Y150.000 E26.62155
G1 X158.668 Y149.258 E26.65860
G1 X158.419 Y147.807 E26.73205
G1 X157.928 Y146.415 E26.80569
G1 X157.208 Y145.128 E26.87927
G1 X156.281 Y143.979 E26.95292
G1 X155.173 Y143.005 E27.02652
G1 X153.916 Y142.231 E27.10017
G1 X152.547 Y141.680 E27.17379
G1 X151.105 Y141.369 E27.24739
G1 X149.630 Y141.306 E27.32104
G1 X148.167 Y141.494 E27.39463
G1 X146.755 Y141.926 E27.46830
G1 X145.438 Y142.591 E27.54191
G1 X144.251 Y143.468 E27.61554
G0 F9000 X144.036 Y143.260
G0 X138.761 Y138.606
G0 X138.529 Y138.418
G1 F1800 X138.923 Y137.929 E27.64687
G1 X139.230 Y137.382 E27.67816
G1 X139.438 Y136.790 E27.70947
G1 X139.545 Y136.171 E27.74081
G1 X139.545 Y135.544 E27.77209
G1 X139.438 Y134.924 E27.80348
G1 X139.230 Y134.333 E27.83473
G1 X138.923 Y133.785 E27.86607
G1 X138.529 Y133.297 E27.89736
G1 X138.058 Y132.882 E27.92868
G1 X137.523 Y132.553 E27.96002
G1 X136.941 Y132.319 E27.99131
G1 X136.327 Y132.187 E28.02264
G1 X135.701 Y132.160 E28.05390
G1 X135.078 Y132.240 E28.08524
G1 X134.477 Y132.424 E28.11660
G1 X133.917 Y132.706 E28.14788
G1 X133.412 Y133.079 E28.17920
