;Generated with Cura_SteamEngine 15.01
; Default start code
G28 ; Home extruder
G1 Z15 F2000
M107 ; Turn off fan
G90 ; Absolute positioning
M82 ; Extruder in absolute mode
M104 T0 S180
M190 S50
; Activate all used extruder
G92 E0 ; Reset extruder position
; Wait for all used extruders to reach temperature
M109 T0 S210 R210
;Layer count: 50
;LAYER:0
M107
G0 F9000 X80.388 Y80.577 Z0.300
G0 X80.930 Y80.650
;TYPE:SKIRT
G1 F1800 X81.774 Y79.805 E0.05958
G1 X83.970 Y78.022 E0.20071
G1 X84.666 Y77.564 E0.24228
G1 X85.894 Y76.767 E0.31531
G1 X86.398 Y76.440 E0.34529
G1 X88.886 Y75.171 E0.48463
G1 X91.387 Y74.205 E0.61839
G1 X91.595 Y74.126 E0.62949
G1 X94.295 Y73.403 E0.76894
G1 X95.472 Y73.212 E0.82842
G1 X97.156 Y72.944 E0.91350
G1 X99.783 Y72.807 E1.04474
G1 X99.783 Y72.808 E1.04479
G1 X99.989 Y72.795 E1.05508
G1 X102.634 Y72.933 E1.18722
G1 X102.852 Y72.946 E1.19812
G1 X104.471 Y73.201 E1.27989
G1 X105.656 Y73.390 E1.33975
G1 X108.398 Y74.124 E1.48137
G1 X111.064 Y75.146 E1.62381
G1 X113.554 Y76.416 E1.76327
G1 X115.987 Y77.989 E1.90781
G1 X118.192 Y79.774 E2.04934
G1 X120.194 Y81.774 E2.19053
G1 X121.876 Y83.845 E2.32363
G1 X122.013 Y84.016 E2.33456
G1 X122.440 Y84.674 E2.37370
G1 X123.231 Y85.892 E2.44615
G1 X123.559 Y86.398 E2.47624
G1 X124.828 Y88.886 E2.61558
G1 X125.794 Y91.387 E2.74934
G1 X125.873 Y91.595 E2.76044
G1 X126.596 Y94.295 E2.89989
G1 X126.787 Y95.472 E2.95938
G1 X127.055 Y97.155 E3.04440
G1 X127.193 Y99.781 E3.17559
G1 X127.192 Y99.781 E3.17564
G1 X127.205 Y99.990 E3.18609
G1 X127.066 Y102.635 E3.31823
G1 X127.053 Y102.852 E3.32908
G1 X126.798 Y104.471 E3.41084
G1 X126.609 Y105.656 E3.47071
G1 X125.875 Y108.398 E3.61233
G1 X124.853 Y111.064 E3.75477
G1 X123.583 Y113.554 E3.89422
G1 X122.010 Y115.987 E4.03877
G1 X120.251 Y118.160 E4.17825
G1 X118.227 Y120.193 E4.32137
G1 X116.154 Y121.876 E4.45458
G1 X115.981 Y122.014 E4.46562
G1 X114.107 Y123.231 E4.57710
G1 X113.604 Y123.558 E4.60703
G1 X111.112 Y124.828 E4.74658
G1 X108.768 Y125.733 E4.87193
G1 X108.410 Y125.872 E4.89109
G1 X105.704 Y126.596 E5.03084
G1 X104.529 Y126.787 E5.09023
G1 X102.844 Y127.055 E5.17535
G1 X100.219 Y127.193 E5.30650
G1 X100.219 Y127.192 E5.30655
G1 X100.010 Y127.205 E5.31699
G1 X97.364 Y127.066 E5.44919
G1 X97.146 Y127.053 E5.46008
G1 X95.529 Y126.798 E5.54175
G1 X94.343 Y126.609 E5.60167
G1 X91.601 Y125.875 E5.74328
G1 X88.985 Y124.872 E5.88306
G1 X86.450 Y123.586 E6.02487
G1 X84.720 Y122.471 E6.12756
G1 X84.008 Y122.007 E6.16996
G1 X81.839 Y120.251 E6.30919
G1 X80.930 Y119.346 E6.37318
G1 X80.387 Y119.418 E6.40051
G1 X80.151 Y118.571 E6.44437
G1 X79.806 Y118.227 E6.46868
G1 X78.017 Y116.023 E6.61030
G1 X76.771 Y114.111 E6.72416
G1 X76.441 Y113.604 E6.75434
G1 X75.171 Y111.112 E6.89388
G1 X74.266 Y108.768 E7.01924
G1 X74.127 Y108.410 E7.03840
G1 X73.403 Y105.704 E7.17815
G1 X73.212 Y104.529 E7.23754
G1 X72.944 Y102.843 E7.32271
G1 X72.875 Y101.523 E7.38866
G1 X72.725 Y101.439 E7.39723
G1 X72.846 Y100.968 E7.42149
G1 X72.807 Y100.217 E7.45901
G1 X72.808 Y100.217 E7.45906
G1 X72.795 Y100.011 E7.46936
G1 X72.933 Y97.365 E7.60155
G1 X72.946 Y97.146 E7.61249
G1 X73.201 Y95.529 E7.69416
G1 X73.390 Y94.343 E7.75408
G1 X74.124 Y91.601 E7.89569
G1 X75.127 Y88.985 E8.03547
G1 X76.413 Y86.450 E8.17729
G1 X77.528 Y84.720 E8.27997
G1 X77.991 Y84.008 E8.32234
G1 X79.774 Y81.807 E8.46366
G1 X80.151 Y81.430 E8.49026
G1 X80.388 Y80.577 E8.53443
G1 X80.930 Y80.650 E8.56171
G1 F2400 E4.56171
G0 F9000 X85.684 Y81.759
;TYPE:WALL-INNER
G1 F2400 E8.56171
G1 F1800 X85.342 Y81.803 E8.57891
G1 X86.219 Y81.091 E8.63527
G1 X86.747 Y80.743 E8.66682
G1 X88.290 Y79.741 E8.75861
G1 X90.442 Y78.644 E8.87912
G1 X92.752 Y77.752 E9.00266
G1 X92.764 Y77.747 E9.00331
G1 X95.099 Y77.123 E9.12389
G1 X96.074 Y76.964 E9.17317
G1 X97.545 Y76.730 E9.24748
G1 X97.289 Y76.920 E9.26339
G1 X96.807 Y77.423 E9.29815
G1 X96.418 Y77.999 E9.33282
G1 X96.131 Y78.633 E9.36754
G1 X95.956 Y79.307 E9.40228
G1 X95.898 Y80.000 E9.43698
G1 X95.956 Y80.692 E9.47162
G1 X96.131 Y81.366 E9.50636
G1 X96.418 Y82.000 E9.54108
G1 X96.807 Y82.576 E9.57576
G1 X97.289 Y83.079 E9.61052
G1 X97.848 Y83.493 E9.64522
G1 X98.470 Y83.806 E9.67996
G1 X99.135 Y84.010 E9.71466
G1 X99.826 Y84.098 E9.74942
G1 X100.520 Y84.068 E9.78407
G1 X101.200 Y83.922 E9.81877
G1 X101.846 Y83.663 E9.85349
G1 X102.439 Y83.297 E9.88826
G1 X102.961 Y82.838 E9.92294
G1 X103.398 Y82.296 E9.95767
G1 X103.738 Y81.689 E9.99238
G1 X103.970 Y81.033 E10.02710
G1 X104.087 Y80.347 E10.06182
G1 X104.087 Y79.652 E10.09649
G1 X103.970 Y78.966 E10.13121
G1 X103.738 Y78.310 E10.16592
G1 X103.398 Y77.703 E10.20064
G1 X102.961 Y77.161 E10.23537
G1 X102.475 Y76.734 E10.26765
G1 X104.865 Y77.112 E10.38837
G1 X107.228 Y77.745 E10.51041
G1 X109.514 Y78.622 E10.63257
G1 X111.654 Y79.712 E10.75238
G1 X113.755 Y81.071 E10.87722
G1 X114.641 Y81.788 E10.93408
G1 X113.968 Y81.759 E10.96769
G1 X113.277 Y81.847 E11.00244
G1 X112.612 Y82.051 E11.03715
G1 X111.992 Y82.364 E11.07180
G1 X111.431 Y82.778 E11.10658
G1 X110.951 Y83.281 E11.14127
G1 X110.560 Y83.856 E11.17596
G1 X110.274 Y84.491 E11.21070
G1 X110.098 Y85.164 E11.24541
G1 X110.040 Y85.856 E11.28005
G1 X110.088 Y86.444 E11.30949
G1 X110.100 Y86.555 E11.31506
G1 X110.274 Y87.224 E11.34954
G1 X110.560 Y87.858 E11.38424
G1 X110.950 Y88.434 E11.41895
G1 X111.431 Y88.937 E11.45367
G1 X111.992 Y89.351 E11.48845
G1 X112.612 Y89.664 E11.52310
G1 X113.277 Y89.868 E11.55781
G1 X113.968 Y89.956 E11.59256
G1 X114.662 Y89.926 E11.62722
G1 X115.343 Y89.780 E11.66196
G1 X115.988 Y89.521 E11.69664
G1 X116.581 Y89.155 E11.73141
G1 X117.103 Y88.696 E11.76608
G1 X117.540 Y88.154 E11.80082
G1 X117.880 Y87.547 E11.83553
G1 X118.112 Y86.891 E11.87024
G1 X118.229 Y86.205 E11.90496
G1 X118.229 Y85.510 E11.93964
G1 X118.201 Y85.348 E11.94784
G1 X118.915 Y86.228 E12.00438
G1 X118.932 Y86.249 E12.00572
G1 X120.260 Y88.295 E12.12742
G1 X121.355 Y90.442 E12.24766
G1 X122.247 Y92.751 E12.37115
G1 X122.876 Y95.099 E12.49242
G1 X123.035 Y96.074 E12.54171
G1 X123.268 Y97.542 E12.61586
G1 X122.961 Y97.161 E12.64028
G1 X122.439 Y96.702 E12.67495
G1 X121.846 Y96.336 E12.70972
G1 X121.200 Y96.077 E12.74444
G1 X120.520 Y95.931 E12.77914
G1 X119.826 Y95.901 E12.81380
G1 X119.135 Y95.989 E12.84855
G1 X118.471 Y96.193 E12.88321
G1 X117.848 Y96.506 E12.91799
G1 X117.289 Y96.920 E12.95269
G1 X116.807 Y97.423 E12.98745
G1 X116.418 Y97.999 E13.02213
G1 X116.131 Y98.633 E13.05685
G1 X115.956 Y99.307 E13.09159
G1 X115.898 Y100.000 E13.12628
G1 X115.956 Y100.692 E13.16093
G1 X116.131 Y101.366 E13.19567
G1 X116.418 Y102.000 E13.23039
G1 X116.807 Y102.576 E13.26507
G1 X117.289 Y103.079 E13.29982
G1 X117.848 Y103.493 E13.33453
G1 X118.471 Y103.806 E13.36931
G1 X119.135 Y104.010 E13.40397
G1 X119.826 Y104.098 E13.43872
G1 X120.523 Y104.068 E13.47352
G1 X121.239 Y103.907 E13.51014
G1 X121.846 Y103.663 E13.54278
G1 X122.439 Y103.297 E13.57754
G1 X122.961 Y102.838 E13.61222
G1 X123.268 Y102.457 E13.63663
G1 X122.887 Y104.865 E13.75826
G1 X122.254 Y107.228 E13.88031
G1 X121.377 Y109.514 E14.00246
G1 X120.287 Y111.654 E14.12228
G1 X118.928 Y113.755 E14.24711
G1 X118.201 Y114.653 E14.30476
G1 X118.229 Y114.489 E14.31306
G1 X118.229 Y113.794 E14.34773
G1 X118.112 Y113.108 E14.38245
G1 X117.880 Y112.452 E14.41716
G1 X117.540 Y111.845 E14.45188
G1 X117.103 Y111.303 E14.48661
G1 X116.581 Y110.844 E14.52129
G1 X115.988 Y110.478 E14.55606
G1 X115.343 Y110.219 E14.59073
G1 X114.662 Y110.073 E14.62548
G1 X113.968 Y110.043 E14.66014
G1 X113.277 Y110.131 E14.69489
G1 X112.612 Y110.335 E14.72959
G1 X111.992 Y110.648 E14.76424
G1 X111.431 Y111.062 E14.79903
G1 X110.950 Y111.565 E14.83375
G1 X110.560 Y112.141 E14.86845
G1 X110.274 Y112.775 E14.90315
G1 X110.098 Y113.448 E14.93786
G1 X110.040 Y114.142 E14.97260
G1 X110.098 Y114.835 E15.00730
G1 X110.274 Y115.508 E15.04200
G1 X110.560 Y116.143 E15.07675
G1 X110.951 Y116.718 E15.11144
G1 X111.431 Y117.221 E15.14612
G1 X111.992 Y117.635 E15.18091
G1 X112.612 Y117.948 E15.21556
G1 X113.277 Y118.152 E15.25026
G1 X113.968 Y118.240 E15.28501
G1 X114.639 Y118.211 E15.31852
G1 X113.771 Y118.915 E15.37428
G1 X113.750 Y118.932 E15.37563
G1 X111.701 Y120.263 E15.49753
G1 X109.561 Y121.353 E15.61734
G1 X107.231 Y122.253 E15.74196
G1 X104.900 Y122.877 E15.86235
G1 X103.926 Y123.035 E15.91158
G1 X102.475 Y123.265 E15.98487
G1 X102.961 Y122.838 E16.01715
G1 X103.398 Y122.296 E16.05188
G1 X103.738 Y121.689 E16.08659
G1 X103.970 Y121.033 E16.12131
G1 X104.087 Y120.347 E16.15602
G1 X104.087 Y119.652 E16.19070
G1 X103.970 Y118.966 E16.22542
G1 X103.738 Y118.310 E16.26013
G1 X103.398 Y117.703 E16.29484
G1 X102.961 Y117.161 E16.32958
G1 X102.439 Y116.702 E16.36426
G1 X101.846 Y116.336 E16.39902
G1 X101.200 Y116.077 E16.43374
G1 X100.520 Y115.931 E16.46844
G1 X99.826 Y115.901 E16.50310
G1 X99.135 Y115.989 E16.53785
G1 X98.470 Y116.193 E16.57255
G1 X97.848 Y116.506 E16.60729
G1 X97.289 Y116.920 E16.64200
G1 X96.807 Y117.423 E16.67675
G1 X96.418 Y117.999 E16.71143
G1 X96.131 Y118.633 E16.74615
G1 X95.956 Y119.307 E16.78089
G1 X95.898 Y119.999 E16.81554
G1 X95.947 Y120.587 E16.84497
G1 X95.958 Y120.697 E16.85049
G1 X96.131 Y121.366 E16.88496
G1 X96.418 Y122.000 E16.91968
G1 X96.807 Y122.576 E16.95436
G1 X97.289 Y123.079 E16.98912
G1 X97.545 Y123.269 E17.00502
G1 X95.134 Y122.887 E17.12681
G1 X92.771 Y122.254 E17.24886
G1 X90.528 Y121.394 E17.36870
G1 X88.344 Y120.286 E17.49088
G1 X86.785 Y119.281 E17.58342
G1 X86.247 Y118.931 E17.61544
G1 X85.340 Y118.196 E17.67369
G1 X85.684 Y118.240 E17.69099
G1 X86.381 Y118.210 E17.72579
G1 X87.097 Y118.049 E17.76241
G1 X87.704 Y117.805 E17.79505
G1 X88.297 Y117.440 E17.82979
G1 X88.819 Y116.979 E17.86453
G1 X89.256 Y116.439 E17.89919
G1 X89.596 Y115.831 E17.93394
G1 X89.827 Y115.176 E17.96859
G1 X89.945 Y114.489 E18.00337
G1 X89.945 Y113.794 E18.03804
G1 X89.827 Y113.108 E18.07277
G1 X89.596 Y112.452 E18.10747
G1 X89.256 Y111.845 E18.14218
G1 X88.819 Y111.303 E18.17691
G1 X88.297 Y110.844 E18.21159
G1 X87.704 Y110.478 E18.24636
G1 X87.058 Y110.219 E18.28108
G1 X86.378 Y110.073 E18.31578
G1 X85.684 Y110.043 E18.35043
G1 X84.993 Y110.131 E18.38519
G1 X84.328 Y110.335 E18.41989
G1 X83.706 Y110.648 E18.45463
G1 X83.147 Y111.062 E18.48933
G1 X82.665 Y111.565 E18.52409
G1 X82.276 Y112.141 E18.55877
G1 X81.989 Y112.775 E18.59349
G1 X81.815 Y113.448 E18.62817
G1 X81.755 Y114.142 E18.66292
G1 X81.799 Y114.653 E18.68851
G1 X81.095 Y113.786 E18.74423
G1 X79.734 Y111.696 E18.86866
G1 X78.646 Y109.561 E18.98821
G1 X77.746 Y107.231 E19.11282
G1 X77.122 Y104.900 E19.23321
G1 X76.964 Y103.926 E19.28244
G1 X76.732 Y102.465 E19.35624
G1 X76.807 Y102.576 E19.36292
G1 X77.289 Y103.079 E19.39768
G1 X77.848 Y103.493 E19.43238
G1 X78.470 Y103.806 E19.46712
G1 X79.135 Y104.010 E19.50183
G1 X79.826 Y104.098 E19.53658
G1 X80.520 Y104.068 E19.57124
G1 X81.200 Y103.922 E19.60593
G1 X81.846 Y103.663 E19.64066
G1 X82.439 Y103.297 E19.67542
G1 X82.961 Y102.838 E19.71010
G1 X83.398 Y102.296 E19.74484
G1 X83.738 Y101.689 E19.77955
G1 X83.970 Y101.033 E19.81426
G1 X84.087 Y100.347 E19.84898
G1 X84.087 Y99.652 E19.88365
G1 X83.970 Y98.966 E19.91837
G1 X83.738 Y98.310 E19.95309
G1 X83.398 Y97.703 E19.98780
G1 X82.961 Y97.161 E20.02253
G1 X82.439 Y96.702 E20.05721
G1 X81.846 Y96.336 E20.09198
G1 X81.200 Y96.077 E20.12670
G1 X80.520 Y95.931 E20.16140
G1 X79.826 Y95.901 E20.19606
G1 X79.135 Y95.989 E20.23081
G1 X78.470 Y96.193 E20.26551
G1 X77.848 Y96.506 E20.30025
G1 X77.289 Y96.920 E20.33495
G1 X76.807 Y97.423 E20.36971
G1 X76.732 Y97.534 E20.37639
G1 X77.112 Y95.134 E20.49762
G1 X77.745 Y92.771 E20.61967
G1 X78.605 Y90.528 E20.73952
G1 X79.713 Y88.344 E20.86170
G1 X80.717 Y86.787 E20.95413
G1 X81.068 Y86.247 E20.98626
G1 X81.799 Y85.344 E21.04422
G1 X81.755 Y85.856 E21.06986
G1 X81.805 Y86.444 E21.09930
G1 X81.816 Y86.555 E21.10486
G1 X81.989 Y87.224 E21.13934
G1 X82.276 Y87.858 E21.17406
G1 X82.665 Y88.434 E21.20873
G1 X83.147 Y88.937 E21.24349
G1 X83.706 Y89.351 E21.27820
G1 X84.328 Y89.664 E21.31293
G1 X84.993 Y89.868 E21.34764
G1 X85.684 Y89.956 E21.38239
G1 X86.378 Y89.926 E21.41705
G1 X87.058 Y89.780 E21.45174
G1 X87.704 Y89.521 E21.48647
G1 X88.297 Y89.155 E21.52123
G1 X88.819 Y88.696 E21.55591
G1 X89.256 Y88.154 E21.59065
G1 X89.596 Y87.547 E21.62536
G1 X89.827 Y86.891 E21.66006
G1 X89.945 Y86.205 E21.69478
G1 X89.945 Y85.510 E21.72946
G1 X89.827 Y84.823 E21.76423
G1 X89.596 Y84.168 E21.79888
G1 X89.256 Y83.560 E21.83364
G1 X88.819 Y83.020 E21.86830
G1 X88.297 Y82.559 E21.90304
G1 X87.704 Y82.194 E21.93778
G1 X87.058 Y81.935 E21.97250
G1 X86.378 Y81.789 E22.00720
G1 X85.684 Y81.759 E22.04186
G0 F9000 X87.702 Y82.195
G0 X89.254 Y83.560
G0 X89.944 Y85.510
G0 X96.628 Y96.169
G1 F1800 X96.029 Y96.795 E22.08508
G1 X95.545 Y97.511 E22.12820
G1 X95.189 Y98.299 E22.17134
G1 X94.970 Y99.137 E22.21455
G1 X94.898 Y100.000 E22.25776
G1 X94.970 Y100.862 E22.30091
G1 X95.189 Y101.700 E22.34412
G1 X95.444 Y102.265 E22.37505
G1 X95.569 Y102.522 E22.38931
G1 X96.029 Y103.204 E22.43035
G1 X96.628 Y103.830 E22.47357
G1 X97.325 Y104.344 E22.51678
G1 X98.097 Y104.734 E22.55993
G1 X98.924 Y104.988 E22.60309
G1 X99.784 Y105.097 E22.64634
G1 X100.647 Y105.060 E22.68944
G1 X101.493 Y104.878 E22.73261
G1 X102.296 Y104.556 E22.77577
G1 X103.033 Y104.101 E22.81898
G1 X103.683 Y103.530 E22.86215
G1 X104.227 Y102.856 E22.90536
G1 X104.514 Y102.343 E22.93469
G1 X104.662 Y102.062 E22.95053
G1 X104.937 Y101.285 E22.99165
G1 X105.081 Y100.445 E23.03417
G1 X105.101 Y99.979 E23.05744
G1 X105.075 Y99.516 E23.08058
G1 X104.937 Y98.714 E23.12118
G1 X104.649 Y97.898 E23.16435
G1 X104.227 Y97.143 E23.20750
G1 X103.683 Y96.469 E23.25071
G1 X103.033 Y95.898 E23.29388
G1 X102.399 Y95.507 E23.33104
G1 X102.298 Y95.444 E23.33698
G1 X101.493 Y95.121 E23.38025
G1 X100.647 Y94.939 E23.42342
G1 X99.784 Y94.902 E23.46652
G1 X98.924 Y95.011 E23.50977
G1 X98.097 Y95.265 E23.55293
G1 X97.325 Y95.655 E23.59608
G1 X96.628 Y96.169 E23.63929
G0 F9000 X96.893 Y96.470
;TYPE:WALL-OUTER
G1 F1800 X96.342 Y97.047 E23.67909
G1 X95.896 Y97.707 E23.71883
G1 X95.568 Y98.433 E23.75858
G1 X95.366 Y99.205 E23.79839
G1 X95.299 Y100.000 E23.83819
G1 X95.366 Y100.794 E23.87795
G1 X95.568 Y101.566 E23.91776
G1 X95.807 Y102.096 E23.94676
G1 X95.916 Y102.322 E23.95928
G1 X96.342 Y102.952 E23.99722
G1 X96.893 Y103.529 E24.03703
G1 X97.535 Y104.002 E24.07681
G1 X98.247 Y104.361 E24.11659
G1 X99.009 Y104.595 E24.15636
G1 X99.801 Y104.696 E24.19619
G1 X100.596 Y104.662 E24.23589
G1 X101.376 Y104.494 E24.27570
G1 X102.115 Y104.197 E24.31544
G1 X102.794 Y103.778 E24.35524
G1 X103.393 Y103.252 E24.39501
G1 X103.894 Y102.631 E24.43482
G1 X104.163 Y102.152 E24.46223
G1 X104.295 Y101.901 E24.47638
G1 X104.548 Y101.184 E24.51431
G1 X104.682 Y100.402 E24.55389
G1 X104.700 Y99.982 E24.57486
G1 X104.677 Y99.561 E24.59590
G1 X104.548 Y98.815 E24.63367
G1 X104.283 Y98.063 E24.67345
G1 X103.894 Y97.368 E24.71318
G1 X103.393 Y96.747 E24.75299
G1 X102.794 Y96.221 E24.79276
G1 X102.189 Y95.848 E24.82822
G1 X102.116 Y95.802 E24.83253
G1 X101.376 Y95.505 E24.87231
G1 X100.596 Y95.337 E24.91211
G1 X99.801 Y95.303 E24.95181
G1 X99.009 Y95.404 E24.99165
G1 X98.247 Y95.638 E25.03142
G1 X97.535 Y95.997 E25.07120
G1 X96.893 Y96.470 E25.11098
G0 F9000 X96.678 Y96.263
G0 X88.761 Y88.606
G0 X88.529 Y88.418
G1 F1800 X88.923 Y87.929 E25.14231
G1 X89.230 Y87.382 E25.17361
G1 X89.438 Y86.790 E25.20491
G1 X89.545 Y86.171 E25.23625
G1 X89.545 Y85.544 E25.26753
G1 X89.438 Y84.924 E25.29892
G1 X89.230 Y84.333 E25.33018
G1 X88.923 Y83.785 E25.36152
G1 X88.529 Y83.297 E25.39281
G1 X88.058 Y82.882 E25.42413
G1 X87.523 Y82.553 E25.45546
G1 X86.941 Y82.319 E25.48676
G1 X86.327 Y82.187 E25.51809
G1 X85.701 Y82.160 E25.54935
G1 X85.078 Y82.240 E25.58068
G1 X84.477 Y82.424 E25.61204
G1 X83.917 Y82.706 E25.64332
G1 X83.412 Y83.079 E25.67465
G1 X82.978 Y83.533 E25.70598
G1 X82.627 Y84.052 E25.73724
G1 X82.368 Y84.624 E25.76856
G1 X82.210 Y85.232 E25.79991
G1 X82.156 Y85.857 E25.83120
G1 X82.203 Y86.407 E25.85874
G1 X82.211 Y86.484 E25.86260
G1 X82.368 Y87.090 E25.89384
G1 X82.627 Y87.662 E25.92516
G1 X82.978 Y88.182 E25.95646
