;Generated with Cura_SteamEngine 15.01
; Default start code
G28 ; Home extruder
G1 Z15 F2000
M107 ; Turn off fan
G90 ; Absolute positioning
M82 ; Extruder in absolute mode
M104 T0 S180
M190 S50
; Activate all used extruder
G92 E0 ; Reset extruder position
; Wait for all used extruders to reach temperature
M109 T0 S210 R210
;Layer count: 30
;LAYER:0
M107
G0 F9000 X129.546 Y38.251 Z0.300
;TYPE:SKIRT
G1 F1800 X129.820 Y37.493 E0.04021
G1 X130.561 Y35.529 E0.14494
G1 X131.789 Y33.072 E0.28198
G1 X132.199 Y32.415 E0.32061
G1 X133.316 Y30.660 E0.42440
G1 X134.172 Y29.577 E0.49327
G1 X135.044 Y28.476 E0.56334
G1 X135.666 Y27.837 E0.60783
G1 X135.905 Y27.001 E0.65121
G1 X136.413 Y27.070 E0.67679
G1 X136.981 Y26.487 E0.71739
G1 X138.521 Y25.197 E0.81762
G1 X139.158 Y24.664 E0.85906
G1 X141.404 Y23.153 E0.99411
G1 X143.933 Y21.796 E1.13730
G1 X146.466 Y20.763 E1.27377
G1 X149.234 Y19.946 E1.41776
G1 X151.956 Y19.451 E1.55579
G1 X154.554 Y19.247 E1.68580
G1 X154.823 Y19.228 E1.69925
G1 X155.570 Y19.247 E1.73653
G1 X157.588 Y19.299 E1.83725
G1 X160.362 Y19.658 E1.97680
G1 X161.342 Y19.889 E2.02703
G1 X163.092 Y20.303 E2.11675
G1 X164.341 Y20.737 E2.18271
G1 X165.737 Y21.223 E2.25646
G1 X166.583 Y21.618 E2.30304
G1 X168.251 Y22.398 E2.39491
G1 X169.399 Y23.085 E2.46165
G1 X170.674 Y23.851 E2.53586
G1 X172.253 Y25.035 E2.63432
G1 X172.917 Y25.533 E2.67573
G1 X174.911 Y27.380 E2.81133
G1 X176.797 Y29.514 E2.95342
G1 X178.442 Y31.821 E3.09478
G1 X179.696 Y34.037 E3.22181
G1 X179.820 Y34.255 E3.23432
G1 X180.904 Y36.734 E3.36931
G1 X181.182 Y37.571 E3.41331
G1 X181.796 Y39.494 E3.51402
G1 X182.365 Y42.217 E3.65280
G1 X182.643 Y44.891 E3.78693
G1 X182.689 Y46.415 E3.86300
G1 X182.653 Y47.863 E3.93526
G1 X182.379 Y50.518 E4.06842
G1 X182.040 Y52.185 E4.15329
G1 X181.795 Y53.351 E4.21273
G1 X181.213 Y55.177 E4.30835
G1 X180.944 Y56.021 E4.35254
G1 X180.329 Y57.423 E4.42892
G1 X180.330 Y57.423 E4.42897
G1 X179.824 Y58.583 E4.49211
G1 X178.486 Y60.946 E4.62759
G1 X176.875 Y63.228 E4.76695
G1 X175.015 Y65.359 E4.90807
G1 X172.924 Y67.305 E5.05058
G1 X172.321 Y67.759 E5.08823
G1 X170.674 Y68.994 E5.19094
G1 X168.486 Y70.308 E5.31827
G1 X168.279 Y70.433 E5.33033
G1 X166.640 Y71.200 E5.42061
G1 X165.737 Y71.622 E5.47034
G1 X163.092 Y72.542 E5.61006
G1 X160.365 Y73.186 E5.74985
G1 X157.674 Y73.534 E5.88522
G1 X155.578 Y73.598 E5.98984
G1 X154.789 Y73.618 E6.02922
G1 X152.084 Y73.409 E6.16457
G1 X149.292 Y72.910 E6.30607
G1 X146.826 Y72.197 E6.43414
G1 X146.540 Y72.112 E6.44902
G1 X144.039 Y71.095 E6.58372
G1 X141.548 Y69.780 E6.72425
G1 X139.246 Y68.240 E6.86243
G1 X138.539 Y67.662 E6.90799
G1 X137.010 Y66.388 E7.00728
G1 X136.412 Y65.775 E7.05001
G1 X135.905 Y65.844 E7.07553
G1 X135.667 Y65.011 E7.11875
G1 X135.176 Y64.507 E7.15386
G1 X135.023 Y64.342 E7.16508
G1 X133.316 Y62.185 E7.30232
G1 X131.813 Y59.822 E7.44204
G1 X130.727 Y57.648 E7.56328
G1 X130.562 Y57.320 E7.58160
G1 X129.859 Y55.453 E7.68112
G1 X129.858 Y55.453 E7.68117
G1 X129.573 Y54.697 E7.72148
G1 X128.979 Y52.441 E7.83787
G1 X128.854 Y51.949 E7.86320
G1 X128.439 Y49.283 E7.99781
G1 X128.366 Y47.939 E8.06496
G1 X128.237 Y47.865 E8.07238
G1 X128.340 Y47.454 E8.09352
G1 X128.298 Y46.680 E8.13219
G1 X128.283 Y46.437 E8.14433
G1 X128.423 Y43.714 E8.28036
G1 X128.854 Y40.888 E8.42298
G1 X129.546 Y38.251 E8.55900
G1 F2400 E4.55900
G0 F9000 X133.177 Y39.384
;TYPE:WALL-INNER
G1 F2400 E8.55900
G1 F1800 X133.383 Y38.814 E8.58924
G1 X134.046 Y37.057 E8.68293
G1 X135.107 Y34.933 E8.80138
G1 X135.415 Y34.440 E8.83038
G1 X136.415 Y32.867 E8.92337
G1 X137.289 Y31.763 E8.99362
G1 X137.244 Y32.280 E9.01951
G1 X137.304 Y32.974 E9.05427
G1 X137.478 Y33.647 E9.08895
G1 X137.765 Y34.281 E9.12367
G1 X138.154 Y34.857 E9.15834
G1 X138.636 Y35.360 E9.19310
G1 X139.195 Y35.774 E9.22780
G1 X139.817 Y36.087 E9.26254
G1 X140.441 Y36.278 E9.29510
G1 X141.169 Y36.379 E9.33177
G1 X141.867 Y36.349 E9.36662
G1 X142.547 Y36.203 E9.40132
G1 X143.193 Y35.944 E9.43605
G1 X143.786 Y35.578 E9.47081
G1 X144.308 Y35.119 E9.50549
G1 X144.745 Y34.577 E9.54023
G1 X145.085 Y33.970 E9.57494
G1 X145.316 Y33.314 E9.60963
G1 X145.434 Y32.628 E9.64436
G1 X145.434 Y31.933 E9.67903
G1 X145.316 Y31.246 E9.71381
G1 X145.085 Y30.591 E9.74846
G1 X144.745 Y29.984 E9.78317
G1 X144.308 Y29.443 E9.81787
G1 X143.786 Y28.982 E9.85261
G1 X143.193 Y28.617 E9.88735
G1 X142.547 Y28.358 E9.92208
G1 X141.867 Y28.212 E9.95677
G1 X141.172 Y28.182 E9.99148
G1 X140.821 Y28.228 E10.00914
G1 X141.442 Y27.708 E10.04955
G1 X143.366 Y26.413 E10.16526
G1 X145.552 Y25.241 E10.28900
G1 X147.734 Y24.351 E10.40657
G1 X150.113 Y23.649 E10.53032
G1 X152.446 Y23.224 E10.64863
G1 X152.998 Y23.180 E10.67626
G1 X152.778 Y23.343 E10.68992
G1 X152.296 Y23.846 E10.72467
G1 X151.907 Y24.422 E10.75935
G1 X151.620 Y25.056 E10.79407
G1 X151.446 Y25.729 E10.82875
G1 X151.386 Y26.423 E10.86350
G1 X151.446 Y27.116 E10.89820
G1 X151.620 Y27.790 E10.93293
G1 X151.907 Y28.423 E10.96761
G1 X152.296 Y28.999 E11.00228
G1 X152.778 Y29.502 E11.03704
G1 X153.337 Y29.916 E11.07175
G1 X153.959 Y30.229 E11.10648
G1 X154.624 Y30.433 E11.14119
G1 X155.318 Y30.521 E11.17609
G1 X156.050 Y30.483 E11.21266
G1 X156.689 Y30.345 E11.24527
G1 X157.335 Y30.086 E11.27999
G1 X157.928 Y29.721 E11.31473
G1 X158.450 Y29.260 E11.34948
G1 X158.887 Y28.719 E11.38418
G1 X159.227 Y28.112 E11.41889
G1 X159.459 Y27.456 E11.45360
G1 X159.576 Y26.770 E11.48832
G1 X159.576 Y26.075 E11.52299
G1 X159.459 Y25.389 E11.55771
G1 X159.227 Y24.733 E11.59243
G1 X158.887 Y24.126 E11.62714
G1 X158.450 Y23.584 E11.66187
G1 X157.994 Y23.183 E11.69217
G1 X159.679 Y23.401 E11.77693
G1 X162.026 Y23.956 E11.89725
G1 X164.302 Y24.747 E12.01747
G1 X166.469 Y25.760 E12.13681
G1 X167.446 Y26.345 E12.19362
G1 X168.549 Y27.007 E12.25780
G1 X170.157 Y28.213 E12.35808
G1 X169.457 Y28.182 E12.39304
G1 X168.766 Y28.270 E12.42779
G1 X168.101 Y28.474 E12.46249
G1 X167.481 Y28.787 E12.49714
G1 X166.920 Y29.201 E12.53193
G1 X166.438 Y29.704 E12.56668
G1 X166.049 Y30.279 E12.60132
G1 X165.763 Y30.914 E12.63606
G1 X165.587 Y31.587 E12.67077
G1 X165.529 Y32.280 E12.70546
G1 X165.587 Y32.974 E12.74021
G1 X165.763 Y33.647 E12.77491
G1 X166.049 Y34.280 E12.80957
G1 X166.438 Y34.857 E12.84428
G1 X166.920 Y35.360 E12.87904
G1 X167.481 Y35.774 E12.91383
G1 X168.101 Y36.087 E12.94848
G1 X168.766 Y36.291 E12.98318
G1 X169.457 Y36.379 E13.01793
G1 X170.154 Y36.349 E13.05274
G1 X170.870 Y36.188 E13.08935
G1 X171.477 Y35.944 E13.12199
G1 X172.070 Y35.578 E13.15676
G1 X172.592 Y35.119 E13.19143
G1 X173.029 Y34.577 E13.22617
G1 X173.369 Y33.970 E13.26088
G1 X173.601 Y33.314 E13.29559
G1 X173.718 Y32.628 E13.33031
G1 X173.718 Y31.933 E13.36499
G1 X173.683 Y31.729 E13.37531
G1 X173.818 Y31.881 E13.38545
G1 X175.233 Y33.866 E13.50707
G1 X176.393 Y35.916 E13.62459
G1 X177.354 Y38.101 E13.74367
G1 X177.568 Y38.744 E13.77748
G1 X178.117 Y40.468 E13.86775
G1 X178.605 Y42.799 E13.98657
G1 X178.721 Y43.921 E14.04284
G1 X178.450 Y43.584 E14.06442
G1 X177.928 Y43.125 E14.09909
G1 X177.335 Y42.759 E14.13386
G1 X176.689 Y42.500 E14.16858
G1 X176.009 Y42.354 E14.20328
G1 X175.315 Y42.324 E14.23794
G1 X174.624 Y42.412 E14.27269
G1 X173.959 Y42.616 E14.30739
G1 X173.337 Y42.929 E14.34213
G1 X172.778 Y43.343 E14.37684
G1 X172.296 Y43.846 E14.41159
G1 X171.907 Y44.422 E14.44627
G1 X171.620 Y45.056 E14.48099
G1 X171.446 Y45.729 E14.51567
G1 X171.386 Y46.423 E14.55042
G1 X171.446 Y47.116 E14.58513
G1 X171.620 Y47.790 E14.61985
G1 X171.907 Y48.423 E14.65453
G1 X172.296 Y48.999 E14.68921
G1 X172.778 Y49.502 E14.72396
G1 X173.337 Y49.916 E14.75867
G1 X173.959 Y50.229 E14.79341
G1 X174.624 Y50.433 E14.82811
G1 X175.315 Y50.521 E14.86286
G1 X176.009 Y50.491 E14.89752
G1 X176.689 Y50.345 E14.93222
G1 X177.335 Y50.086 E14.96694
G1 X177.928 Y49.721 E15.00168
G1 X178.450 Y49.260 E15.03642
G1 X178.723 Y48.922 E15.05810
G1 X178.618 Y49.944 E15.10936
G1 X178.319 Y51.415 E15.18424
G1 X178.117 Y52.377 E15.23329
G1 X177.384 Y54.675 E15.35362
G1 X176.416 Y56.890 E15.47422
G1 X175.277 Y58.903 E15.58961
G1 X173.886 Y60.873 E15.70993
G1 X173.686 Y61.103 E15.72514
G1 X173.718 Y60.913 E15.73475
G1 X173.718 Y60.217 E15.76947
G1 X173.601 Y59.531 E15.80419
G1 X173.369 Y58.875 E15.83890
G1 X173.029 Y58.268 E15.87362
G1 X172.592 Y57.726 E15.90835
G1 X172.070 Y57.267 E15.94303
G1 X171.477 Y56.901 E15.97780
G1 X170.831 Y56.642 E16.01252
G1 X170.151 Y56.496 E16.04722
G1 X169.457 Y56.466 E16.08187
G1 X168.766 Y56.554 E16.11663
G1 X168.101 Y56.758 E16.15133
G1 X167.481 Y57.071 E16.18598
G1 X166.920 Y57.485 E16.22076
G1 X166.438 Y57.988 E16.25552
G1 X166.049 Y58.565 E16.29024
G1 X165.763 Y59.198 E16.32489
G1 X165.587 Y59.871 E16.35960
G1 X165.529 Y60.565 E16.39434
G1 X165.587 Y61.258 E16.42904
G1 X165.763 Y61.931 E16.46374
G1 X166.049 Y62.566 E16.49849
G1 X166.438 Y63.141 E16.53312
G1 X166.920 Y63.644 E16.56788
G1 X167.481 Y64.058 E16.60266
G1 X168.101 Y64.371 E16.63731
G1 X168.766 Y64.575 E16.67202
G1 X169.457 Y64.664 E16.70677
G1 X170.152 Y64.633 E16.74148
G1 X168.544 Y65.841 E16.84182
G1 X166.529 Y67.050 E16.95906
G1 X164.302 Y68.098 E17.08185
G1 X162.026 Y68.889 E17.20206
G1 X159.682 Y69.443 E17.32223
G1 X157.996 Y69.661 E17.40704
G1 X158.450 Y69.260 E17.43726
G1 X158.887 Y68.719 E17.47196
G1 X159.227 Y68.112 E17.50667
G1 X159.459 Y67.456 E17.54138
G1 X159.576 Y66.770 E17.57610
G1 X159.576 Y66.075 E17.61078
G1 X159.459 Y65.389 E17.64549
G1 X159.227 Y64.733 E17.68021
G1 X158.887 Y64.126 E17.71492
G1 X158.450 Y63.584 E17.74965
G1 X157.928 Y63.125 E17.78433
G1 X157.335 Y62.759 E17.81910
G1 X156.689 Y62.500 E17.85382
G1 X156.009 Y62.354 E17.88852
G1 X155.315 Y62.324 E17.92318
G1 X154.624 Y62.412 E17.95793
G1 X153.959 Y62.616 E17.99263
G1 X153.337 Y62.929 E18.02737
G1 X152.778 Y63.343 E18.06208
G1 X152.296 Y63.846 E18.09683
G1 X151.907 Y64.422 E18.13151
G1 X151.620 Y65.056 E18.16623
G1 X151.446 Y65.729 E18.20091
G1 X151.386 Y66.423 E18.23566
G1 X151.446 Y67.116 E18.27037
G1 X151.620 Y67.790 E18.30509
G1 X151.907 Y68.423 E18.33977
G1 X152.296 Y68.999 E18.37444
G1 X152.778 Y69.502 E18.40920
G1 X153.004 Y69.669 E18.42322
G1 X152.573 Y69.636 E18.44479
G1 X150.147 Y69.202 E18.56774
G1 X147.899 Y68.553 E18.68448
G1 X145.647 Y67.647 E18.80558
G1 X143.498 Y66.512 E18.92683
G1 X141.505 Y65.178 E19.04648
G1 X140.954 Y64.729 E19.08194
G1 X140.817 Y64.615 E19.09083
G1 X141.169 Y64.664 E19.10856
G1 X141.868 Y64.633 E19.14347
G1 X142.547 Y64.487 E19.17812
G1 X143.193 Y64.228 E19.21284
G1 X143.786 Y63.863 E19.24758
G1 X144.308 Y63.402 E19.28233
G1 X144.745 Y62.862 E19.31698
G1 X145.085 Y62.254 E19.35174
G1 X145.316 Y61.599 E19.38639
G1 X145.434 Y60.913 E19.42111
G1 X145.434 Y60.217 E19.45584
G1 X145.316 Y59.531 E19.49057
G1 X145.085 Y58.875 E19.52526
G1 X144.745 Y58.268 E19.55997
G1 X144.308 Y57.726 E19.59471
G1 X143.786 Y57.267 E19.62939
G1 X143.193 Y56.901 E19.66415
G1 X142.547 Y56.642 E19.69888
G1 X141.867 Y56.496 E19.73358
G1 X141.172 Y56.466 E19.76828
G1 X140.468 Y56.558 E19.80370
G1 X139.816 Y56.758 E19.83773
G1 X139.195 Y57.071 E19.87242
G1 X138.636 Y57.485 E19.90713
G1 X138.154 Y57.988 E19.94188
G1 X137.765 Y58.564 E19.97656
G1 X137.478 Y59.198 E20.01128
G1 X137.304 Y59.871 E20.04596
G1 X137.244 Y60.565 E20.08071
G1 X137.289 Y61.081 E20.10655
G1 X136.415 Y59.978 E20.17676
G1 X135.127 Y57.951 E20.29658
G1 X134.126 Y55.949 E20.40825
G1 X134.047 Y55.792 E20.41702
G1 X133.197 Y53.539 E20.53715
G1 X132.659 Y51.494 E20.64265
G1 X132.581 Y51.187 E20.65845
G1 X132.225 Y48.893 E20.77427
G1 X132.296 Y48.999 E20.78064
G1 X132.778 Y49.502 E20.81539
G1 X133.337 Y49.916 E20.85010
G1 X133.959 Y50.229 E20.88484
G1 X134.624 Y50.433 E20.91954
G1 X135.315 Y50.521 E20.95429
G1 X136.009 Y50.491 E20.98895
G1 X136.689 Y50.345 E21.02365
G1 X137.335 Y50.086 E21.05837
G1 X137.928 Y49.721 E21.09311
G1 X138.450 Y49.260 E21.12785
G1 X138.887 Y48.719 E21.16255
G1 X139.227 Y48.112 E21.19726
G1 X139.459 Y47.456 E21.23198
G1 X139.576 Y46.770 E21.26669
G1 X139.576 Y46.075 E21.30137
G1 X139.459 Y45.389 E21.33609
G1 X139.227 Y44.733 E21.37080
G1 X138.887 Y44.126 E21.40551
G1 X138.450 Y43.584 E21.44025
G1 X137.928 Y43.125 E21.47493
G1 X137.335 Y42.759 E21.50969
G1 X136.689 Y42.500 E21.54441
G1 X136.009 Y42.354 E21.57911
G1 X135.315 Y42.324 E21.61377
G1 X134.624 Y42.412 E21.64852
G1 X133.959 Y42.616 E21.68322
G1 X133.337 Y42.929 E21.71796
G1 X132.778 Y43.343 E21.75267
G1 X132.296 Y43.846 E21.78742
G1 X132.233 Y43.940 E21.79307
G1 X132.580 Y41.657 E21.90828
G1 X133.177 Y39.384 E22.02552
G0 F9000 X138.885 Y44.126
G0 X142.546 Y48.914
G1 F1800 X142.200 Y49.285 E22.05083
G1 X141.939 Y49.683 E22.07458
G1 X141.752 Y50.114 E22.09802
G1 X141.641 Y50.541 E22.12003
G1 X141.600 Y51.015 E22.14377
G1 X141.641 Y51.493 E22.16770
G1 X141.775 Y51.982 E22.19300
G1 X141.973 Y52.409 E22.21648
G1 X142.222 Y52.776 E22.23860
G1 X142.550 Y53.118 E22.26225
G1 X142.932 Y53.401 E22.28596
G1 X143.358 Y53.615 E22.30975
G1 X143.811 Y53.754 E22.33339
G1 X144.287 Y53.815 E22.35733
G1 X144.791 Y53.787 E22.38251
G1 X145.223 Y53.694 E22.40456
G1 X145.663 Y53.517 E22.42822
G1 X146.068 Y53.268 E22.45194
G1 X146.428 Y52.951 E22.47587
G1 X146.739 Y52.555 E22.50099
G1 X146.958 Y52.166 E22.52326
G1 X147.119 Y51.688 E22.54843
G1 X147.194 Y51.253 E22.57045
G1 X147.195 Y50.791 E22.59350
G1 X147.103 Y50.274 E22.61970
G1 X146.939 Y49.831 E22.64326
G1 X146.724 Y49.446 E22.66526
G1 X146.425 Y49.075 E22.68904
G1 X146.068 Y48.762 E22.71272
G1 X145.660 Y48.510 E22.73665
G1 X145.189 Y48.328 E22.76184
G1 X144.757 Y48.236 E22.78388
G1 X144.284 Y48.215 E22.80750
G1 X143.812 Y48.275 E22.83124
G1 X143.355 Y48.415 E22.85508
G1 X142.905 Y48.647 E22.88034
G1 X142.546 Y48.914 E22.90266
G0 F9000 X149.427 Y37.722
G1 F1800 X149.851 Y37.935 E22.92633
G1 X150.306 Y38.076 E22.95010
G1 X150.781 Y38.136 E22.97398
G1 X151.285 Y38.109 E22.99916
G1 X151.717 Y38.016 E23.02121
G1 X152.158 Y37.838 E23.04494
G1 X152.562 Y37.589 E23.06861
G1 X152.923 Y37.272 E23.09258
G1 X153.234 Y36.876 E23.11770
G1 X153.452 Y36.487 E23.13995
G1 X153.613 Y36.009 E23.16511
G1 X153.688 Y35.575 E23.18709
G1 X153.689 Y35.145 E23.20854
G1 X153.684 Y35.075 E23.21204
G1 X153.597 Y34.595 E23.23638
G1 X153.434 Y34.152 E23.25993
G1 X153.218 Y33.767 E23.28195
G1 X152.920 Y33.397 E23.30566
G1 X152.562 Y33.083 E23.32941
G1 X152.155 Y32.832 E23.35327
G1 X151.684 Y32.649 E23.37848
G1 X151.252 Y32.557 E23.40051
G1 X150.778 Y32.536 E23.42419
G1 X150.306 Y32.596 E23.44792
G1 X149.848 Y32.737 E23.47183
G1 X149.400 Y32.970 E23.49702
G1 X149.042 Y33.236 E23.51928
G1 X148.696 Y33.606 E23.54455
G1 X148.435 Y34.003 E23.56825
G1 X148.246 Y34.434 E23.59173
G1 X148.135 Y34.862 E23.61379
G1 X148.093 Y35.339 E23.63768
G1 X148.143 Y35.845 E23.66305
G1 X148.269 Y36.304 E23.68679
G1 X148.469 Y36.730 E23.71027
G1 X148.717 Y37.097 E23.73237
G1 X149.045 Y37.439 E23.75601
G1 X149.427 Y37.722 E23.77973
G0 F9000 X163.814 Y41.357
G1 F1800 X163.772 Y41.833 E23.80357
G1 X163.822 Y42.339 E23.82894
G1 X163.948 Y42.798 E23.85269
G1 X164.146 Y43.224 E23.87612
G1 X164.395 Y43.591 E23.89825
G1 X164.724 Y43.934 E23.92196
G1 X165.106 Y44.217 E23.94568
G1 X165.531 Y44.431 E23.96942
G1 X165.986 Y44.570 E23.99315
G1 X166.460 Y44.630 E24.01699
G1 X166.963 Y44.604 E24.04212
G1 X167.396 Y44.510 E24.06422
G1 X167.836 Y44.333 E24.08789
G1 X168.241 Y44.083 E24.11163
G1 X168.601 Y43.767 E24.13553
G1 X168.912 Y43.370 E24.16069
G1 X169.130 Y42.982 E24.18289
G1 X169.292 Y42.504 E24.20807
G1 X169.367 Y42.069 E24.23009
G1 X169.368 Y41.607 E24.25314
G1 X169.276 Y41.091 E24.27929
G1 X169.113 Y40.646 E24.30294
G1 X168.896 Y40.260 E24.32503
G1 X168.597 Y39.891 E24.34872
G1 X168.241 Y39.578 E24.37237
G1 X167.833 Y39.326 E24.39630
G1 X167.363 Y39.145 E24.42142
G1 X166.931 Y39.051 E24.44348
G1 X166.456 Y39.030 E24.46720
G1 X165.985 Y39.091 E24.49090
G1 X165.531 Y39.230 E24.51459
G1 X165.106 Y39.444 E24.53832
G1 X164.722 Y39.729 E24.56218
G1 X164.374 Y40.099 E24.58752
G1 X164.112 Y40.498 E24.61134
G1 X163.925 Y40.929 E24.63478
G1 X163.814 Y41.357 E24.65684
G0 F9000 X160.902 Y54.830
G1 F1800 X160.437 Y54.730 E24.68057
G1 X159.962 Y54.709 E24.70429
G1 X159.490 Y54.769 E24.72802
