;Generated with Cura_SteamEngine 15.01
; Default start code
G28 ; Home extruder
G1 Z15 F2000
M107 ; Turn off fan
G90 ; Absolute positioning
M82 ; Extruder in absolute mode
M104 T0 S180
M190 S50
; Activate all used extruder
G92 E0 ; Reset extruder position
; Wait for all used extruders to reach temperature
M109 T0 S210 R210
;Layer count: 40
;LAYER:0
M107
G0 F9000 X81.520 Y80.035 Z0.300
;TYPE:SKIRT
G1 F1800 X83.671 Y78.240 E0.13977
G1 X85.940 Y76.714 E0.27619
G1 X88.406 Y75.394 E0.41574
G1 X90.995 Y74.333 E0.55533
G1 X93.683 Y73.542 E0.69512
G1 X96.254 Y73.067 E0.82556
G1 X96.484 Y73.022 E0.83725
G1 X99.299 Y72.804 E0.97811
G1 X101.919 Y72.871 E1.10887
G1 X102.176 Y72.885 E1.12171
G1 X103.435 Y73.050 E1.18506
G1 X103.435 Y73.049 E1.18511
G1 X104.876 Y73.236 E1.25760
G1 X107.449 Y73.843 E1.38949
G1 X107.714 Y73.918 E1.40323
G1 X109.600 Y74.573 E1.50284
G1 X110.250 Y74.801 E1.53720
G1 X112.595 Y75.897 E1.66634
G1 X112.801 Y75.996 E1.67775
G1 X115.129 Y77.394 E1.81322
G1 X117.365 Y79.062 E1.95240
G1 X118.162 Y79.791 E2.00629
G1 X119.482 Y81.013 E2.09603
G1 X121.322 Y83.106 E2.23506
G1 X122.915 Y85.344 E2.37211
G1 X124.298 Y87.775 E2.51165
G1 X125.352 Y90.167 E2.64206
G1 X125.455 Y90.402 E2.65486
G1 X126.286 Y93.008 E2.79132
G1 X126.831 Y95.578 E2.92239
G1 X126.879 Y95.807 E2.93407
G1 X127.164 Y98.558 E3.07205
G1 X127.201 Y100.000 E3.14401
G1 X127.164 Y101.441 E3.21593
G1 X126.880 Y104.186 E3.35361
G1 X126.320 Y106.863 E3.49006
G1 X125.525 Y109.380 E3.62174
G1 X125.454 Y109.600 E3.63328
G1 X124.333 Y112.163 E3.77284
G1 X123.061 Y114.411 E3.90170
G1 X122.948 Y114.608 E3.91303
G1 X121.371 Y116.826 E4.04881
G1 X120.258 Y118.103 E4.13332
G1 X119.482 Y118.986 E4.19197
G1 X117.427 Y120.890 E4.33173
G1 X115.239 Y122.530 E4.46815
G1 X112.845 Y123.977 E4.60771
G1 X110.327 Y125.162 E4.74655
G1 X109.617 Y125.419 E4.78422
G1 X107.602 Y126.120 E4.89066
G1 X104.945 Y126.747 E5.02686
G1 X103.444 Y126.948 E5.10242
G1 X102.099 Y127.123 E5.17008
G1 X99.526 Y127.189 E5.29849
G1 X99.309 Y127.196 E5.30933
G1 X96.746 Y126.997 E5.43758
G1 X96.517 Y126.980 E5.44904
G1 X93.953 Y126.514 E5.57905
G1 X93.730 Y126.470 E5.59039
G1 X91.125 Y125.713 E5.72573
G1 X88.533 Y124.666 E5.86520
G1 X86.057 Y123.357 E6.00492
G1 X83.729 Y121.799 E6.14468
G1 X81.946 Y120.319 E6.26029
G1 X81.484 Y119.927 E6.29051
G1 X80.333 Y118.745 E6.37282
G1 X79.830 Y118.230 E6.40874
G1 X79.565 Y117.958 E6.42768
G1 X77.869 Y115.815 E6.56403
G1 X76.362 Y113.459 E6.70356
G1 X75.106 Y110.962 E6.84301
G1 X74.615 Y109.683 E6.91136
G1 X74.083 Y108.272 E6.98659
G1 X73.388 Y105.630 E7.12289
G1 X73.052 Y103.521 E7.22943
G1 X72.940 Y102.793 E7.26618
G1 X72.808 Y100.225 E7.39447
G1 X72.795 Y100.021 E7.40466
G1 X72.935 Y97.282 E7.54149
G1 X73.049 Y96.497 E7.58107
G1 X73.371 Y94.434 E7.68524
G1 X74.065 Y91.794 E7.82142
G1 X74.609 Y90.330 E7.89934
G1 X75.072 Y89.105 E7.96467
G1 X76.294 Y86.660 E8.10104
G1 X77.787 Y84.299 E8.24041
G1 X78.715 Y83.115 E8.31546
G1 X79.566 Y82.040 E8.38386
G1 X80.335 Y81.252 E8.43879
G1 X81.520 Y80.035 E8.52354
G1 F2400 E4.52354
G0 F9000 X84.103 Y82.829
;TYPE:WALL-INNER
G1 F2400 E8.52354
G1 F1800 X85.953 Y81.285 E8.64376
G1 X87.904 Y79.973 E8.76106
G1 X90.026 Y78.837 E8.88114
G1 X92.253 Y77.924 E9.00122
G1 X94.569 Y77.243 E9.12166
G1 X96.969 Y76.799 E9.24342
G1 X99.393 Y76.608 E9.36473
G1 X101.775 Y76.669 E9.48361
G1 X101.825 Y76.672 E9.48611
G1 X104.193 Y76.979 E9.60524
G1 X106.508 Y77.525 E9.72390
G1 X106.561 Y77.540 E9.72665
G1 X108.813 Y78.324 E9.84562
G1 X110.969 Y79.332 E9.96436
G1 X113.005 Y80.551 E10.08275
G1 X114.941 Y81.995 E10.20324
G1 X115.588 Y82.586 E10.24696
G1 X116.756 Y83.667 E10.32636
G1 X118.338 Y85.467 E10.44592
G1 X119.710 Y87.395 E10.56397
G1 X120.898 Y89.483 E10.68382
G1 X121.872 Y91.693 E10.80432
G1 X122.609 Y93.985 E10.92443
G1 X123.120 Y96.397 E11.04744
G1 X123.369 Y98.803 E11.16811
G1 X123.400 Y100.000 E11.22785
G1 X123.369 Y101.196 E11.28754
G1 X123.120 Y103.605 E11.40837
G1 X122.641 Y105.897 E11.52518
G1 X121.905 Y108.223 E11.64690
G1 X120.928 Y110.466 E11.76896
G1 X119.761 Y112.527 E11.88712
G1 X119.746 Y112.553 E11.88862
G1 X118.379 Y114.476 E12.00633
G1 X117.399 Y115.600 E12.08073
G1 X116.756 Y116.331 E12.12930
G1 X114.989 Y117.968 E12.24947
G1 X113.113 Y119.374 E12.36643
G1 X111.049 Y120.622 E12.48677
G1 X108.864 Y121.650 E12.60724
G1 X108.349 Y121.837 E12.63457
G1 X106.538 Y122.466 E12.73022
G1 X104.257 Y123.005 E12.84715
G1 X102.945 Y123.181 E12.91319
G1 X101.808 Y123.329 E12.97040
G1 X99.427 Y123.390 E13.08923
G1 X99.391 Y123.391 E13.09102
G1 X97.019 Y123.207 E13.20972
G1 X96.993 Y123.205 E13.21102
G1 X94.664 Y122.782 E13.32911
G1 X92.369 Y122.117 E13.44832
G1 X90.134 Y121.214 E13.56858
G1 X88.016 Y120.094 E13.68812
G1 X86.003 Y118.747 E13.80895
G1 X84.386 Y117.406 E13.91376
G1 X84.088 Y117.153 E13.93326
G1 X82.422 Y115.445 E14.05230
G1 X80.963 Y113.601 E14.16961
G1 X79.672 Y111.583 E14.28913
G1 X78.584 Y109.420 E14.40992
G1 X78.166 Y108.331 E14.46812
G1 X77.707 Y107.111 E14.53315
G1 X77.112 Y104.851 E14.64974
G1 X76.806 Y102.931 E14.74674
G1 X76.724 Y102.404 E14.77335
G1 X76.603 Y100.027 E14.89209
G1 X76.601 Y99.993 E14.89379
G1 X76.720 Y97.657 E15.01049
G1 X76.806 Y97.067 E15.04023
G1 X77.096 Y95.209 E15.13405
G1 X77.693 Y92.940 E15.25110
G1 X78.167 Y91.665 E15.31897
G1 X78.557 Y90.634 E15.37396
G1 X79.609 Y88.528 E15.49141
G1 X80.898 Y86.490 E15.61172
G1 X81.700 Y85.467 E15.67657
G1 X82.427 Y84.549 E15.73499
G1 X84.103 Y82.829 E15.85480
G0 F9000 X84.722 Y84.029
G1 F1800 X84.429 Y84.248 E15.87305
G1 X84.178 Y84.513 E15.89126
G1 X83.976 Y84.814 E15.90935
G1 X83.828 Y85.140 E15.92721
G1 X83.737 Y85.493 E15.94540
G1 X83.705 Y85.858 E15.96368
G1 X83.738 Y86.229 E15.98226
G1 X83.831 Y86.581 E16.00042
G1 X83.982 Y86.914 E16.01866
G1 X84.188 Y87.215 E16.03686
G1 X84.443 Y87.478 E16.05514
G1 X84.734 Y87.692 E16.07316
G1 X85.053 Y87.854 E16.09101
G1 X85.405 Y87.962 E16.10938
G1 X85.768 Y88.008 E16.12763
G1 X86.139 Y87.991 E16.14616
G1 X86.496 Y87.912 E16.16440
G1 X86.833 Y87.775 E16.18255
G1 X87.143 Y87.583 E16.20074
G1 X87.416 Y87.340 E16.21898
G1 X87.645 Y87.056 E16.23718
G1 X87.822 Y86.735 E16.25547
G1 X87.941 Y86.393 E16.27353
G1 X88.002 Y86.042 E16.29131
G1 X88.003 Y85.678 E16.30947
G1 X87.937 Y85.308 E16.32822
G1 X87.818 Y84.967 E16.34624
G1 X87.635 Y84.644 E16.36476
G1 X87.405 Y84.362 E16.38291
G1 X87.130 Y84.122 E16.40112
G1 X86.819 Y83.933 E16.41928
G1 X86.487 Y83.799 E16.43714
G1 X86.130 Y83.723 E16.45535
G1 X85.759 Y83.707 E16.47388
G1 X85.396 Y83.755 E16.49215
G1 X85.047 Y83.863 E16.51037
G1 X84.722 Y84.029 E16.52858
G0 F9000 X86.487 Y83.800
G0 X87.817 Y84.968
G0 X87.821 Y86.734
G0 X88.198 Y87.901
G1 F1800 X86.786 Y89.462 E16.63359
G1 X85.612 Y91.139 E16.73572
G1 X84.594 Y93.048 E16.84366
G1 X83.850 Y95.018 E16.94872
G1 X83.355 Y97.065 E17.05379
G1 X83.120 Y99.157 E17.15881
G1 X83.146 Y101.263 E17.26389
G1 X83.401 Y103.115 E17.35716
G1 X83.449 Y103.405 E17.37182
G1 X83.978 Y105.382 E17.47393
G1 X84.772 Y107.333 E17.57901
G1 X85.802 Y109.169 E17.68404
G1 X87.053 Y110.863 E17.78910
G1 X88.504 Y112.389 E17.89416
G1 X90.133 Y113.722 E17.99917
G1 X91.916 Y114.843 E18.10425
G1 X93.824 Y115.733 E18.20928
G1 X95.829 Y116.378 E18.31436
G1 X97.898 Y116.769 E18.41941
G1 X100.000 Y116.901 E18.52449
G1 X102.101 Y116.769 E18.62951
G1 X104.170 Y116.378 E18.73456
G1 X106.175 Y115.733 E18.83964
G1 X108.083 Y114.843 E18.94468
G1 X109.866 Y113.722 E19.04975
G1 X111.495 Y112.389 E19.15477
G1 X112.946 Y110.863 E19.25982
G1 X114.197 Y109.169 E19.36488
G1 X115.227 Y107.333 E19.46991
G1 X116.021 Y105.382 E19.57500
G1 X116.565 Y103.350 E19.67994
G1 X116.853 Y101.263 E19.78505
G1 X116.879 Y99.157 E19.89013
G1 X116.644 Y97.065 E19.99516
G1 X116.150 Y95.018 E20.10021
G1 X115.405 Y93.049 E20.20524
G1 X114.421 Y91.186 E20.31036
G1 X113.213 Y89.462 E20.41538
G1 X111.801 Y87.901 E20.52039
G1 X110.205 Y86.527 E20.62546
G1 X107.950 Y85.030 E20.76050
G1 X103.105 Y93.423 E21.24398
G1 X104.593 Y94.458 E21.33441
G1 X105.440 Y95.290 E21.39365
G1 X106.171 Y96.295 E21.45565
G1 X106.634 Y97.237 E21.50801
G1 X106.706 Y97.385 E21.51622
G1 X107.050 Y98.551 E21.57688
G1 X107.193 Y99.760 E21.63761
G1 X107.132 Y100.964 E21.69776
G1 X106.869 Y102.150 E21.75837
G1 X106.406 Y103.280 E21.81929
G1 X105.770 Y104.302 E21.87934
G1 X104.959 Y105.216 E21.94031
G1 X104.014 Y105.974 E22.00075
G1 X102.948 Y106.565 E22.06156
G1 X101.807 Y106.967 E22.12191
G1 X100.635 Y107.166 E22.18122
G1 X99.395 Y107.172 E22.24308
G1 X98.223 Y106.973 E22.30239
G1 X97.170 Y106.608 E22.35799
G1 X97.052 Y106.566 E22.36424
G1 X95.987 Y105.976 E22.42498
G1 X95.046 Y105.221 E22.48517
G1 X94.231 Y104.304 E22.54638
G1 X93.594 Y103.281 E22.60650
G1 X93.132 Y102.156 E22.66718
G1 X92.875 Y100.999 E22.72631
G1 X92.806 Y99.755 E22.78847
G1 X92.949 Y98.547 E22.84915
G1 X93.282 Y97.420 E22.90778
G1 X93.828 Y96.295 E22.97017
G1 X94.521 Y95.334 E23.02928
G1 X95.379 Y94.484 E23.08954
G1 X96.893 Y93.421 E23.18183
G1 X92.049 Y85.030 E23.66521
G1 X89.794 Y86.527 E23.80024
G1 X88.198 Y87.901 E23.90531
G0 F9000 X92.028 Y85.120
G0 X96.823 Y93.405
G0 X96.628 Y96.169
G1 F1800 X96.029 Y96.795 E23.94853
G1 X95.545 Y97.511 E23.99165
G1 X95.189 Y98.299 E24.03479
G1 X94.970 Y99.137 E24.07800
G1 X94.898 Y100.000 E24.12121
G1 X94.970 Y100.862 E24.16436
G1 X95.189 Y101.700 E24.20758
G1 X95.545 Y102.488 E24.25071
G1 X96.029 Y103.204 E24.29383
G1 X96.547 Y103.744 E24.33116
G1 X96.650 Y103.846 E24.33840
G1 X97.325 Y104.344 E24.38024
G1 X98.097 Y104.734 E24.42340
G1 X98.924 Y104.988 E24.46656
G1 X99.784 Y105.097 E24.50981
G1 X100.647 Y105.060 E24.55290
G1 X101.493 Y104.878 E24.59607
G1 X102.296 Y104.556 E24.63924
G1 X103.033 Y104.101 E24.68245
G1 X103.683 Y103.530 E24.72561
G1 X104.227 Y102.856 E24.76882
G1 X104.649 Y102.101 E24.81198
G1 X104.937 Y101.285 E24.85515
G1 X105.083 Y100.432 E24.89832
G1 X105.084 Y99.578 E24.94093
G1 X104.937 Y98.715 E24.98460
G1 X104.649 Y97.898 E25.02782
G1 X104.227 Y97.143 E25.07097
G1 X103.784 Y96.593 E25.10621
G1 X103.674 Y96.462 E25.11474
G1 X103.033 Y95.898 E25.15734
G1 X102.296 Y95.443 E25.20055
G1 X101.493 Y95.121 E25.24371
G1 X100.647 Y94.939 E25.28689
G1 X99.783 Y94.902 E25.33003
G1 X98.924 Y95.012 E25.37324
G1 X98.098 Y95.265 E25.41634
G1 X97.325 Y95.655 E25.45953
G1 X96.628 Y96.169 E25.50274
G0 F9000 X99.546 Y82.104
G1 F1800 X99.910 Y82.150 E25.52104
G1 X100.280 Y82.133 E25.53952
G1 X100.637 Y82.055 E25.55775
G1 X100.976 Y81.917 E25.57601
G1 X101.285 Y81.725 E25.59416
G1 X101.559 Y81.482 E25.61243
G1 X101.788 Y81.197 E25.63067
G1 X101.964 Y80.877 E25.64889
G1 X102.083 Y80.535 E25.66696
G1 X102.144 Y80.184 E25.68473
G1 X102.145 Y79.820 E25.70289
G1 X102.079 Y79.449 E25.72169
G1 X101.957 Y79.106 E25.73986
G1 X101.778 Y78.789 E25.75802
G1 X101.548 Y78.505 E25.77625
G1 X101.271 Y78.264 E25.79457
G1 X100.961 Y78.075 E25.81268
G1 X100.629 Y77.941 E25.83054
G1 X100.272 Y77.865 E25.84875
G1 X99.901 Y77.849 E25.86728
G1 X99.538 Y77.897 E25.88555
G1 X99.190 Y78.005 E25.90373
G1 X98.864 Y78.172 E25.92200
G1 X98.571 Y78.390 E25.94022
G1 X98.321 Y78.655 E25.95840
G1 X98.118 Y78.955 E25.97647
G1 X97.970 Y79.283 E25.99442
G1 X97.879 Y79.636 E26.01261
G1 X97.847 Y80.001 E26.03089
G1 X97.880 Y80.371 E26.04942
G1 X97.973 Y80.723 E26.06758
G1 X98.125 Y81.057 E26.08589
G1 X98.331 Y81.357 E26.10405
G1 X98.584 Y81.620 E26.12225
G1 X98.877 Y81.834 E26.14036
G1 X99.196 Y81.996 E26.15821
G1 X99.546 Y82.104 E26.17648
G0 F9000 X112.020 Y85.494
G1 F1800 X111.990 Y85.865 E26.19505
G1 X112.022 Y86.229 E26.21328
G1 X112.115 Y86.581 E26.23144
G1 X112.267 Y86.915 E26.24975
G1 X112.474 Y87.216 E26.26798
G1 X112.727 Y87.478 E26.28615
G1 X113.018 Y87.692 E26.30417
G1 X113.338 Y87.854 E26.32206
G1 X113.688 Y87.962 E26.34034
G1 X114.052 Y88.008 E26.35864
G1 X114.424 Y87.991 E26.37722
G1 X114.782 Y87.912 E26.39551
G1 X115.117 Y87.774 E26.41359
G1 X115.426 Y87.583 E26.43171
G1 X115.701 Y87.340 E26.45002
G1 X115.930 Y87.055 E26.46826
G1 X116.106 Y86.736 E26.48643
G1 X116.226 Y86.393 E26.50456
G1 X116.286 Y86.041 E26.52238
G1 X116.287 Y85.679 E26.54044
G1 X116.222 Y85.308 E26.55923
G1 X116.101 Y84.966 E26.57733
G1 X115.920 Y84.645 E26.59571
G1 X115.690 Y84.362 E26.61391
G1 X115.413 Y84.122 E26.63219
G1 X115.103 Y83.933 E26.65031
G1 X114.773 Y83.799 E26.66808
G1 X114.415 Y83.723 E26.68633
G1 X114.043 Y83.707 E26.70491
G1 X113.680 Y83.755 E26.72318
G1 X113.333 Y83.863 E26.74131
G1 X113.006 Y84.029 E26.75961
G1 X112.713 Y84.249 E26.77789
G1 X112.463 Y84.512 E26.79599
G1 X112.260 Y84.813 E26.81410
G1 X112.112 Y85.140 E26.83201
G1 X112.020 Y85.494 E26.85026
G0 F9000 X112.475 Y87.215
G0 X118.864 Y98.172
G1 F1800 X118.571 Y98.390 E26.86848
G1 X118.321 Y98.655 E26.88665
G1 X118.118 Y98.955 E26.90472
G1 X117.970 Y99.283 E26.92268
G1 X117.879 Y99.636 E26.94086
G1 X117.847 Y100.001 E26.95914
G1 X117.880 Y100.371 E26.97768
G1 X117.973 Y100.723 E26.99584
G1 X118.125 Y101.057 E27.01415
G1 X118.331 Y101.357 E27.03230
G1 X118.584 Y101.620 E27.05051
G1 X118.877 Y101.834 E27.06861
G1 X119.196 Y101.996 E27.08646
G1 X119.546 Y102.104 E27.10474
G1 X119.910 Y102.150 E27.12304
G1 X120.280 Y102.133 E27.14152
G1 X120.637 Y102.055 E27.15975
G1 X120.976 Y101.917 E27.17801
G1 X121.285 Y101.725 E27.19616
G1 X121.559 Y101.482 E27.21443
G1 X121.788 Y101.197 E27.23267
G1 X121.964 Y100.877 E27.25089
G1 X122.083 Y100.535 E27.26896
G1 X122.144 Y100.184 E27.28673
G1 X122.145 Y99.820 E27.30489
G1 X122.079 Y99.449 E27.32369
G1 X121.957 Y99.106 E27.34185
G1 X121.778 Y98.789 E27.36002
G1 X121.548 Y98.505 E27.37825
G1 X121.271 Y98.264 E27.39657
G1 X120.961 Y98.075 E27.41468
G1 X120.629 Y97.941 E27.43254
G1 X120.272 Y97.865 E27.45075
G1 X119.901 Y97.849 E27.46928
G1 X119.538 Y97.897 E27.48755
G1 X119.190 Y98.005 E27.50573
G1 X118.864 Y98.172 E27.52400
G0 F9000 X117.879 Y99.637
G0 X114.774 Y112.085
G1 F1800 X114.416 Y112.007 E27.54228
G1 X114.043 Y111.991 E27.56091
G1 X113.680 Y112.039 E27.57917
G1 X113.332 Y112.147 E27.59735
G1 X113.006 Y112.314 E27.61563
G1 X112.714 Y112.532 E27.63381
G1 X112.463 Y112.796 E27.65198
G1 X112.260 Y113.097 E27.67009
G1 X112.112 Y113.425 E27.68805
G1 X112.020 Y113.780 E27.70634
G1 X111.990 Y114.150 E27.72486
G1 X112.022 Y114.514 E27.74309
G1 X112.115 Y114.866 E27.76126
G1 X112.267 Y115.200 E27.77956
G1 X112.474 Y115.501 E27.79779
G1 X112.726 Y115.761 E27.81585
G1 X113.018 Y115.977 E27.83397
G1 X113.339 Y116.139 E27.85191
G1 X113.688 Y116.246 E27.87012
G1 X114.052 Y116.292 E27.88843
G1 X114.423 Y116.275 E27.90696
G1 X114.781 Y116.197 E27.92524
G1 X115.118 Y116.059 E27.94340
G1 X115.427 Y115.867 E27.96155
G1 X115.701 Y115.625 E27.97979
G1 X115.929 Y115.340 E27.99800
G1 X116.106 Y115.020 E28.01625
G1 X116.226 Y114.677 E28.03437
G1 X116.286 Y114.325 E28.05219
G1 X116.287 Y113.963 E28.07025
G1 X116.222 Y113.591 E28.08909
G1 X116.098 Y113.247 E28.10733
G1 X115.920 Y112.931 E28.12543
G1 X115.690 Y112.647 E28.14366
G1 X115.413 Y112.405 E28.16201
G1 X115.103 Y112.218 E28.18007
G1 X114.774 Y112.085 E28.19778
G0 F9000 X113.007 Y112.315
G0 X101.957 Y119.106
G1 F1800 X101.778 Y118.789 E28.21594
G1 X101.548 Y118.505 E28.23417
G1 X101.271 Y118.264 E28.25249
G1 X100.961 Y118.075 E28.27060
G1 X100.629 Y117.941 E28.28847
G1 X100.272 Y117.865 E28.30668
G1 X99.901 Y117.849 E28.32520
G1 X99.538 Y117.897 E28.34347
G1 X99.190 Y118.005 E28.36165
G1 X98.864 Y118.172 E28.37992
G1 X98.571 Y118.390 E28.39814
G1 X98.321 Y118.655 E28.41632
G1 X98.118 Y118.955 E28.43439
G1 X97.970 Y119.283 E28.45234
G1 X97.879 Y119.636 E28.47053
G1 X97.847 Y120.001 E28.48881
G1 X97.880 Y120.371 E28.50734
G1 X97.973 Y120.723 E28.52551
G1 X98.125 Y121.057 E28.54381
G1 X98.331 Y121.357 E28.56197
G1 X98.584 Y121.620 E28.58018
G1 X98.877 Y121.834 E28.59828
G1 X99.196 Y121.996 E28.61613
G1 X99.546 Y122.104 E28.63440
G1 X99.910 Y122.150 E28.65271
G1 X100.280 Y122.133 E28.67119
G1 X100.637 Y122.055 E28.68942
G1 X100.976 Y121.917 E28.70768
G1 X101.285 Y121.725 E28.72583
G1 X101.559 Y121.482 E28.74410
G1 X101.788 Y121.197 E28.76234
G1 X101.964 Y120.877 E28.78056
G1 X102.083 Y120.535 E28.79862
G1 X102.144 Y120.184 E28.81640
G1 X102.145 Y119.820 E28.83456
