;Generated with Cura_SteamEngine 15.01
; Default start code
G28 ; Home extruder
G1 Z15 F2000
M107 ; Turn off fan
G90 ; Absolute positioning
M82 ; Extruder in absolute mode
M104 T0 S180
M190 S50
; Activate all used extruder
G92 E0 ; Reset extruder position
; Wait for all used extruders to reach temperature
M109 T0 S210 R210
;Layer count: 205
;LAYER:0
M107
G0 F9000 X81.017 Y80.534 Z0.300
;TYPE:SKIRT
G1 F1800 X83.038 Y78.730 E0.13515
G1 X85.490 Y76.989 E0.28519
G1 X87.949 Y75.625 E0.42547
G1 X88.189 Y75.491 E0.43919
G1 X90.749 Y74.431 E0.57742
G1 X90.749 Y74.432 E0.57747
G1 X91.007 Y74.323 E0.59145
G1 X92.007 Y74.035 E0.64336
G1 X93.946 Y73.476 E0.74404
G1 X96.908 Y72.974 E0.89392
G1 X99.711 Y72.811 E1.03400
G1 X100.000 Y72.795 E1.04844
G1 X102.930 Y72.959 E1.19485
G1 X105.976 Y73.462 E1.34887
G1 X107.877 Y74.002 E1.44747
G1 X108.380 Y74.146 E1.47357
G1 X108.987 Y74.322 E1.50510
G1 X111.615 Y75.410 E1.64700
G1 X111.954 Y75.571 E1.66573
G1 X114.453 Y76.954 E1.80822
G1 X116.731 Y78.566 E1.94745
G1 X116.966 Y78.734 E1.96186
G1 X118.981 Y80.533 E2.09662
G1 X119.465 Y81.017 E2.13077
G1 X121.269 Y83.038 E2.26593
G1 X123.010 Y85.490 E2.41596
G1 X124.374 Y87.949 E2.55625
G1 X124.508 Y88.189 E2.56996
G1 X125.568 Y90.749 E2.70820
G1 X125.567 Y90.749 E2.70825
G1 X125.676 Y91.007 E2.72222
G1 X125.964 Y92.007 E2.77414
G1 X126.523 Y93.946 E2.87481
G1 X127.025 Y96.908 E3.02470
G1 X127.188 Y99.707 E3.16458
G1 X127.187 Y99.707 E3.16463
G1 X127.206 Y99.986 E3.17858
G1 X127.041 Y102.931 E3.32573
G1 X126.536 Y105.977 E3.47977
G1 X125.973 Y107.961 E3.58266
G1 X125.679 Y108.983 E3.63572
G1 X124.589 Y111.615 E3.77785
G1 X124.428 Y111.954 E3.79657
G1 X123.045 Y114.453 E3.93906
G1 X121.433 Y116.731 E4.07829
G1 X121.265 Y116.966 E4.09270
G1 X119.466 Y118.981 E4.22747
G1 X118.982 Y119.465 E4.26162
G1 X116.961 Y121.269 E4.39677
G1 X114.567 Y122.967 E4.54320
G1 X111.810 Y124.508 E4.70078
G1 X109.103 Y125.629 E4.84695
G1 X107.986 Y125.965 E4.90514
G1 X106.053 Y126.523 E5.00552
G1 X103.091 Y127.025 E5.15540
G1 X100.293 Y127.188 E5.29523
G1 X100.293 Y127.187 E5.29528
G1 X100.014 Y127.206 E5.30923
G1 X97.068 Y127.041 E5.45644
G1 X94.022 Y126.536 E5.61048
G1 X92.119 Y125.996 E5.70917
G1 X91.016 Y125.679 E5.76643
G1 X88.384 Y124.589 E5.90855
G1 X88.045 Y124.428 E5.92728
G1 X85.546 Y123.045 E6.06977
G1 X83.099 Y121.313 E6.21934
G1 X81.022 Y119.469 E6.35791
G1 X80.534 Y118.982 E6.39230
G1 X78.730 Y116.961 E6.52746
G1 X77.032 Y114.567 E6.67389
G1 X75.491 Y111.810 E6.83146
G1 X74.378 Y109.120 E6.97670
G1 X74.155 Y108.412 E7.01373
G1 X74.003 Y107.876 E7.04153
G1 X73.476 Y106.054 E7.13615
G1 X72.974 Y103.091 E7.28608
G1 X72.811 Y100.289 E7.42611
G1 X72.795 Y100.000 E7.44055
G1 X72.959 Y97.069 E7.58701
G1 X73.462 Y94.022 E7.74108
G1 X74.033 Y92.013 E7.84528
G1 X74.321 Y91.015 E7.89710
G1 X75.410 Y88.384 E8.03917
G1 X75.571 Y88.045 E8.05789
G1 X76.954 Y85.546 E8.20038
G1 X78.686 Y83.099 E8.34995
G1 X80.530 Y81.022 E8.48852
G1 X81.017 Y80.534 E8.52291
G1 F2400 E4.52291
G0 F9000 X83.616 Y83.309
;TYPE:WALL-INNER
G1 F2400 E8.52291
G1 F1800 X85.418 Y81.700 E8.64344
G1 X87.513 Y80.213 E8.77161
G1 X89.801 Y78.943 E8.90217
G1 X92.204 Y77.942 E9.03204
G1 X94.793 Y77.187 E9.16658
G1 X97.340 Y76.755 E9.29547
G1 X99.927 Y76.605 E9.42475
G1 X100.000 Y76.601 E9.42840
G1 X102.512 Y76.741 E9.55392
G1 X105.146 Y77.177 E9.68712
G1 X107.331 Y77.798 E9.80044
G1 X107.729 Y77.913 E9.82111
G1 X110.071 Y78.883 E9.94758
G1 X112.424 Y80.174 E10.08148
G1 X114.528 Y81.663 E10.21008
G1 X116.382 Y83.308 E10.33373
G1 X118.299 Y85.418 E10.47596
G1 X119.786 Y87.513 E10.60413
G1 X121.056 Y89.801 E10.73469
G1 X122.057 Y92.204 E10.86456
G1 X122.812 Y94.793 E10.99910
G1 X123.244 Y97.340 E11.12799
G1 X123.394 Y99.929 E11.25737
G1 X123.399 Y100.000 E11.26092
G1 X123.259 Y102.512 E11.38644
G1 X122.822 Y105.146 E11.51965
G1 X122.320 Y106.915 E11.61139
G1 X122.083 Y107.736 E11.65402
G1 X121.116 Y110.071 E11.78011
G1 X119.825 Y112.424 E11.91401
G1 X118.336 Y114.528 E12.04261
G1 X116.691 Y116.382 E12.16626
G1 X116.383 Y116.690 E12.18799
G1 X114.582 Y118.298 E12.30845
G1 X112.541 Y119.746 E12.43330
G1 X110.144 Y121.085 E12.57028
G1 X107.825 Y122.046 E12.69551
G1 X106.915 Y122.320 E12.74293
G1 X105.206 Y122.812 E12.83165
G1 X102.659 Y123.244 E12.96054
G1 X100.071 Y123.394 E13.08987
G1 X99.995 Y123.399 E13.09367
G1 X97.487 Y123.259 E13.21899
G1 X94.853 Y122.822 E13.35220
G1 X93.164 Y122.343 E13.43978
G1 X92.263 Y122.083 E13.48657
G1 X89.928 Y121.116 E13.61266
G1 X89.787 Y121.049 E13.62045
G1 X87.575 Y119.825 E13.74657
G1 X85.463 Y118.330 E13.87567
G1 X83.624 Y116.698 E13.99833
G1 X81.701 Y114.582 E14.14098
G1 X80.253 Y112.541 E14.26583
G1 X78.914 Y110.144 E14.40281
G1 X77.953 Y107.823 E14.52814
G1 X77.793 Y107.315 E14.55471
G1 X77.189 Y105.214 E14.66378
G1 X76.755 Y102.659 E14.79307
G1 X76.605 Y100.073 E14.92230
G1 X76.601 Y100.000 E14.92595
G1 X76.741 Y97.487 E15.05152
G1 X77.177 Y94.853 E15.18472
G1 X77.686 Y93.059 E15.27776
G1 X77.916 Y92.263 E15.31909
G1 X78.883 Y89.928 E15.44518
G1 X80.174 Y87.575 E15.57908
G1 X81.669 Y85.463 E15.70818
G1 X83.301 Y83.624 E15.83084
G1 X83.616 Y83.309 E15.85307
G0 F9000 X84.435 Y84.243
G1 F1800 X84.183 Y84.506 E15.87124
G1 X83.975 Y84.812 E15.88970
G1 X83.821 Y85.170 E15.90914
G1 X83.737 Y85.492 E15.92574
G1 X83.704 Y85.861 E15.94423
G1 X83.744 Y86.251 E15.96379
G1 X83.828 Y86.575 E15.98049
G1 X83.978 Y86.906 E15.99862
G1 X84.185 Y87.213 E16.01709
G1 X84.464 Y87.495 E16.03688
G1 X84.761 Y87.706 E16.05506
G1 X85.083 Y87.863 E16.07293
G1 X85.404 Y87.962 E16.08969
G1 X85.771 Y88.008 E16.10814
G1 X86.165 Y87.986 E16.12783
G1 X86.521 Y87.903 E16.14606
G1 X86.857 Y87.761 E16.16426
G1 X87.164 Y87.565 E16.18243
G1 X87.430 Y87.323 E16.20038
G1 X87.641 Y87.063 E16.21708
G1 X87.819 Y86.744 E16.23531
G1 X87.940 Y86.400 E16.25350
G1 X88.002 Y86.042 E16.27163
G1 X88.003 Y85.720 E16.28769
G1 X87.998 Y85.649 E16.29124
G1 X87.929 Y85.283 E16.30982
G1 X87.803 Y84.940 E16.32805
G1 X87.619 Y84.623 E16.34634
G1 X87.384 Y84.343 E16.36458
G1 X87.107 Y84.108 E16.38270
G1 X86.793 Y83.922 E16.40091
G1 X86.458 Y83.793 E16.41882
G1 X86.130 Y83.723 E16.43555
G1 X85.763 Y83.707 E16.45388
G1 X85.371 Y83.762 E16.47362
G1 X85.022 Y83.875 E16.49193
G1 X84.703 Y84.043 E16.50991
G1 X84.435 Y84.243 E16.52660
G0 F9000 X85.372 Y83.764
G0 X97.970 Y80.717
G1 F1800 X98.121 Y81.049 E16.54479
G1 X98.328 Y81.355 E16.56322
G1 X98.606 Y81.637 E16.58298
G1 X98.903 Y81.848 E16.60116
G1 X99.226 Y82.005 E16.61907
G1 X99.546 Y82.104 E16.63579
G1 X99.913 Y82.150 E16.65424
G1 X100.306 Y82.128 E16.67388
G1 X100.662 Y82.046 E16.69210
G1 X101.000 Y81.904 E16.71039
G1 X101.306 Y81.707 E16.72855
G1 X101.573 Y81.465 E16.74653
G1 X101.783 Y81.204 E16.76324
G1 X101.961 Y80.886 E16.78142
G1 X102.082 Y80.542 E16.79961
G1 X102.144 Y80.184 E16.81774
G1 X102.145 Y79.862 E16.83381
G1 X102.140 Y79.791 E16.83736
G1 X102.072 Y79.429 E16.85573
G1 X101.959 Y79.109 E16.87266
G1 X101.762 Y78.768 E16.89231
G1 X101.528 Y78.486 E16.91059
G1 X101.248 Y78.249 E16.92889
G1 X100.935 Y78.064 E16.94703
G1 X100.600 Y77.935 E16.96494
G1 X100.272 Y77.865 E16.98168
G1 X99.905 Y77.849 E17.00000
G1 X99.513 Y77.904 E17.01975
G1 X99.164 Y78.017 E17.03805
G1 X98.846 Y78.185 E17.05600
G1 X98.577 Y78.384 E17.07269
G1 X98.325 Y78.648 E17.09090
G1 X98.118 Y78.954 E17.10933
G1 X97.963 Y79.312 E17.12879
G1 X97.879 Y79.635 E17.14544
G1 X97.846 Y80.004 E17.16393
G1 X97.886 Y80.393 E17.18344
G1 X97.970 Y80.717 E17.20013
G0 F9000 X99.227 Y82.004
G0 X100.999 Y81.903
G0 X112.105 Y85.170
G1 F1800 X112.020 Y85.493 E17.21680
G1 X111.990 Y85.861 E17.23522
G1 X112.027 Y86.250 E17.25471
G1 X112.112 Y86.575 E17.27147
G1 X112.263 Y86.907 E17.28967
G1 X112.471 Y87.214 E17.30817
G1 X112.749 Y87.495 E17.32789
G1 X113.045 Y87.706 E17.34603
G1 X113.368 Y87.863 E17.36394
G1 X113.688 Y87.962 E17.38065
G1 X114.055 Y88.008 E17.39911
G1 X114.450 Y87.986 E17.41884
G1 X114.807 Y87.902 E17.43714
G1 X115.141 Y87.761 E17.45523
G1 X115.448 Y87.565 E17.47340
G1 X115.715 Y87.323 E17.49138
G1 X115.925 Y87.062 E17.50809
G1 X116.102 Y86.744 E17.52625
G1 X116.225 Y86.400 E17.54447
G1 X116.286 Y86.041 E17.56264
G1 X116.287 Y85.720 E17.57866
G1 X116.282 Y85.650 E17.58216
G1 X116.215 Y85.283 E17.60077
G1 X116.086 Y84.939 E17.61910
G1 X115.903 Y84.623 E17.63732
G1 X115.669 Y84.343 E17.65552
G1 X115.390 Y84.107 E17.67375
G1 X115.078 Y83.922 E17.69185
G1 X114.743 Y83.793 E17.70976
G1 X114.415 Y83.723 E17.72649
G1 X114.047 Y83.707 E17.74487
G1 X113.655 Y83.762 E17.76462
G1 X113.307 Y83.875 E17.78287
G1 X112.987 Y84.043 E17.80090
G1 X112.719 Y84.243 E17.81759
G1 X112.468 Y84.505 E17.83569
G1 X112.260 Y84.811 E17.85415
G1 X112.105 Y85.170 E17.87366
G0 F9000 X112.264 Y86.906
G0 X118.846 Y98.185
G1 F1800 X118.577 Y98.384 E17.89035
G1 X118.325 Y98.648 E17.90856
G1 X118.118 Y98.954 E17.92699
G1 X117.963 Y99.312 E17.94645
G1 X117.879 Y99.635 E17.96310
G1 X117.846 Y100.004 E17.98159
G1 X117.886 Y100.393 E18.00110
G1 X117.970 Y100.717 E18.01779
G1 X118.121 Y101.049 E18.03599
G1 X118.328 Y101.355 E18.05442
G1 X118.606 Y101.637 E18.07418
G1 X118.903 Y101.848 E18.09235
G1 X119.226 Y102.005 E18.11027
G1 X119.546 Y102.104 E18.12698
G1 X119.913 Y102.150 E18.14544
G1 X120.306 Y102.128 E18.16507
G1 X120.662 Y102.046 E18.18330
G1 X121.000 Y101.904 E18.20159
G1 X121.306 Y101.707 E18.21975
G1 X121.573 Y101.465 E18.23772
G1 X121.783 Y101.204 E18.25444
G1 X121.961 Y100.886 E18.27262
G1 X122.082 Y100.542 E18.29081
G1 X122.144 Y100.184 E18.30894
G1 X122.145 Y99.862 E18.32500
G1 X122.140 Y99.791 E18.32855
G1 X122.072 Y99.429 E18.34693
G1 X121.959 Y99.109 E18.36386
G1 X121.762 Y98.768 E18.38351
G1 X121.528 Y98.486 E18.40179
G1 X121.248 Y98.249 E18.42009
G1 X120.935 Y98.064 E18.43823
G1 X120.600 Y97.935 E18.45614
G1 X120.272 Y97.865 E18.47287
G1 X119.905 Y97.849 E18.49120
G1 X119.513 Y97.904 E18.51095
G1 X119.164 Y98.017 E18.52925
G1 X118.846 Y98.185 E18.54719
G0 F9000 X117.879 Y99.636
G0 X114.744 Y112.079
G1 F1800 X114.417 Y112.007 E18.56390
G1 X114.047 Y111.991 E18.58238
G1 X113.655 Y112.046 E18.60212
G1 X113.306 Y112.159 E18.62043
G1 X112.987 Y112.328 E18.63844
G1 X112.720 Y112.526 E18.65502
G1 X112.468 Y112.789 E18.67319
G1 X112.260 Y113.096 E18.69169
G1 X112.105 Y113.454 E18.71116
G1 X112.020 Y113.778 E18.72787
G1 X111.990 Y114.146 E18.74629
G1 X112.027 Y114.535 E18.76578
G1 X112.112 Y114.859 E18.78249
G1 X112.263 Y115.192 E18.80074
G1 X112.471 Y115.498 E18.81919
G1 X112.748 Y115.778 E18.83884
G1 X113.045 Y115.991 E18.85708
G1 X113.369 Y116.147 E18.87502
G1 X113.688 Y116.246 E18.89168
G1 X114.055 Y116.292 E18.91014
G1 X114.449 Y116.270 E18.92982
G1 X114.806 Y116.188 E18.94810
G1 X115.142 Y116.046 E18.96630
G1 X115.448 Y115.849 E18.98445
G1 X115.719 Y115.603 E19.00271
G1 X115.939 Y115.320 E19.02060
G1 X116.102 Y115.029 E19.03724
G1 X116.225 Y114.684 E19.05551
G1 X116.286 Y114.325 E19.07368
G1 X116.287 Y114.004 E19.08969
G1 X116.282 Y113.934 E19.09319
G1 X116.215 Y113.571 E19.11161
G1 X116.101 Y113.250 E19.12860
G1 X115.904 Y112.910 E19.14821
G1 X115.670 Y112.628 E19.16649
G1 X115.389 Y112.391 E19.18483
G1 X115.077 Y112.207 E19.20290
G1 X114.744 Y112.079 E19.22070
G0 F9000 X112.988 Y112.329
G0 X101.959 Y119.109
G1 F1800 X101.762 Y118.768 E19.24035
G1 X101.528 Y118.486 E19.25863
G1 X101.248 Y118.249 E19.27693
G1 X100.935 Y118.064 E19.29507
G1 X100.600 Y117.935 E19.31298
G1 X100.272 Y117.865 E19.32971
G1 X99.905 Y117.849 E19.34804
G1 X99.513 Y117.904 E19.36779
G1 X99.164 Y118.017 E19.38609
G1 X98.846 Y118.185 E19.40403
G1 X98.577 Y118.384 E19.42073
G1 X98.325 Y118.648 E19.43893
G1 X98.118 Y118.954 E19.45737
G1 X97.963 Y119.312 E19.47683
G1 X97.879 Y119.635 E19.49348
G1 X97.846 Y120.004 E19.51196
G1 X97.886 Y120.393 E19.53147
G1 X97.970 Y120.717 E19.54817
G1 X98.121 Y121.049 E19.56637
G1 X98.328 Y121.355 E19.58480
G1 X98.606 Y121.637 E19.60455
G1 X98.903 Y121.848 E19.62273
G1 X99.226 Y122.005 E19.64065
G1 X99.546 Y122.104 E19.65736
G1 X99.913 Y122.150 E19.67581
G1 X100.306 Y122.128 E19.69545
G1 X100.662 Y122.046 E19.71367
G1 X101.000 Y121.904 E19.73197
G1 X101.306 Y121.707 E19.75012
G1 X101.573 Y121.465 E19.76810
G1 X101.783 Y121.204 E19.78481
G1 X101.961 Y120.886 E19.80299
G1 X102.082 Y120.542 E19.82119
G1 X102.144 Y120.184 E19.83931
G1 X102.145 Y119.862 E19.85538
G1 X102.140 Y119.791 E19.85893
G1 X102.072 Y119.429 E19.87731
G1 X101.959 Y119.109 E19.89424
G0 F9000 X100.598 Y117.936
G0 X87.940 Y114.684
G1 F1800 X88.002 Y114.326 E19.91236
G1 X88.003 Y114.004 E19.92843
G1 X87.998 Y113.933 E19.93198
G1 X87.930 Y113.571 E19.95036
G1 X87.817 Y113.251 E19.96729
G1 X87.619 Y112.909 E19.98700
G1 X87.384 Y112.628 E20.00528
G1 X87.106 Y112.391 E20.02350
G1 X86.792 Y112.207 E20.04166
G1 X86.459 Y112.079 E20.05946
G1 X86.132 Y112.007 E20.07616
G1 X85.763 Y111.991 E20.09459
G1 X85.371 Y112.046 E20.11434
G1 X85.021 Y112.159 E20.13269
G1 X84.704 Y112.328 E20.15061
G1 X84.435 Y112.526 E20.16727
G1 X84.182 Y112.790 E20.18552
G1 X83.975 Y113.097 E20.20399
G1 X83.821 Y113.454 E20.22339
G1 X83.737 Y113.777 E20.24004
G1 X83.704 Y114.146 E20.25852
G1 X83.744 Y114.536 E20.27808
G1 X83.828 Y114.859 E20.29473
G1 X83.978 Y115.192 E20.31295
G1 X84.185 Y115.498 E20.33138
G1 X84.464 Y115.778 E20.35110
G1 X84.761 Y115.991 E20.36934
G1 X85.084 Y116.147 E20.38723
G1 X85.404 Y116.246 E20.40394
G1 X85.771 Y116.292 E20.42240
G1 X86.164 Y116.270 E20.44203
G1 X86.520 Y116.188 E20.46026
G1 X86.858 Y116.046 E20.47855
G1 X87.165 Y115.848 E20.49678
G1 X87.434 Y115.603 E20.51493
G1 X87.655 Y115.321 E20.53280
G1 X87.819 Y115.028 E20.54956
G1 X87.940 Y114.684 E20.56775
G0 F9000 X87.618 Y112.910
G0 X81.000 Y101.904
G1 F1800 X81.306 Y101.707 E20.58590
G1 X81.573 Y101.465 E20.60388
G1 X81.783 Y101.204 E20.62060
G1 X81.961 Y100.886 E20.63878
G1 X82.082 Y100.542 E20.65697
G1 X82.144 Y100.184 E20.67510
G1 X82.145 Y99.862 E20.69116
G1 X82.140 Y99.791 E20.69471
G1 X82.072 Y99.429 E20.71309
G1 X81.959 Y99.109 E20.73002
G1 X81.762 Y98.768 E20.74967
G1 X81.528 Y98.486 E20.76795
G1 X81.248 Y98.249 E20.78625
G1 X80.935 Y98.064 E20.80439
G1 X80.600 Y97.935 E20.82230
G1 X80.272 Y97.865 E20.83903
G1 X79.905 Y97.849 E20.85736
G1 X79.513 Y97.904 E20.87711
G1 X79.164 Y98.017 E20.89541
G1 X78.846 Y98.185 E20.91335
G1 X78.577 Y98.384 E20.93005
G1 X78.325 Y98.648 E20.94825
G1 X78.118 Y98.954 E20.96669
G1 X77.963 Y99.312 E20.98615
G1 X77.879 Y99.635 E21.00280
G1 X77.846 Y100.004 E21.02128
G1 X77.886 Y100.393 E21.04079
G1 X77.970 Y100.717 E21.05749
G1 X78.121 Y101.049 E21.07569
G1 X78.328 Y101.355 E21.09412
G1 X78.606 Y101.637 E21.11387
G1 X78.903 Y101.848 E21.13205
G1 X79.226 Y102.005 E21.14997
G1 X79.546 Y102.104 E21.16668
G1 X79.913 Y102.150 E21.18513
G1 X80.306 Y102.128 E21.20477
G1 X80.662 Y102.046 E21.22300
G1 X81.000 Y101.904 E21.24129
G0 F9000 X80.813 Y101.549
;TYPE:WALL-OUTER
G1 F1800 X81.062 Y101.388 E21.25608
G1 X81.281 Y101.190 E21.27081
G1 X81.450 Y100.979 E21.28430
G1 X81.595 Y100.721 E21.29906
G1 X81.693 Y100.441 E21.31386
G1 X81.744 Y100.149 E21.32865
G1 X81.745 Y99.875 E21.34232
G1 X81.743 Y99.842 E21.34397
G1 X81.685 Y99.533 E21.35965
G1 X81.594 Y99.277 E21.37321
G1 X81.433 Y98.997 E21.38932
G1 X81.243 Y98.769 E21.40413
G1 X81.015 Y98.576 E21.41903
G1 X80.760 Y98.425 E21.43382
G1 X80.485 Y98.320 E21.44850
G1 X80.221 Y98.263 E21.46198
G1 X79.924 Y98.250 E21.47681
G1 X79.603 Y98.295 E21.49298
G1 X79.321 Y98.387 E21.50778
G1 X79.059 Y98.525 E21.52255
G1 X78.842 Y98.685 E21.53600
G1 X78.638 Y98.900 E21.55079
G1 X78.470 Y99.147 E21.56569
G1 X78.342 Y99.443 E21.58178
G1 X78.274 Y99.704 E21.59524
G1 X78.248 Y100.001 E21.61011
G1 X78.281 Y100.322 E21.62621
G1 X78.349 Y100.583 E21.63967
G1 X78.471 Y100.853 E21.65445
G1 X78.639 Y101.100 E21.66935
G1 X78.866 Y101.331 E21.68551
G1 X79.108 Y101.503 E21.70032
G1 X79.373 Y101.632 E21.71503
G1 X79.631 Y101.711 E21.72849
G1 X79.927 Y101.749 E21.74338
G1 X80.249 Y101.731 E21.75947
G1 X80.539 Y101.664 E21.77432
G1 X80.813 Y101.549 E21.78914
G0 F9000 X80.973 Y101.801
G0 X76.656 Y102.679
G0 X76.358 Y102.713
G1 F1800 X76.201 Y99.999 E21.92477
G1 X76.344 Y97.437 E22.05279
G1 X76.785 Y94.767 E22.18780
G1 X77.534 Y92.141 E22.32404
