;Generated with Cura_SteamEngine 15.01
; Default start code
G28 ; Home extruder
G1 Z15 F2000
M107 ; Turn off fan
G90 ; Absolute positioning
M82 ; Extruder in absolute mode
M104 T0 S180
M190 S50
; Activate all used extruder
G92 E0 ; Reset extruder position
; Wait for all used extruders to reach temperature
M109 T0 S210 R210
;Layer count: 45
;LAYER:0
M107
G0 F9000 X136.515 Y135.091 Z0.300
;TYPE:SKIRT
G1 F1800 X137.866 Y133.989 E0.08698
G1 X138.186 Y133.732 E0.10746
G1 X139.770 Y132.703 E0.20169
G1 X139.962 Y132.581 E0.21304
G1 X141.783 Y131.653 E0.31501
G1 X143.734 Y130.899 E0.41936
G1 X144.415 Y130.710 E0.45462
G1 X145.819 Y130.334 E0.52714
G1 X147.857 Y130.011 E0.63008
G1 X149.994 Y129.895 E0.73685
G1 X152.072 Y130.001 E0.84066
G1 X154.134 Y130.327 E0.94481
G1 X155.564 Y130.705 E1.01860
G1 X156.213 Y130.879 E1.05213
G1 X158.137 Y131.617 E1.15493
G1 X160.011 Y132.566 E1.25973
G1 X161.598 Y133.593 E1.35404
G1 X161.804 Y133.724 E1.36622
G1 X163.452 Y135.059 E1.47203
G1 X164.908 Y136.515 E1.57476
G1 X166.010 Y137.866 E1.66174
G1 X166.267 Y138.186 E1.68222
G1 X167.296 Y139.770 E1.77646
G1 X167.418 Y139.962 E1.78780
G1 X168.346 Y141.783 E1.88977
G1 X169.100 Y143.734 E1.99412
G1 X169.289 Y144.415 E2.02938
G1 X169.665 Y145.819 E2.10190
G1 X169.987 Y147.856 E2.20478
G1 X170.105 Y149.994 E2.31161
G1 X169.997 Y152.074 E2.41552
G1 X169.672 Y154.134 E2.51957
G1 X169.294 Y155.564 E2.59336
G1 X169.120 Y156.213 E2.62688
G1 X168.382 Y158.137 E2.72969
G1 X167.433 Y160.011 E2.83449
G1 X166.392 Y161.620 E2.93010
G1 X166.275 Y161.804 E2.94098
G1 X164.940 Y163.452 E3.04679
G1 X163.484 Y164.908 E3.14952
G1 X162.133 Y166.010 E3.23650
G1 X161.813 Y166.267 E3.25698
G1 X160.231 Y167.296 E3.35113
G1 X160.037 Y167.419 E3.36259
G1 X158.216 Y168.347 E3.46456
G1 X156.265 Y169.100 E3.56889
G1 X155.584 Y169.289 E3.60415
G1 X154.180 Y169.665 E3.67666
G1 X152.143 Y169.987 E3.77955
G1 X150.006 Y170.105 E3.88633
G1 X147.926 Y169.997 E3.99024
G1 X145.865 Y169.672 E4.09434
G1 X144.435 Y169.294 E4.16813
G1 X143.786 Y169.120 E4.20165
G1 X141.862 Y168.382 E4.30446
G1 X139.989 Y167.433 E4.40921
G1 X138.401 Y166.406 E4.50356
G1 X138.196 Y166.276 E4.51567
G1 X136.939 Y165.259 E4.59634
G1 X136.542 Y164.935 E4.62191
G1 X135.091 Y163.484 E4.72428
G1 X133.989 Y162.133 E4.81126
G1 X133.732 Y161.813 E4.83174
G1 X132.703 Y160.231 E4.92589
G1 X132.580 Y160.037 E4.93735
G1 X131.652 Y158.216 E5.03932
G1 X130.899 Y156.265 E5.14365
G1 X130.710 Y155.584 E5.17891
G1 X130.334 Y154.180 E5.25143
G1 X130.011 Y152.142 E5.35437
G1 X129.895 Y150.006 E5.46110
G1 X130.001 Y147.927 E5.56495
G1 X130.327 Y145.865 E5.66910
G1 X130.705 Y144.435 E5.74290
G1 X130.879 Y143.786 E5.77642
G1 X131.617 Y141.862 E5.87923
G1 X132.566 Y139.989 E5.98398
G1 X133.593 Y138.401 E6.07833
G1 X133.723 Y138.196 E6.09044
G1 X134.740 Y136.939 E6.17111
G1 X135.064 Y136.542 E6.19667
G1 X136.515 Y135.091 E6.29905
G0 F9000 X136.783 Y135.388
G1 F1800 X138.118 Y134.300 E6.38497
G1 X138.421 Y134.056 E6.40438
G1 X139.986 Y133.039 E6.49750
G1 X140.161 Y132.928 E6.50783
G1 X141.946 Y132.018 E6.60779
G1 X143.860 Y131.279 E6.71015
G1 X144.521 Y131.096 E6.74437
G1 X145.903 Y130.726 E6.81575
G1 X147.899 Y130.410 E6.91657
G1 X149.995 Y130.296 E7.02129
G1 X152.031 Y130.400 E7.12300
G1 X154.052 Y130.718 E7.22507
G1 X155.461 Y131.091 E7.29779
G1 X156.089 Y131.260 E7.33023
G1 X157.974 Y131.983 E7.43096
G1 X159.811 Y132.914 E7.53370
G1 X161.383 Y133.930 E7.62708
G1 X161.570 Y134.049 E7.63814
G1 X163.184 Y135.357 E7.74179
G1 X164.611 Y136.783 E7.84244
G1 X165.699 Y138.118 E7.92836
G1 X165.943 Y138.421 E7.94777
G1 X166.960 Y139.986 E8.04088
G1 X167.071 Y140.161 E8.05122
G1 X167.981 Y141.946 E8.15118
G1 X168.720 Y143.860 E8.25354
G1 X168.903 Y144.521 E8.28776
G1 X169.273 Y145.903 E8.35913
G1 X169.589 Y147.898 E8.45991
G1 X169.705 Y149.995 E8.56469
G1 X169.599 Y152.032 E8.66645
G1 X169.281 Y154.052 E8.76847
G1 X168.908 Y155.461 E8.84119
G1 X168.739 Y156.089 E8.87363
G1 X168.016 Y157.974 E8.97435
G1 X167.085 Y159.811 E9.07710
G1 X166.056 Y161.403 E9.17167
G1 X165.950 Y161.570 E9.18154
G1 X164.642 Y163.184 E9.28519
G1 X163.216 Y164.611 E9.38583
G1 X161.881 Y165.699 E9.47175
G1 X161.578 Y165.943 E9.49116
G1 X160.014 Y166.959 E9.58421
G1 X159.839 Y167.071 E9.59458
G1 X158.052 Y167.981 E9.69462
G1 X156.139 Y168.720 E9.79694
G1 X155.478 Y168.903 E9.83116
G1 X154.096 Y169.273 E9.90253
G1 X152.101 Y169.589 E10.00330
G1 X150.005 Y169.705 E10.10803
G1 X147.967 Y169.599 E10.20985
G1 X145.947 Y169.281 E10.31187
G1 X144.538 Y168.908 E10.38458
G1 X143.910 Y168.739 E10.41703
G1 X142.024 Y168.016 E10.51780
G1 X140.189 Y167.085 E10.62046
G1 X138.616 Y166.068 E10.71391
G1 X138.616 Y166.069 E10.71396
G1 X138.430 Y165.950 E10.72497
G1 X137.191 Y164.949 E10.80444
G1 X136.811 Y164.638 E10.82894
G1 X135.388 Y163.216 E10.92930
G1 X134.300 Y161.881 E11.01522
G1 X134.056 Y161.578 E11.03463
G1 X133.040 Y160.014 E11.12768
G1 X132.928 Y159.839 E11.13805
G1 X132.018 Y158.052 E11.23809
G1 X131.279 Y156.139 E11.34041
G1 X131.096 Y155.478 E11.37462
G1 X130.726 Y154.096 E11.44600
G1 X130.410 Y152.100 E11.54682
G1 X130.296 Y150.005 E11.65150
G1 X130.400 Y147.968 E11.75326
G1 X130.718 Y145.947 E11.85532
G1 X131.091 Y144.538 E11.92804
G1 X131.260 Y143.910 E11.96049
G1 X131.983 Y142.024 E12.06126
G1 X132.914 Y140.189 E12.16391
G1 X133.931 Y138.616 E12.25736
G1 X133.930 Y138.616 E12.25741
G1 X134.049 Y138.430 E12.26843
G1 X135.050 Y137.191 E12.34790
G1 X135.361 Y136.811 E12.37240
G1 X136.783 Y135.388 E12.47276
G1 F2400 E8.47276
G0 F9000 X139.332 Y138.213
;TYPE:WALL-INNER
G1 F2400 E12.47276
G1 F1800 X140.511 Y137.252 E12.54865
G1 X140.650 Y137.140 E12.55755
G1 X142.039 Y136.237 E12.64021
G1 X143.498 Y135.493 E12.72191
G1 X145.058 Y134.890 E12.80535
G1 X145.516 Y134.763 E12.82907
G1 X146.694 Y134.448 E12.88990
G1 X148.305 Y134.193 E12.97128
G1 X150.002 Y134.101 E13.05606
G1 X151.633 Y134.184 E13.13754
G1 X153.272 Y134.443 E13.22032
G1 X154.484 Y134.763 E13.28286
G1 X154.910 Y134.877 E13.30486
G1 X156.433 Y135.461 E13.38624
G1 X157.911 Y136.210 E13.46891
G1 X159.341 Y137.135 E13.55388
G1 X160.641 Y138.187 E13.63731
G1 X161.786 Y139.332 E13.71809
G1 X162.745 Y140.508 E13.79380
G1 X162.859 Y140.650 E13.80289
G1 X163.765 Y142.044 E13.88583
G1 X164.506 Y143.498 E13.96725
G1 X165.109 Y145.057 E14.05064
G1 X165.236 Y145.516 E14.07440
G1 X165.551 Y146.694 E14.13524
G1 X165.806 Y148.305 E14.21661
G1 X165.899 Y150.000 E14.30130
G1 X165.815 Y151.632 E14.38283
G1 X165.556 Y153.272 E14.46566
G1 X165.237 Y154.481 E14.52805
G1 X165.122 Y154.910 E14.55020
G1 X164.538 Y156.433 E14.63158
G1 X163.789 Y157.911 E14.71425
G1 X162.864 Y159.341 E14.79922
G1 X161.812 Y160.641 E14.88265
G1 X160.667 Y161.786 E14.96343
G1 X159.488 Y162.747 E15.03932
G1 X159.349 Y162.859 E15.04823
G1 X157.961 Y163.762 E15.13084
G1 X156.501 Y164.506 E15.21259
G1 X154.941 Y165.109 E15.29603
G1 X154.483 Y165.236 E15.31974
G1 X153.305 Y165.551 E15.38058
G1 X151.694 Y165.806 E15.46195
G1 X149.998 Y165.899 E15.54669
G1 X148.367 Y165.815 E15.62817
G1 X146.727 Y165.556 E15.71101
G1 X145.515 Y165.236 E15.77354
G1 X145.089 Y165.122 E15.79555
G1 X143.566 Y164.538 E15.87692
G1 X142.089 Y163.789 E15.95954
G1 X140.658 Y162.864 E16.04455
G1 X139.586 Y161.998 E16.11331
G1 X139.360 Y161.814 E16.12785
G1 X138.213 Y160.667 E16.20877
G1 X137.252 Y159.488 E16.28466
G1 X137.140 Y159.349 E16.29356
G1 X136.234 Y157.956 E16.37647
G1 X135.493 Y156.501 E16.45793
G1 X134.890 Y154.941 E16.54137
G1 X134.763 Y154.483 E16.56508
G1 X134.448 Y153.305 E16.62592
G1 X134.193 Y151.694 E16.70729
G1 X134.101 Y149.998 E16.79203
G1 X134.184 Y148.366 E16.87355
G1 X134.443 Y146.727 E16.95634
G1 X134.762 Y145.518 E17.01872
G1 X134.880 Y145.081 E17.04130
G1 X135.461 Y143.566 E17.12226
G1 X136.210 Y142.089 E17.20488
G1 X137.135 Y140.658 E17.28989
G1 X137.999 Y139.588 E17.35850
G1 X138.185 Y139.360 E17.37318
G1 X139.332 Y138.213 E17.45411
G0 F9000 X140.072 Y139.486
G1 F1800 X139.827 Y139.667 E17.46930
G1 X139.614 Y139.891 E17.48472
G1 X139.446 Y140.141 E17.49975
G1 X139.319 Y140.423 E17.51518
G1 X139.244 Y140.714 E17.53017
G1 X139.217 Y141.025 E17.54575
G1 X139.245 Y141.330 E17.56103
G1 X139.322 Y141.626 E17.57629
G1 X139.450 Y141.903 E17.59151
G1 X139.617 Y142.151 E17.60643
G1 X139.832 Y142.375 E17.62192
G1 X140.080 Y142.557 E17.63726
G1 X140.353 Y142.693 E17.65248
G1 X140.639 Y142.781 E17.66741
G1 X140.941 Y142.819 E17.68260
G1 X141.253 Y142.807 E17.69817
G1 X141.555 Y142.741 E17.71360
G1 X141.835 Y142.625 E17.72872
G1 X142.095 Y142.466 E17.74392
G1 X142.325 Y142.262 E17.75926
G1 X142.514 Y142.025 E17.77438
G1 X142.661 Y141.763 E17.78937
G1 X142.764 Y141.473 E17.80472
G1 X142.813 Y141.183 E17.81940
G1 X142.819 Y141.017 E17.82768
G1 X142.813 Y140.849 E17.83607
G1 X142.762 Y140.558 E17.85081
G1 X142.658 Y140.271 E17.86604
G1 X142.509 Y140.006 E17.88121
G1 X142.317 Y139.768 E17.89646
G1 X142.086 Y139.566 E17.91177
G1 X141.829 Y139.410 E17.92677
G1 X141.548 Y139.296 E17.94190
G1 X141.249 Y139.232 E17.95716
G1 X140.937 Y139.218 E17.97274
G1 X140.631 Y139.259 E17.98814
G1 X140.342 Y139.350 E18.00326
G1 X140.072 Y139.486 E18.01834
G0 F9000 X141.547 Y139.297
G0 X142.657 Y140.272
G0 X142.661 Y141.762
G0 X143.105 Y142.617
G1 F1800 X142.163 Y143.624 E18.08713
G1 X141.369 Y144.751 E18.15591
G1 X140.734 Y145.975 E18.22471
G1 X140.273 Y147.274 E18.29347
G1 X139.992 Y148.624 E18.36227
G1 X139.899 Y150.000 E18.43108
G1 X139.989 Y151.356 E18.49888
G1 X140.273 Y152.725 E18.56863
G1 X140.734 Y154.023 E18.63735
G1 X141.199 Y154.922 E18.68785
G1 X141.370 Y155.249 E18.70626
G1 X142.163 Y156.375 E18.77496
G1 X143.105 Y157.382 E18.84376
G1 X144.174 Y158.252 E18.91252
G1 X145.004 Y158.757 E18.96099
G1 X145.353 Y158.968 E18.98134
G1 X146.616 Y159.518 E19.05007
G1 X147.945 Y159.890 E19.11892
G1 X149.310 Y160.077 E19.18766
G1 X150.689 Y160.077 E19.25645
G1 X151.991 Y159.900 E19.32201
G1 X153.381 Y159.518 E19.39393
G1 X154.647 Y158.968 E19.46279
G1 X155.825 Y158.252 E19.53157
G1 X156.894 Y157.382 E19.60033
G1 X157.836 Y156.375 E19.66912
G1 X158.630 Y155.248 E19.73790
G1 X159.265 Y154.024 E19.80670
G1 X159.726 Y152.725 E19.87546
G1 X160.007 Y151.375 E19.94426
G1 X160.101 Y150.000 E20.01302
G1 X160.010 Y148.643 E20.08087
G1 X159.726 Y147.274 E20.15063
G1 X159.265 Y145.976 E20.21935
G1 X158.800 Y145.077 E20.26984
G1 X158.629 Y144.750 E20.28825
G1 X157.836 Y143.624 E20.35696
G1 X156.894 Y142.617 E20.42576
G1 X155.825 Y141.747 E20.49452
G1 X154.995 Y141.242 E20.54299
G1 X154.646 Y141.031 E20.56334
G1 X153.383 Y140.481 E20.63206
G1 X152.054 Y140.109 E20.70092
G1 X150.689 Y139.922 E20.76965
G1 X149.310 Y139.922 E20.83845
G1 X148.008 Y140.099 E20.90400
G1 X146.618 Y140.481 E20.97592
G1 X145.352 Y141.031 E21.04479
G1 X144.174 Y141.747 E21.11356
G1 X143.105 Y142.617 E21.18233
G0 F9000 X148.340 Y138.366
G1 F1800 X148.579 Y138.617 E21.19962
G1 X148.892 Y138.842 E21.21885
G1 X149.215 Y139.002 E21.23683
G1 X149.547 Y139.104 E21.25416
G1 X149.911 Y139.150 E21.27246
G1 X150.292 Y139.131 E21.29150
G1 X150.633 Y139.057 E21.30890
G1 X150.985 Y138.911 E21.32792
G1 X151.279 Y138.730 E21.34514
G1 X151.554 Y138.489 E21.36338
G1 X151.785 Y138.201 E21.38180
G1 X151.968 Y137.864 E21.40093
G1 X152.085 Y137.522 E21.41897
G1 X152.142 Y137.196 E21.43548
G1 X152.151 Y136.986 E21.44597
G1 X152.138 Y136.778 E21.45636
G1 X152.076 Y136.438 E21.47360
G1 X151.961 Y136.113 E21.49080
G1 X151.783 Y135.795 E21.50899
G1 X151.552 Y135.508 E21.52737
G1 X151.262 Y135.258 E21.54647
G1 X150.968 Y135.077 E21.56369
G1 X150.629 Y134.941 E21.58192
G1 X150.272 Y134.865 E21.60013
G1 X149.906 Y134.849 E21.61840
G1 X149.525 Y134.902 E21.63759
G1 X149.176 Y135.012 E21.65585
G1 X148.852 Y135.181 E21.67408
G1 X148.559 Y135.401 E21.69236
G1 X148.312 Y135.667 E21.71047
G1 X148.110 Y135.971 E21.72868
G1 X147.965 Y136.303 E21.74676
G1 X147.879 Y136.635 E21.76387
G1 X147.846 Y137.003 E21.78230
G1 X147.884 Y137.387 E21.80155
G1 X147.979 Y137.737 E21.81964
G1 X148.133 Y138.069 E21.83790
G1 X148.340 Y138.366 E21.85596
G0 F9000 X149.912 Y139.148
G0 X157.203 Y140.715
G1 F1800 X157.178 Y141.025 E21.87148
G1 X157.205 Y141.328 E21.88666
G1 X157.282 Y141.626 E21.90201
G1 X157.410 Y141.904 E21.91728
G1 X157.582 Y142.156 E21.93250
G1 X157.794 Y142.376 E21.94774
G1 X158.041 Y142.557 E21.96302
G1 X158.312 Y142.693 E21.97815
G1 X158.601 Y142.781 E21.99322
G1 X158.902 Y142.819 E22.00836
G1 X159.213 Y142.807 E22.02388
G1 X159.515 Y142.741 E22.03931
G1 X159.796 Y142.625 E22.05447
G1 X160.052 Y142.468 E22.06946
G1 X160.269 Y142.276 E22.08391
G1 X160.474 Y142.028 E22.09996
G1 X160.622 Y141.762 E22.11515
G1 X160.724 Y141.473 E22.13044
G1 X160.773 Y141.186 E22.14497
G1 X160.781 Y141.017 E22.15341
G1 X160.773 Y140.847 E22.16190
G1 X160.722 Y140.558 E22.17654
G1 X160.619 Y140.273 E22.19166
G1 X160.470 Y140.005 E22.20696
G1 X160.274 Y139.765 E22.22242
G1 X160.047 Y139.567 E22.23744
G1 X159.790 Y139.410 E22.25247
G1 X159.508 Y139.296 E22.26764
G1 X159.209 Y139.232 E22.28290
G1 X158.898 Y139.218 E22.29843
G1 X158.593 Y139.259 E22.31378
G1 X158.302 Y139.350 E22.32900
G1 X158.032 Y139.486 E22.34408
G1 X157.789 Y139.666 E22.35916
G1 X157.575 Y139.891 E22.37466
G1 X157.406 Y140.141 E22.38971
G1 X157.279 Y140.423 E22.40514
G1 X157.203 Y140.715 E22.42019
G0 F9000 X157.583 Y142.155
G0 X161.852 Y148.181
G1 F1800 X161.559 Y148.401 E22.43847
G1 X161.312 Y148.667 E22.45658
G1 X161.110 Y148.971 E22.47479
G1 X160.965 Y149.303 E22.49287
G1 X160.879 Y149.635 E22.50998
G1 X160.846 Y150.003 E22.52841
G1 X160.884 Y150.387 E22.54766
G1 X160.979 Y150.737 E22.56576
G1 X161.133 Y151.069 E22.58402
G1 X161.340 Y151.366 E22.60208
G1 X161.579 Y151.617 E22.61937
G1 X161.892 Y151.842 E22.63860
G1 X162.215 Y152.002 E22.65658
G1 X162.547 Y152.104 E22.67391
G1 X162.911 Y152.150 E22.69221
G1 X163.292 Y152.131 E22.71125
G1 X163.633 Y152.057 E22.72866
G1 X163.985 Y151.911 E22.74767
G1 X164.279 Y151.730 E22.76489
G1 X164.554 Y151.489 E22.78313
G1 X164.785 Y151.201 E22.80155
G1 X164.968 Y150.864 E22.82069
G1 X165.085 Y150.522 E22.83872
G1 X165.142 Y150.196 E22.85523
G1 X165.151 Y149.986 E22.86572
G1 X165.138 Y149.778 E22.87611
G1 X165.076 Y149.438 E22.89336
G1 X164.961 Y149.113 E22.91056
G1 X164.783 Y148.795 E22.92874
G1 X164.552 Y148.508 E22.94712
G1 X164.262 Y148.258 E22.96622
G1 X163.968 Y148.077 E22.98344
G1 X163.629 Y147.941 E23.00167
G1 X163.272 Y147.865 E23.01988
G1 X162.906 Y147.849 E23.03815
G1 X162.525 Y147.902 E23.05735
G1 X162.176 Y148.012 E23.07560
G1 X161.852 Y148.181 E23.09383
G0 F9000 X160.879 Y149.636
G0 X159.508 Y157.256
G1 F1800 X159.208 Y157.191 E23.10915
G1 X158.897 Y157.179 E23.12467
G1 X158.594 Y157.220 E23.13993
G1 X158.302 Y157.310 E23.15517
G1 X158.030 Y157.449 E23.17041
G1 X157.785 Y157.631 E23.18564
G1 X157.575 Y157.852 E23.20085
G1 X157.406 Y158.102 E23.21590
G1 X157.279 Y158.384 E23.23133
G1 X157.203 Y158.676 E23.24639
G1 X157.178 Y158.986 E23.26190
G1 X157.205 Y159.289 E23.27708
G1 X157.282 Y159.587 E23.29244
G1 X157.410 Y159.864 E23.30766
G1 X157.578 Y160.113 E23.32265
G1 X157.794 Y160.337 E23.33817
G1 X158.042 Y160.518 E23.35349
G1 X158.312 Y160.653 E23.36855
G1 X158.599 Y160.742 E23.38354
G1 X158.904 Y160.781 E23.39888
G1 X159.214 Y160.767 E23.41436
G1 X159.515 Y160.701 E23.42973
G1 X159.796 Y160.585 E23.44490
G1 X160.055 Y160.425 E23.46009
G1 X160.276 Y160.230 E23.47479
G1 X160.475 Y159.987 E23.49046
G1 X160.622 Y159.721 E23.50563
G1 X160.724 Y159.434 E23.52082
G1 X160.773 Y159.147 E23.53535
G1 X160.781 Y158.978 E23.54379
G1 X160.773 Y158.808 E23.55228
G1 X160.722 Y158.518 E23.56697
G1 X160.619 Y158.232 E23.58214
G1 X160.469 Y157.964 E23.59746
G1 X160.267 Y157.721 E23.61322
G1 X160.048 Y157.529 E23.62775
G1 X159.792 Y157.371 E23.64276
G1 X159.508 Y157.256 E23.65805
G0 F9000 X158.031 Y157.449
G0 X151.783 Y161.795
G1 F1800 X151.552 Y161.508 E23.67643
G1 X151.262 Y161.258 E23.69553
G1 X150.968 Y161.077 E23.71276
G1 X150.629 Y160.941 E23.73098
G1 X150.272 Y160.865 E23.74919
G1 X149.906 Y160.849 E23.76747
G1 X149.525 Y160.902 E23.78666
G1 X149.176 Y161.012 E23.80491
G1 X148.852 Y161.181 E23.82314
G1 X148.559 Y161.401 E23.84142
G1 X148.312 Y161.667 E23.85953
