;Generated with Cura_SteamEngine 15.01
; Default start code
G28 ; Home extruder
G1 Z15 F2000
M107 ; Turn off fan
G90 ; Absolute positioning
M82 ; Extruder in absolute mode
M104 T0 S180
M190 S50
; Activate all used extruder
G92 E0 ; Reset extruder position
; Wait for all used extruders to reach temperature
M109 T0 S210 R210
;Layer count: 10
;LAYER:0
M107
G0 F9000 X127.503 Y37.265 Z0.300
G0 X127.391 Y37.676
;TYPE:SKIRT
G1 F1800 X127.503 Y37.265 E0.02125
G1 X128.479 Y34.678 E0.15920
G1 X129.548 Y32.540 E0.27845
G1 X129.733 Y32.171 E0.29905
G1 X131.234 Y29.811 E0.43858
G1 X132.752 Y27.892 E0.56066
G1 X133.108 Y27.473 E0.58809
G1 X134.044 Y26.514 E0.65494
G1 X134.928 Y25.608 E0.71810
G1 X136.761 Y24.079 E0.83718
G1 X137.075 Y23.816 E0.85762
G1 X139.402 Y22.250 E0.99755
G1 X141.511 Y21.128 E1.11673
G1 X141.873 Y20.935 E1.13720
G1 X144.179 Y19.997 E1.26140
G1 X144.932 Y19.744 E1.30103
G1 X145.596 Y19.551 E1.33553
G1 X147.159 Y19.096 E1.41675
G1 X149.501 Y18.670 E1.53551
G1 X149.911 Y18.594 E1.55631
G1 X152.296 Y18.410 E1.67565
G1 X152.700 Y18.378 E1.69587
G1 X155.098 Y18.438 E1.81554
G1 X155.511 Y18.450 E1.83616
G1 X157.877 Y18.757 E1.95519
G1 X158.285 Y18.810 E1.97571
G1 X160.627 Y19.362 E2.09576
G1 X161.066 Y19.471 E2.11832
G1 X161.937 Y19.776 E2.16437
G1 X161.937 Y19.775 E2.16442
G1 X163.655 Y20.373 E2.25517
G1 X165.820 Y21.386 E2.37442
G1 X166.192 Y21.561 E2.39493
G1 X168.242 Y22.791 E2.51420
G1 X168.595 Y23.005 E2.53480
G1 X170.563 Y24.480 E2.65750
G1 X171.034 Y24.869 E2.68798
G1 X172.421 Y26.153 E2.78227
G1 X172.889 Y26.585 E2.81405
G1 X174.461 Y28.376 E2.93294
G1 X174.736 Y28.687 E2.95365
G1 X176.118 Y30.632 E3.07269
G1 X176.119 Y30.632 E3.07274
G1 X176.360 Y30.971 E3.09349
G1 X177.538 Y33.052 E3.21279
G1 X177.740 Y33.411 E3.23334
G1 X178.754 Y35.728 E3.35952
G1 X179.350 Y37.507 E3.45313
G1 X179.714 Y38.645 E3.51273
G1 X180.201 Y40.978 E3.63164
G1 X180.287 Y41.385 E3.65239
G1 X180.531 Y43.755 E3.77125
G1 X180.571 Y44.128 E3.78997
G1 X180.607 Y45.573 E3.86208
G1 X180.571 Y47.013 E3.93395
G1 X180.330 Y49.352 E4.05126
G1 X180.286 Y49.763 E4.07188
G1 X179.789 Y52.144 E4.19323
G1 X179.669 Y52.642 E4.21879
G1 X179.357 Y53.617 E4.26986
G1 X179.358 Y53.617 E4.26991
G1 X178.862 Y55.169 E4.35120
G1 X177.905 Y57.358 E4.47039
G1 X177.741 Y57.734 E4.49085
G1 X176.564 Y59.814 E4.61009
G1 X176.362 Y60.172 E4.63059
G1 X174.976 Y62.122 E4.74995
G1 X174.736 Y62.458 E4.77055
G1 X173.090 Y64.332 E4.89499
G1 X172.462 Y64.955 E4.93912
G1 X170.833 Y66.463 E5.04987
G1 X168.922 Y67.896 E5.16904
G1 X168.594 Y68.143 E5.18952
G1 X166.545 Y69.373 E5.30875
G1 X166.545 Y69.372 E5.30880
G1 X166.196 Y69.584 E5.32917
G1 X164.029 Y70.598 E5.44854
G1 X163.656 Y70.773 E5.46909
G1 X161.529 Y71.512 E5.58143
G1 X161.011 Y71.693 E5.60881
G1 X158.684 Y72.242 E5.72809
G1 X158.284 Y72.336 E5.74859
G1 X155.914 Y72.643 E5.86782
G1 X155.508 Y72.696 E5.88824
G1 X153.127 Y72.757 E6.00707
G1 X152.711 Y72.768 E6.02783
G1 X150.320 Y72.584 E6.14747
G1 X149.908 Y72.551 E6.16809
G1 X147.561 Y72.124 E6.28711
G1 X147.156 Y72.049 E6.30766
G1 X145.441 Y71.551 E6.39675
G1 X144.468 Y71.267 E6.44732
G1 X142.252 Y70.366 E6.56667
G1 X141.870 Y70.210 E6.58725
G1 X139.764 Y69.089 E6.70628
G1 X139.400 Y68.894 E6.72688
G1 X137.420 Y67.562 E6.84594
G1 X137.078 Y67.332 E6.86650
G1 X135.212 Y65.775 E6.98774
G1 X134.846 Y65.454 E7.01203
G1 X132.972 Y63.532 E7.14596
G1 X131.490 Y61.658 E7.26515
G1 X131.236 Y61.337 E7.28558
G1 X129.731 Y58.972 E7.42543
G1 X128.666 Y56.841 E7.54428
G1 X128.480 Y56.470 E7.56499
G1 X127.608 Y54.160 E7.68817
G1 X127.410 Y53.540 E7.72064
G1 X126.777 Y51.137 E7.84462
G1 X126.410 Y48.777 E7.96378
G1 X126.347 Y48.370 E7.98432
G1 X126.223 Y45.985 E8.10347
G1 X126.202 Y45.574 E8.12400
G1 X126.325 Y43.185 E8.24335
G1 X126.347 Y42.774 E8.26388
G1 X126.714 Y40.417 E8.38289
G1 X126.777 Y40.010 E8.40344
G1 X127.391 Y37.676 E8.52384
G1 F2400 E4.52384
G0 F9000 X131.062 Y38.659
;TYPE:WALL-INNER
G1 F2400 E8.52384
G1 F1800 X131.123 Y38.434 E8.53548
G1 X131.964 Y36.207 E8.65424
G1 X132.946 Y34.241 E8.76388
G1 X133.042 Y34.049 E8.77459
G1 X134.333 Y32.018 E8.89465
G1 X135.696 Y30.295 E9.00426
G1 X135.915 Y30.038 E9.02110
G1 X137.515 Y28.398 E9.13541
G1 X139.360 Y26.859 E9.25528
G1 X141.359 Y25.513 E9.37551
G1 X143.296 Y24.482 E9.48498
G1 X143.485 Y24.381 E9.49568
G1 X145.500 Y23.562 E9.60419
G1 X146.074 Y23.369 E9.63440
G1 X148.035 Y22.799 E9.73629
G1 X150.189 Y22.407 E9.84552
G1 X150.405 Y22.367 E9.85648
G1 X152.589 Y22.199 E9.96576
G1 X152.803 Y22.182 E9.97647
G1 X154.995 Y22.237 E10.08586
G1 X155.215 Y22.243 E10.09684
G1 X157.600 Y22.553 E10.21683
G1 X159.735 Y23.056 E10.32626
G1 X159.980 Y23.117 E10.33886
G1 X162.223 Y23.898 E10.45735
G1 X164.402 Y24.918 E10.57738
G1 X166.282 Y26.047 E10.68679
G1 X166.470 Y26.161 E10.69776
G1 X168.208 Y27.463 E10.80610
G1 X168.534 Y27.733 E10.82722
G1 X170.163 Y29.241 E10.93797
G1 X171.611 Y30.888 E11.04738
G1 X171.753 Y31.050 E11.05812
G1 X173.150 Y33.015 E11.17841
G1 X174.337 Y35.112 E11.29863
G1 X175.204 Y37.095 E11.40660
G1 X175.737 Y38.684 E11.49022
G1 X176.035 Y39.619 E11.53918
G1 X176.483 Y41.761 E11.64835
G1 X176.527 Y41.970 E11.65901
G1 X176.752 Y44.153 E11.76850
G1 X176.776 Y44.378 E11.77979
G1 X176.806 Y45.573 E11.83942
G1 X176.776 Y46.769 E11.89911
G1 X176.550 Y48.957 E12.00885
G1 X176.527 Y49.178 E12.01994
G1 X176.083 Y51.303 E12.12824
G1 X176.010 Y51.605 E12.14374
G1 X175.300 Y53.831 E12.26031
G1 X174.337 Y56.034 E12.38026
G1 X173.150 Y58.131 E12.50048
G1 X171.754 Y60.095 E12.62069
G1 X170.322 Y61.725 E12.72894
G1 X169.827 Y62.216 E12.76372
G1 X168.396 Y63.541 E12.86102
G1 X166.642 Y64.856 E12.97039
G1 X166.468 Y64.987 E12.98126
G1 X164.589 Y66.115 E13.09060
G1 X164.397 Y66.230 E13.10176
G1 X162.229 Y67.246 E13.22121
G1 X159.945 Y68.040 E13.34185
G1 X157.600 Y68.593 E13.46205
G1 X155.215 Y68.902 E13.58203
G1 X153.020 Y68.958 E13.69158
G1 X152.799 Y68.964 E13.70261
G1 X150.620 Y68.796 E13.81164
G1 X150.400 Y68.778 E13.82265
G1 X148.247 Y68.386 E13.93183
G1 X148.030 Y68.346 E13.94284
G1 X145.722 Y67.675 E14.06276
G1 X143.688 Y66.848 E14.17230
G1 X143.492 Y66.768 E14.18286
G1 X141.359 Y65.632 E14.30343
G1 X139.360 Y64.287 E14.42363
G1 X137.678 Y62.884 E14.53291
G1 X137.475 Y62.705 E14.54641
G1 X135.829 Y61.019 E14.66396
G1 X134.470 Y59.300 E14.77329
G1 X134.334 Y59.129 E14.78419
G1 X133.045 Y57.101 E14.90408
G1 X132.062 Y55.136 E15.01369
G1 X131.965 Y54.943 E15.02447
G1 X131.197 Y52.906 E15.13308
G1 X131.060 Y52.480 E15.15540
G1 X130.503 Y50.362 E15.26466
G1 X130.131 Y47.976 E15.38514
G1 X130.007 Y45.573 E15.50519
G1 X130.131 Y43.170 E15.62523
G1 X130.503 Y40.784 E15.74571
G1 X131.062 Y38.659 E15.85533
G0 F9000 X132.572 Y43.591
G1 F1800 X132.254 Y43.758 E15.87325
G1 X131.984 Y43.957 E15.88998
G1 X131.732 Y44.221 E15.90819
G1 X131.524 Y44.527 E15.92665
G1 X131.370 Y44.886 E15.94614
G1 X131.286 Y45.208 E15.96274
G1 X131.253 Y45.577 E15.98123
G1 X131.293 Y45.967 E16.00078
G1 X131.377 Y46.290 E16.01744
G1 X131.529 Y46.627 E16.03588
G1 X131.757 Y46.951 E16.05565
G1 X132.012 Y47.209 E16.07374
G1 X132.310 Y47.422 E16.09202
G1 X132.634 Y47.578 E16.10996
G1 X132.952 Y47.676 E16.12656
G1 X133.320 Y47.724 E16.14507
G1 X133.714 Y47.701 E16.16476
G1 X134.069 Y47.619 E16.18294
G1 X134.407 Y47.477 E16.20123
G1 X134.713 Y47.280 E16.21939
G1 X134.984 Y47.034 E16.23765
G1 X135.204 Y46.751 E16.25553
G1 X135.368 Y46.459 E16.27224
G1 X135.489 Y46.115 E16.29043
G1 X135.549 Y45.766 E16.30810
G1 X135.557 Y45.552 E16.31878
G1 X135.543 Y45.341 E16.32933
G1 X135.479 Y45.001 E16.34660
G1 X135.366 Y44.682 E16.36348
G1 X135.169 Y44.341 E16.38313
G1 X134.934 Y44.058 E16.40148
G1 X134.654 Y43.823 E16.41972
G1 X134.342 Y43.638 E16.43781
G1 X134.008 Y43.510 E16.45566
G1 X133.681 Y43.438 E16.47236
G1 X133.311 Y43.422 E16.49084
G1 X132.919 Y43.478 E16.51059
G1 X132.572 Y43.591 E16.52880
G0 F9000 X138.168 Y33.280
G1 F1800 X138.491 Y33.436 E16.54670
G1 X138.811 Y33.535 E16.56341
G1 X139.178 Y33.581 E16.58186
G1 X139.571 Y33.559 E16.60150
G1 X139.927 Y33.477 E16.61972
G1 X140.265 Y33.335 E16.63802
G1 X140.572 Y33.137 E16.65624
G1 X140.841 Y32.892 E16.67439
G1 X141.062 Y32.610 E16.69227
G1 X141.226 Y32.317 E16.70902
G1 X141.347 Y31.973 E16.72721
G1 X141.407 Y31.624 E16.74488
G1 X141.415 Y31.410 E16.75556
G1 X141.401 Y31.199 E16.76611
G1 X141.337 Y30.859 E16.78337
G1 X141.224 Y30.540 E16.80026
G1 X141.026 Y30.198 E16.81997
G1 X140.791 Y29.916 E16.83829
G1 X140.513 Y29.681 E16.85645
G1 X140.200 Y29.496 E16.87459
G1 X139.866 Y29.368 E16.89243
G1 X139.539 Y29.296 E16.90914
G1 X139.169 Y29.280 E16.92761
G1 X138.777 Y29.336 E16.94737
G1 X138.429 Y29.449 E16.96562
G1 X138.111 Y29.616 E16.98354
G1 X137.842 Y29.815 E17.00024
G1 X137.589 Y30.079 E17.01848
G1 X137.382 Y30.386 E17.03695
G1 X137.228 Y30.743 E17.05635
G1 X137.144 Y31.066 E17.07300
G1 X137.111 Y31.435 E17.09148
G1 X137.151 Y31.825 E17.11104
G1 X137.235 Y32.148 E17.12769
G1 X137.387 Y32.485 E17.14614
G1 X137.614 Y32.809 E17.16587
G1 X137.871 Y33.068 E17.18408
G1 X138.168 Y33.280 E17.20228
G0 F9000 X139.927 Y33.476
G0 X141.225 Y32.316
G0 X151.529 Y26.627
G1 F1800 X151.757 Y26.951 E17.22205
G1 X152.012 Y27.209 E17.24015
G1 X152.310 Y27.422 E17.25842
G1 X152.634 Y27.578 E17.27636
G1 X152.952 Y27.676 E17.29296
G1 X153.320 Y27.724 E17.31148
G1 X153.714 Y27.701 E17.33117
G1 X154.069 Y27.619 E17.34935
G1 X154.407 Y27.477 E17.36764
G1 X154.713 Y27.280 E17.38579
G1 X154.984 Y27.034 E17.40405
G1 X155.204 Y26.751 E17.42194
G1 X155.368 Y26.459 E17.43864
G1 X155.489 Y26.115 E17.45684
G1 X155.549 Y25.766 E17.47450
G1 X155.557 Y25.552 E17.48519
G1 X155.543 Y25.341 E17.49574
G1 X155.479 Y25.001 E17.51300
G1 X155.366 Y24.682 E17.52988
G1 X155.169 Y24.341 E17.54953
G1 X154.934 Y24.058 E17.56788
G1 X154.654 Y23.823 E17.58612
G1 X154.342 Y23.638 E17.60422
G1 X154.008 Y23.510 E17.62206
G1 X153.681 Y23.438 E17.63877
G1 X153.311 Y23.422 E17.65724
G1 X152.919 Y23.478 E17.67700
G1 X152.572 Y23.591 E17.69521
G1 X152.254 Y23.758 E17.71313
G1 X151.984 Y23.957 E17.72986
G1 X151.732 Y24.221 E17.74807
G1 X151.524 Y24.527 E17.76653
G1 X151.370 Y24.886 E17.78602
G1 X151.286 Y25.208 E17.80262
G1 X151.253 Y25.577 E17.82110
G1 X151.293 Y25.967 E17.84066
G1 X151.377 Y26.290 E17.85731
G1 X151.529 Y26.627 E17.87575
G0 F9000 X152.952 Y27.675
G0 X165.512 Y30.743
G1 F1800 X165.427 Y31.067 E17.89247
G1 X165.397 Y31.435 E17.91089
G1 X165.434 Y31.824 E17.93038
G1 X165.519 Y32.148 E17.94709
G1 X165.671 Y32.485 E17.96554
G1 X165.900 Y32.810 E17.98537
G1 X166.156 Y33.067 E18.00347
G1 X166.452 Y33.280 E18.02166
G1 X166.776 Y33.436 E18.03960
G1 X167.095 Y33.535 E18.05627
G1 X167.462 Y33.581 E18.07472
G1 X167.855 Y33.559 E18.09436
G1 X168.211 Y33.477 E18.11258
G1 X168.549 Y33.335 E18.13087
G1 X168.855 Y33.138 E18.14903
G1 X169.126 Y32.892 E18.16729
G1 X169.346 Y32.609 E18.18517
G1 X169.509 Y32.318 E18.20181
G1 X169.632 Y31.973 E18.22009
G1 X169.691 Y31.625 E18.23770
G1 X169.700 Y31.410 E18.24843
G1 X169.685 Y31.198 E18.25904
G1 X169.622 Y30.859 E18.27624
G1 X169.508 Y30.539 E18.29319
G1 X169.311 Y30.199 E18.31279
G1 X169.076 Y29.916 E18.33114
G1 X168.796 Y29.681 E18.34938
G1 X168.484 Y29.496 E18.36748
G1 X168.150 Y29.368 E18.38532
G1 X167.823 Y29.296 E18.40203
G1 X167.453 Y29.280 E18.42050
G1 X167.061 Y29.336 E18.44026
G1 X166.714 Y29.449 E18.45847
G1 X166.395 Y29.616 E18.47643
G1 X166.127 Y29.815 E18.49308
G1 X165.875 Y30.078 E18.51125
G1 X165.667 Y30.385 E18.52976
G1 X165.512 Y30.743 E18.54922
G0 F9000 X165.673 Y32.484
G0 X172.254 Y43.758
G1 F1800 X171.984 Y43.957 E18.56595
G1 X171.732 Y44.221 E18.58416
G1 X171.524 Y44.527 E18.60262
G1 X171.370 Y44.886 E18.62211
G1 X171.286 Y45.208 E18.63871
G1 X171.253 Y45.577 E18.65719
G1 X171.293 Y45.967 E18.67675
G1 X171.377 Y46.290 E18.69340
G1 X171.529 Y46.627 E18.71185
G1 X171.757 Y46.951 E18.73161
G1 X172.012 Y47.209 E18.74971
G1 X172.310 Y47.422 E18.76799
G1 X172.634 Y47.578 E18.78593
G1 X172.952 Y47.676 E18.80253
G1 X173.320 Y47.724 E18.82104
G1 X173.714 Y47.701 E18.84073
G1 X174.069 Y47.619 E18.85891
G1 X174.407 Y47.477 E18.87720
G1 X174.713 Y47.280 E18.89536
G1 X174.984 Y47.034 E18.91362
G1 X175.204 Y46.751 E18.93150
G1 X175.368 Y46.459 E18.94821
G1 X175.489 Y46.115 E18.96640
G1 X175.549 Y45.766 E18.98407
G1 X175.557 Y45.552 E18.99475
G1 X175.543 Y45.341 E19.00530
G1 X175.479 Y45.001 E19.02256
G1 X175.366 Y44.682 E19.03945
G1 X175.169 Y44.341 E19.05909
G1 X174.934 Y44.058 E19.07745
G1 X174.654 Y43.823 E19.09568
G1 X174.342 Y43.638 E19.11378
G1 X174.008 Y43.510 E19.13163
G1 X173.681 Y43.438 E19.14833
G1 X173.311 Y43.422 E19.16681
G1 X172.919 Y43.478 E19.18656
G1 X172.572 Y43.591 E19.20477
G1 X172.254 Y43.758 E19.22269
G0 F9000 X171.286 Y45.208
G0 X168.149 Y57.651
G1 F1800 X167.822 Y57.581 E19.23937
G1 X167.454 Y57.564 E19.25775
G1 X167.061 Y57.620 E19.27756
G1 X166.714 Y57.733 E19.29576
G1 X166.390 Y57.903 E19.31402
G1 X166.105 Y58.122 E19.33195
G1 X165.875 Y58.362 E19.34853
G1 X165.666 Y58.669 E19.36706
G1 X165.512 Y59.028 E19.38655
G1 X165.427 Y59.351 E19.40322
G1 X165.397 Y59.719 E19.42164
G1 X165.434 Y60.108 E19.44113
G1 X165.519 Y60.432 E19.45784
G1 X165.669 Y60.765 E19.47606
G1 X165.878 Y61.072 E19.49459
G1 X166.156 Y61.353 E19.51431
G1 X166.452 Y61.564 E19.53245
G1 X166.776 Y61.720 E19.55039
G1 X167.094 Y61.818 E19.56699
G1 X167.462 Y61.866 E19.58550
G1 X167.856 Y61.843 E19.60519
G1 X168.211 Y61.761 E19.62337
G1 X168.549 Y61.619 E19.64166
G1 X168.855 Y61.422 E19.65982
G1 X169.126 Y61.178 E19.67801
G1 X169.347 Y60.892 E19.69604
G1 X169.509 Y60.602 E19.71262
G1 X169.632 Y60.258 E19.73084
G1 X169.691 Y59.910 E19.74845
G1 X169.700 Y59.694 E19.75924
G1 X169.685 Y59.482 E19.76984
G1 X169.621 Y59.139 E19.78725
G1 X169.493 Y58.796 E19.80551
G1 X169.310 Y58.481 E19.82369
G1 X169.076 Y58.201 E19.84189
G1 X168.797 Y57.965 E19.86013
G1 X168.484 Y57.780 E19.87827
G1 X168.149 Y57.651 E19.89617
G0 F9000 X166.392 Y57.904
G0 X155.366 Y64.682
G1 F1800 X155.169 Y64.341 E19.91582
G1 X154.934 Y64.058 E19.93417
G1 X154.654 Y63.823 E19.95241
G1 X154.342 Y63.638 E19.97051
G1 X154.008 Y63.510 E19.98835
G1 X153.681 Y63.438 E20.00506
G1 X153.311 Y63.422 E20.02353
G1 X152.919 Y63.478 E20.04329
G1 X152.572 Y63.591 E20.06150
G1 X152.254 Y63.758 E20.07942
G1 X151.984 Y63.957 E20.09615
G1 X151.732 Y64.221 E20.11436
G1 X151.524 Y64.527 E20.13282
G1 X151.370 Y64.886 E20.15231
G1 X151.286 Y65.208 E20.16891
G1 X151.253 Y65.577 E20.18739
G1 X151.293 Y65.967 E20.20695
G1 X151.377 Y66.290 E20.22360
G1 X151.529 Y66.627 E20.24205
G1 X151.757 Y66.951 E20.26181
G1 X152.012 Y67.209 E20.27991
G1 X152.310 Y67.422 E20.29818
G1 X152.634 Y67.578 E20.31612
G1 X152.952 Y67.676 E20.33273
G1 X153.320 Y67.724 E20.35124
G1 X153.714 Y67.701 E20.37093
G1 X154.069 Y67.619 E20.38911
G1 X154.407 Y67.477 E20.40740
G1 X154.713 Y67.280 E20.42556
G1 X154.984 Y67.034 E20.44382
G1 X155.204 Y66.751 E20.46170
G1 X155.368 Y66.459 E20.47841
G1 X155.489 Y66.115 E20.49660
G1 X155.549 Y65.766 E20.51427
G1 X155.557 Y65.552 E20.52495
G1 X155.543 Y65.341 E20.53550
G1 X155.479 Y65.001 E20.55276
G1 X155.366 Y64.682 E20.56965
G0 F9000 X154.007 Y63.511
G0 X141.347 Y60.258
G1 F1800 X141.407 Y59.909 E20.58731
G1 X141.415 Y59.694 E20.59805
G1 X141.401 Y59.483 E20.60860
G1 X141.336 Y59.139 E20.62606
G1 X141.210 Y58.797 E20.64425
G1 X141.026 Y58.481 E20.66249
G1 X140.791 Y58.201 E20.68073
G1 X140.514 Y57.966 E20.69885
G1 X140.200 Y57.780 E20.71706
G1 X139.865 Y57.651 E20.73497
G1 X139.538 Y57.581 E20.75165
G1 X139.170 Y57.564 E20.77003
G1 X138.777 Y57.620 E20.78983
G1 X138.429 Y57.733 E20.80809
G1 X138.107 Y57.903 E20.82625
G1 X137.821 Y58.122 E20.84423
G1 X137.589 Y58.363 E20.86092
G1 X137.382 Y58.670 E20.87939
G1 X137.228 Y59.028 E20.89883
G1 X137.144 Y59.350 E20.91543
G1 X137.111 Y59.719 E20.93392
G1 X137.151 Y60.109 E20.95348
G1 X137.235 Y60.432 E20.97013
G1 X137.385 Y60.764 E20.98830
G1 X137.592 Y61.071 E21.00677
G1 X137.871 Y61.353 E21.02657
G1 X138.169 Y61.564 E21.04478
G1 X138.491 Y61.720 E21.06263
G1 X138.810 Y61.818 E21.07928
G1 X139.178 Y61.866 E21.09780
G1 X139.572 Y61.843 E21.11749
G1 X139.927 Y61.761 E21.13566
G1 X140.265 Y61.619 E21.15396
