;Generated with Cura_SteamEngine 15.01
; Default start code
G28 ; Home extruder
G1 Z15 F2000
M107 ; Turn off fan
G90 ; Absolute positioning
M82 ; Extruder in absolute mode
M104 T0 S180
M190 S50
; Activate all used extruder
G92 E0 ; Reset extruder position
; Wait for all used extruders to reach temperature
M109 T0 S210 R210
;Layer count: 45
;LAYER:0
M107
G0 F9000 X223.794 Y54.374 Z0.300
;TYPE:SKIRT
G1 F1800 X224.171 Y52.945 E0.07373
G1 X224.346 Y52.294 E0.10736
G1 X225.084 Y50.371 E0.21013
G1 X226.033 Y48.497 E0.31492
G1 X227.074 Y46.888 E0.41053
G1 X227.190 Y46.705 E0.42134
G1 X228.204 Y45.452 E0.50176
G1 X228.527 Y45.054 E0.52733
G1 X229.982 Y43.598 E0.63003
G1 X231.329 Y42.502 E0.71666
G1 X231.648 Y42.243 E0.73716
G1 X233.236 Y41.212 E0.83162
G1 X233.429 Y41.089 E0.84304
G1 X235.250 Y40.161 E0.94501
G1 X237.201 Y39.408 E1.04934
G1 X237.882 Y39.219 E1.08460
G1 X239.286 Y38.843 E1.15711
G1 X241.323 Y38.521 E1.26000
G1 X243.460 Y38.403 E1.36678
G1 X245.540 Y38.511 E1.47069
G1 X247.601 Y38.836 E1.57479
G1 X249.031 Y39.214 E1.64858
G1 X249.680 Y39.388 E1.68210
G1 X251.604 Y40.126 E1.78491
G1 X253.476 Y41.075 E1.88962
G1 X255.244 Y42.216 E1.99460
G1 X256.917 Y43.564 E2.10179
G1 X258.376 Y45.025 E2.20480
G1 X259.472 Y46.371 E2.29140
G1 X259.730 Y46.690 E2.31187
G1 X260.763 Y48.277 E2.40634
G1 X260.886 Y48.471 E2.41780
G1 X261.813 Y50.292 E2.51974
G1 X262.568 Y52.243 E2.62411
G1 X262.756 Y52.925 E2.65941
G1 X263.132 Y54.328 E2.73187
G1 X263.455 Y56.365 E2.83477
G1 X263.571 Y58.502 E2.94154
G1 X263.465 Y60.581 E3.04540
G1 X263.139 Y62.644 E3.14960
G1 X262.762 Y64.072 E3.22328
G1 X262.587 Y64.722 E3.25687
G1 X261.849 Y66.645 E3.35963
G1 X260.900 Y68.518 E3.46438
G1 X259.757 Y70.286 E3.56941
G1 X258.410 Y71.958 E3.67653
G1 X256.951 Y73.418 E3.77951
G1 X255.604 Y74.514 E3.86615
G1 X255.285 Y74.773 E3.88665
G1 X253.696 Y75.805 E3.98117
G1 X253.504 Y75.927 E3.99252
G1 X251.683 Y76.855 E4.09449
G1 X249.732 Y77.609 E4.19884
G1 X249.051 Y77.798 E4.23410
G1 X247.647 Y78.174 E4.30662
G1 X245.609 Y78.497 E4.40956
G1 X243.472 Y78.613 E4.51633
G1 X241.394 Y78.507 E4.62014
G1 X239.332 Y78.181 E4.72429
G1 X237.902 Y77.803 E4.79808
G1 X237.253 Y77.629 E4.83161
G1 X235.329 Y76.891 E4.93441
G1 X233.455 Y75.942 E5.03921
G1 X231.690 Y74.800 E5.14409
G1 X230.410 Y73.772 E5.22600
G1 X230.010 Y73.445 E5.25177
G1 X228.556 Y71.993 E5.35429
G1 X227.459 Y70.644 E5.44104
G1 X227.202 Y70.326 E5.46144
G1 X226.170 Y68.738 E5.55592
G1 X226.047 Y68.545 E5.56734
G1 X225.120 Y66.724 E5.66928
G1 X224.365 Y64.773 E5.77365
G1 X224.177 Y64.091 E5.80895
G1 X223.801 Y62.689 E5.88137
G1 X223.479 Y60.652 E5.98425
G1 X223.361 Y58.514 E6.09108
G1 X223.469 Y56.433 E6.19504
G1 X223.794 Y54.374 E6.29904
G0 F9000 X224.186 Y54.456
G1 F1800 X224.558 Y53.047 E6.37174
G1 X224.727 Y52.418 E6.40424
G1 X225.450 Y50.533 E6.50496
G1 X226.381 Y48.697 E6.60766
G1 X227.410 Y47.105 E6.70223
G1 X227.516 Y46.939 E6.71206
G1 X228.515 Y45.703 E6.79135
G1 X228.824 Y45.322 E6.81582
G1 X230.251 Y43.896 E6.91647
G1 X231.581 Y42.812 E7.00207
G1 X231.884 Y42.567 E7.02151
G1 X233.452 Y41.548 E7.11481
G1 X233.627 Y41.437 E7.12515
G1 X235.414 Y40.527 E7.22519
G1 X237.327 Y39.788 E7.32751
G1 X237.988 Y39.605 E7.36172
G1 X239.370 Y39.235 E7.43310
G1 X241.365 Y38.919 E7.53387
G1 X243.461 Y38.803 E7.63860
G1 X245.499 Y38.909 E7.74042
G1 X247.519 Y39.227 E7.84244
G1 X248.928 Y39.600 E7.91515
G1 X249.556 Y39.769 E7.94760
G1 X251.442 Y40.492 E8.04837
G1 X253.277 Y41.422 E8.15100
G1 X255.009 Y42.541 E8.25388
G1 X256.649 Y43.862 E8.35894
G1 X258.079 Y45.293 E8.45987
G1 X259.162 Y46.623 E8.54544
G1 X259.406 Y46.925 E8.56481
G1 X260.426 Y48.494 E8.65817
G1 X260.538 Y48.669 E8.66854
G1 X261.448 Y50.455 E8.76854
G1 X262.187 Y52.368 E8.87086
G1 X262.370 Y53.030 E8.90512
G1 X262.740 Y54.411 E8.97645
G1 X263.056 Y56.407 E9.07727
G1 X263.170 Y58.503 E9.18200
G1 X263.066 Y60.540 E9.28376
G1 X262.747 Y62.561 E9.38583
G1 X262.375 Y63.969 E9.45849
G1 X262.206 Y64.598 E9.49098
G1 X261.483 Y66.483 E9.59171
G1 X260.553 Y68.319 E9.69438
G1 X259.433 Y70.052 E9.79733
G1 X258.112 Y71.690 E9.90231
G1 X256.682 Y73.120 E10.00321
G1 X255.352 Y74.204 E10.08881
G1 X255.049 Y74.449 E10.10825
G1 X253.480 Y75.469 E10.20161
G1 X253.305 Y75.580 E10.21195
G1 X251.520 Y76.490 E10.31191
G1 X249.606 Y77.229 E10.41427
G1 X248.945 Y77.412 E10.44849
G1 X247.563 Y77.782 E10.51987
G1 X245.567 Y78.098 E10.62069
G1 X243.471 Y78.212 E10.72541
G1 X241.435 Y78.108 E10.82712
G1 X239.414 Y77.790 E10.92919
G1 X238.005 Y77.417 E11.00191
G1 X237.377 Y77.248 E11.03435
G1 X235.492 Y76.525 E11.13507
G1 X233.655 Y75.594 E11.23782
G1 X231.925 Y74.475 E11.34061
G1 X230.662 Y73.461 E11.42142
G1 X230.278 Y73.148 E11.44613
G1 X228.854 Y71.724 E11.54661
G1 X227.769 Y70.392 E11.63232
G1 X227.526 Y70.091 E11.65162
G1 X226.506 Y68.522 E11.74498
G1 X226.395 Y68.347 E11.75532
G1 X225.485 Y66.561 E11.85532
G1 X224.746 Y64.648 E11.95764
G1 X224.563 Y63.986 E11.99190
G1 X224.193 Y62.606 E12.06318
G1 X223.877 Y60.610 E12.16400
G1 X223.761 Y58.513 E12.26878
G1 X223.867 Y56.475 E12.37060
G1 X224.186 Y54.456 E12.47257
G1 F2400 E8.47257
G0 F9000 X227.910 Y55.234
;TYPE:WALL-INNER
G1 F2400 E12.47257
G1 F1800 X228.229 Y54.027 E12.53486
G1 X228.347 Y53.589 E12.55749
G1 X228.928 Y52.075 E12.63840
G1 X229.677 Y50.597 E12.72106
G1 X230.602 Y49.167 E12.80603
G1 X231.467 Y48.096 E12.87471
G1 X231.653 Y47.867 E12.88943
G1 X232.799 Y46.721 E12.97029
G1 X233.977 Y45.762 E13.04607
G1 X234.122 Y45.644 E13.05540
G1 X235.505 Y44.746 E13.13766
G1 X236.965 Y44.002 E13.21942
G1 X238.525 Y43.399 E13.30286
G1 X238.983 Y43.272 E13.32657
G1 X240.161 Y42.957 E13.38740
G1 X241.772 Y42.702 E13.46878
G1 X243.468 Y42.609 E13.55352
G1 X245.099 Y42.693 E13.63500
G1 X246.739 Y42.952 E13.71783
G1 X247.951 Y43.272 E13.78037
G1 X248.377 Y43.386 E13.80237
G1 X249.900 Y43.970 E13.88375
G1 X251.382 Y44.722 E13.96666
G1 X252.781 Y45.625 E14.04973
G1 X254.105 Y46.692 E14.13457
G1 X255.252 Y47.840 E14.21553
G1 X256.212 Y49.019 E14.29138
G1 X256.330 Y49.164 E14.30071
G1 X257.232 Y50.552 E14.38330
G1 X257.973 Y52.007 E14.46476
G1 X258.576 Y53.565 E14.54811
G1 X258.703 Y54.025 E14.57191
G1 X259.018 Y55.203 E14.63275
G1 X259.273 Y56.813 E14.71407
G1 X259.365 Y58.508 E14.79876
G1 X259.282 Y60.142 E14.88039
G1 X259.023 Y61.781 E14.96317
G1 X258.704 Y62.989 E15.02551
G1 X258.588 Y63.419 E15.04773
G1 X258.005 Y64.941 E15.12904
G1 X257.255 Y66.419 E15.21173
G1 X256.345 Y67.827 E15.29537
G1 X255.282 Y69.147 E15.37992
G1 X254.134 Y70.295 E15.46092
G1 X252.956 Y71.254 E15.53670
G1 X252.811 Y71.372 E15.54603
G1 X251.427 Y72.271 E15.62836
G1 X249.968 Y73.015 E15.71007
G1 X248.408 Y73.618 E15.79351
G1 X247.950 Y73.745 E15.81722
G1 X246.772 Y74.060 E15.87806
G1 X245.161 Y74.315 E15.95943
G1 X243.464 Y74.407 E16.04422
G1 X241.833 Y74.324 E16.12570
G1 X240.194 Y74.065 E16.20848
G1 X238.982 Y73.745 E16.27102
G1 X238.556 Y73.631 E16.29302
G1 X237.033 Y73.047 E16.37440
G1 X235.555 Y72.298 E16.45707
G1 X234.154 Y71.391 E16.54033
G1 X233.052 Y70.506 E16.61084
G1 X232.827 Y70.323 E16.62531
G1 X231.679 Y69.176 E16.70628
G1 X230.719 Y67.996 E16.78217
G1 X230.604 Y67.853 E16.79132
G1 X229.701 Y66.464 E16.87398
G1 X228.960 Y65.009 E16.95544
G1 X228.356 Y63.448 E17.03894
G1 X227.916 Y61.821 E17.12303
G1 X227.660 Y60.203 E17.20476
G1 X227.567 Y58.506 E17.28955
G1 X227.651 Y56.876 E17.37098
G1 X227.910 Y55.234 E17.45391
G0 F9000 X229.027 Y56.909
G1 F1800 X228.778 Y57.175 E17.47209
G1 X228.577 Y57.481 E17.49035
G1 X228.432 Y57.811 E17.50834
G1 X228.346 Y58.143 E17.52545
G1 X228.313 Y58.511 E17.54388
G1 X228.351 Y58.896 E17.56318
G1 X228.446 Y59.246 E17.58127
G1 X228.599 Y59.577 E17.59947
G1 X228.806 Y59.875 E17.61757
G1 X229.047 Y60.127 E17.63497
G1 X229.359 Y60.351 E17.65413
G1 X229.682 Y60.511 E17.67211
G1 X230.013 Y60.612 E17.68938
G1 X230.377 Y60.659 E17.70769
G1 X230.760 Y60.640 E17.72682
G1 X231.101 Y60.564 E17.74425
G1 X231.452 Y60.419 E17.76320
G1 X231.746 Y60.239 E17.78039
G1 X232.019 Y59.998 E17.79856
G1 X232.252 Y59.711 E17.81700
G1 X232.435 Y59.373 E17.83618
G1 X232.552 Y59.031 E17.85421
G1 X232.609 Y58.702 E17.87087
G1 X232.617 Y58.494 E17.88126
G1 X232.605 Y58.289 E17.89150
G1 X232.543 Y57.947 E17.90884
G1 X232.428 Y57.622 E17.92604
G1 X232.250 Y57.302 E17.94431
G1 X232.017 Y57.017 E17.96268
G1 X231.730 Y56.768 E17.98163
G1 X231.435 Y56.586 E17.99893
G1 X231.096 Y56.450 E18.01715
G1 X230.739 Y56.374 E18.03536
G1 X230.373 Y56.358 E18.05364
G1 X229.992 Y56.410 E18.07282
G1 X229.643 Y56.520 E18.09108
G1 X229.318 Y56.689 E18.10935
G1 X229.027 Y56.909 E18.12755
G0 F9000 X230.739 Y56.375
G0 X233.459 Y57.133
G1 F1800 X233.365 Y58.508 E18.19631
G1 X233.456 Y59.865 E18.26416
G1 X233.740 Y61.233 E18.33387
G1 X234.201 Y62.532 E18.40264
G1 X234.835 Y63.756 E18.47141
G1 X235.631 Y64.884 E18.54029
G1 X236.572 Y65.891 E18.60905
G1 X237.641 Y66.760 E18.67778
G1 X238.471 Y67.266 E18.72627
G1 X238.820 Y67.477 E18.74662
G1 X240.084 Y68.027 E18.81539
G1 X241.412 Y68.398 E18.88418
G1 X242.777 Y68.586 E18.95293
G1 X244.156 Y68.586 E19.02173
G1 X245.458 Y68.408 E19.08729
G1 X246.848 Y68.027 E19.15919
G1 X248.114 Y67.477 E19.22806
G1 X249.292 Y66.760 E19.29686
G1 X250.361 Y65.891 E19.36559
G1 X251.303 Y64.883 E19.43442
G1 X252.097 Y63.756 E19.50320
G1 X252.732 Y62.533 E19.57195
G1 X253.193 Y61.233 E19.64076
G1 X253.474 Y59.884 E19.70951
G1 X253.567 Y58.508 E19.77832
G1 X253.477 Y57.152 E19.84612
G1 X253.193 Y55.783 E19.91587
G1 X252.732 Y54.484 E19.98464
G1 X252.267 Y53.586 E20.03509
G1 X252.096 Y53.259 E20.05350
G1 X251.303 Y52.134 E20.12217
G1 X250.361 Y51.125 E20.19103
G1 X249.292 Y50.256 E20.25977
G1 X248.462 Y49.750 E20.30826
G1 X248.113 Y49.539 E20.32861
G1 X246.849 Y48.990 E20.39736
G1 X245.521 Y48.618 E20.46617
G1 X244.156 Y48.430 E20.53491
G1 X242.777 Y48.430 E20.60371
G1 X241.474 Y48.608 E20.66932
G1 X240.085 Y48.990 E20.74119
G1 X238.819 Y49.539 E20.81003
G1 X237.641 Y50.256 E20.87883
G1 X236.572 Y51.125 E20.94757
G1 X235.631 Y52.133 E21.01636
G1 X234.835 Y53.260 E21.08520
G1 X234.201 Y54.484 E21.15397
G1 X233.740 Y55.783 E21.22274
G1 X233.459 Y57.133 E21.29153
G0 F9000 X234.105 Y51.289
G1 F1800 X234.409 Y51.329 E21.30683
G1 X234.721 Y51.315 E21.32241
G1 X235.022 Y51.249 E21.33779
G1 X235.302 Y51.133 E21.35291
G1 X235.563 Y50.973 E21.36818
G1 X235.790 Y50.770 E21.38337
G1 X235.980 Y50.535 E21.39845
G1 X236.129 Y50.269 E21.41366
G1 X236.230 Y49.982 E21.42884
G1 X236.280 Y49.694 E21.44342
G1 X236.286 Y49.526 E21.45181
G1 X236.280 Y49.357 E21.46025
G1 X236.228 Y49.067 E21.47495
G1 X236.126 Y48.782 E21.49005
G1 X235.972 Y48.507 E21.50577
G1 X235.743 Y48.241 E21.52328
G1 X235.554 Y48.076 E21.53580
G1 X235.296 Y47.918 E21.55089
G1 X235.014 Y47.805 E21.56605
G1 X234.716 Y47.741 E21.58126
G1 X234.404 Y47.727 E21.59684
G1 X234.100 Y47.768 E21.61214
G1 X233.809 Y47.858 E21.62734
G1 X233.538 Y47.996 E21.64251
G1 X233.295 Y48.175 E21.65757
G1 X233.080 Y48.400 E21.67309
G1 X232.912 Y48.651 E21.68816
G1 X232.787 Y48.931 E21.70346
G1 X232.709 Y49.223 E21.71854
G1 X232.684 Y49.534 E21.73411
G1 X232.711 Y49.839 E21.74938
G1 X232.789 Y50.136 E21.76470
G1 X232.916 Y50.410 E21.77977
G1 X233.083 Y50.660 E21.79477
G1 X233.300 Y50.885 E21.81036
G1 X233.548 Y51.067 E21.82571
G1 X233.820 Y51.201 E21.84084
G1 X234.105 Y51.289 E21.85572
G0 F9000 X235.562 Y50.972
G0 X241.599 Y46.577
G1 F1800 X241.806 Y46.875 E21.87382
G1 X242.047 Y47.127 E21.89122
G1 X242.359 Y47.351 E21.91038
G1 X242.682 Y47.511 E21.92836
G1 X243.013 Y47.612 E21.94563
G1 X243.377 Y47.659 E21.96394
G1 X243.760 Y47.640 E21.98307
G1 X244.101 Y47.564 E22.00050
G1 X244.452 Y47.419 E22.01945
G1 X244.746 Y47.239 E22.03665
G1 X245.019 Y46.998 E22.05481
G1 X245.252 Y46.711 E22.07326
G1 X245.435 Y46.373 E22.09243
G1 X245.552 Y46.031 E22.11047
G1 X245.609 Y45.702 E22.12712
G1 X245.617 Y45.494 E22.13751
G1 X245.605 Y45.289 E22.14775
G1 X245.543 Y44.947 E22.16509
G1 X245.428 Y44.622 E22.18229
G1 X245.250 Y44.302 E22.20056
G1 X245.017 Y44.017 E22.21893
G1 X244.730 Y43.768 E22.23788
G1 X244.435 Y43.586 E22.25518
G1 X244.096 Y43.450 E22.27340
G1 X243.739 Y43.374 E22.29161
G1 X243.373 Y43.358 E22.30989
G1 X242.992 Y43.410 E22.32907
G1 X242.643 Y43.520 E22.34733
G1 X242.318 Y43.689 E22.36560
G1 X242.027 Y43.909 E22.38380
G1 X241.778 Y44.175 E22.40198
G1 X241.577 Y44.481 E22.42025
G1 X241.432 Y44.811 E22.43823
G1 X241.346 Y45.143 E22.45534
G1 X241.313 Y45.511 E22.47377
G1 X241.351 Y45.896 E22.49307
G1 X241.446 Y46.246 E22.51117
G1 X241.599 Y46.577 E22.52936
G0 F9000 X243.013 Y47.610
G0 X250.746 Y48.932
G1 F1800 X250.670 Y49.224 E22.54441
G1 X250.645 Y49.534 E22.55993
G1 X250.672 Y49.837 E22.57511
G1 X250.749 Y50.135 E22.59046
G1 X250.877 Y50.413 E22.60573
G1 X251.049 Y50.665 E22.62095
G1 X251.260 Y50.884 E22.63612
G1 X251.507 Y51.066 E22.65143
G1 X251.780 Y51.201 E22.66663
G1 X252.066 Y51.290 E22.68157
G1 X252.371 Y51.329 E22.69691
G1 X252.681 Y51.315 E22.71239
G1 X252.982 Y51.249 E22.72776
G1 X253.262 Y51.134 E22.74287
G1 X253.518 Y50.977 E22.75785
G1 X253.743 Y50.778 E22.77283
G1 X253.942 Y50.535 E22.78850
G1 X254.089 Y50.269 E22.80367
G1 X254.191 Y49.982 E22.81886
G1 X254.240 Y49.695 E22.83339
G1 X254.248 Y49.526 E22.84183
G1 X254.240 Y49.356 E22.85032
G1 X254.189 Y49.067 E22.86496
G1 X254.086 Y48.782 E22.88008
G1 X253.937 Y48.514 E22.89538
G1 X253.741 Y48.274 E22.91084
G1 X253.515 Y48.077 E22.92579
G1 X253.257 Y47.918 E22.94091
G1 X252.973 Y47.805 E22.95616
G1 X252.676 Y47.741 E22.97132
G1 X252.365 Y47.727 E22.98685
G1 X252.061 Y47.768 E23.00216
G1 X251.769 Y47.858 E23.01740
G1 X251.497 Y47.996 E23.03262
G1 X251.255 Y48.176 E23.04766
G1 X251.042 Y48.400 E23.06309
G1 X250.873 Y48.650 E23.07814
G1 X250.746 Y48.932 E23.09357
G0 F9000 X250.878 Y50.412
G0 X255.318 Y56.689
G1 F1800 X255.027 Y56.909 E23.11177
G1 X254.778 Y57.175 E23.12995
G1 X254.577 Y57.481 E23.14821
G1 X254.432 Y57.811 E23.16620
G1 X254.346 Y58.143 E23.18331
G1 X254.313 Y58.511 E23.20174
G1 X254.351 Y58.896 E23.22104
G1 X254.446 Y59.246 E23.23914
G1 X254.599 Y59.577 E23.25733
G1 X254.806 Y59.875 E23.27543
G1 X255.047 Y60.127 E23.29283
G1 X255.359 Y60.351 E23.31199
G1 X255.682 Y60.511 E23.32997
G1 X256.013 Y60.612 E23.34724
G1 X256.377 Y60.659 E23.36555
G1 X256.760 Y60.640 E23.38468
G1 X257.101 Y60.564 E23.40211
G1 X257.452 Y60.419 E23.42106
G1 X257.746 Y60.239 E23.43825
G1 X258.019 Y59.998 E23.45642
G1 X258.252 Y59.711 E23.47487
G1 X258.435 Y59.373 E23.49404
G1 X258.552 Y59.031 E23.51207
G1 X258.609 Y58.702 E23.52873
G1 X258.617 Y58.494 E23.53912
G1 X258.605 Y58.289 E23.54936
G1 X258.543 Y57.947 E23.56670
G1 X258.428 Y57.622 E23.58390
G1 X258.250 Y57.302 E23.60217
G1 X258.017 Y57.017 E23.62054
G1 X257.730 Y56.768 E23.63949
G1 X257.435 Y56.586 E23.65679
G1 X257.096 Y56.450 E23.67501
G1 X256.739 Y56.374 E23.69322
G1 X256.373 Y56.358 E23.71150
G1 X255.992 Y56.410 E23.73068
G1 X255.643 Y56.520 E23.74894
G1 X255.318 Y56.689 E23.76721
G0 F9000 X254.346 Y58.144
G0 X252.975 Y65.765
G1 F1800 X252.675 Y65.700 E23.78253
G1 X252.365 Y65.689 E23.79800
G1 X252.061 Y65.728 E23.81329
G1 X251.768 Y65.819 E23.82860
G1 X251.496 Y65.958 E23.84384
G1 X251.251 Y66.141 E23.85910
G1 X251.042 Y66.360 E23.87420
G1 X250.873 Y66.610 E23.88925
G1 X250.746 Y66.894 E23.90477
G1 X250.670 Y67.185 E23.91978
G1 X250.645 Y67.494 E23.93525
G1 X250.672 Y67.797 E23.95042
G1 X250.749 Y68.094 E23.96573
G1 X250.877 Y68.373 E23.98104
G1 X251.046 Y68.622 E23.99606
G1 X251.260 Y68.844 E24.01144
G1 X251.506 Y69.026 E24.02671
G1 X251.779 Y69.162 E24.04193
G1 X252.068 Y69.251 E24.05701
G1 X252.371 Y69.288 E24.07224
G1 X252.680 Y69.276 E24.08767
G1 X252.982 Y69.210 E24.10309
G1 X253.263 Y69.094 E24.11826
G1 X253.523 Y68.934 E24.13349
G1 X253.744 Y68.737 E24.14826
G1 X253.941 Y68.496 E24.16379
G1 X254.089 Y68.231 E24.17893
G1 X254.191 Y67.942 E24.19422
G1 X254.240 Y67.655 E24.20875
G1 X254.248 Y67.486 E24.21719
G1 X254.239 Y67.317 E24.22563
G1 X254.189 Y67.027 E24.24031
G1 X254.086 Y66.742 E24.25543
G1 X253.937 Y66.474 E24.27073
G1 X253.740 Y66.233 E24.28626
G1 X253.514 Y66.037 E24.30118
G1 X253.259 Y65.880 E24.31612
G1 X252.975 Y65.765 E24.33141
G0 F9000 X251.497 Y65.959
