;Generated with Cura_SteamEngine 15.01
; Default start code
G28 ; Home extruder
G1 Z15 F2000
M107 ; Turn off fan
G90 ; Absolute positioning
M82 ; Extruder in absolute mode
M104 T0 S180
M190 S50
; Activate all used extruder
G92 E0 ; Reset extruder position
; Wait for all used extruders to reach temperature
M109 T0 S210 R210
;Layer count: 30
;LAYER:0
M107
G0 F9000 X71.024 Y69.341 Z0.300
;TYPE:SKIRT
G1 F1800 X71.414 Y68.958 E0.02727
G1 X74.497 Y66.385 E0.22761
G1 X74.671 Y66.241 E0.23888
G1 X75.301 Y65.817 E0.27677
G1 X75.929 Y65.395 E0.31451
G1 X78.243 Y63.838 E0.45366
G1 X81.983 Y61.841 E0.66518
G1 X86.126 Y60.140 E0.88862
G1 X90.306 Y58.923 E1.10582
G1 X94.287 Y58.198 E1.30770
G1 X94.581 Y58.144 E1.32261
G1 X98.913 Y57.809 E1.53938
G1 X102.609 Y57.904 E1.72384
G1 X103.257 Y57.922 E1.75618
G1 X107.277 Y58.441 E1.95840
G1 X107.574 Y58.481 E1.97335
G1 X110.680 Y59.213 E2.13256
G1 X111.796 Y59.478 E2.18978
G1 X115.835 Y60.882 E2.40312
G1 X119.706 Y62.686 E2.61618
G1 X123.521 Y64.959 E2.83774
G1 X124.177 Y65.447 E2.87853
G1 X124.778 Y65.896 E2.91596
G1 X125.270 Y66.266 E2.94667
G1 X127.031 Y67.588 E3.05653
G1 X128.829 Y69.252 E3.17875
G1 X130.223 Y70.543 E3.27354
G1 X130.802 Y71.201 E3.31727
G1 X133.092 Y73.807 E3.49035
G1 X134.165 Y75.314 E3.58264
G1 X135.611 Y77.349 E3.70719
G1 X137.604 Y80.872 E3.90913
G1 X137.751 Y81.132 E3.92403
G1 X139.382 Y84.866 E4.12731
G1 X139.509 Y85.170 E4.14375
G1 X140.688 Y88.865 E4.33725
G1 X140.810 Y89.240 E4.35693
G1 X141.656 Y93.289 E4.56329
G1 X141.720 Y93.698 E4.58395
G1 X142.077 Y97.143 E4.75674
G1 X142.144 Y97.784 E4.78889
G1 X142.201 Y100.000 E4.89949
G1 X142.144 Y102.215 E5.01003
G1 X142.077 Y102.857 E5.04223
G1 X141.701 Y106.494 E5.22465
G1 X140.858 Y110.532 E5.43045
G1 X140.753 Y110.933 E5.45113
G1 X139.501 Y114.856 E5.65658
G1 X137.870 Y118.596 E5.86014
G1 X137.749 Y118.871 E5.87513
G1 X135.758 Y122.390 E6.07684
G1 X135.612 Y122.649 E6.09167
G1 X134.165 Y124.684 E6.21625
G1 X133.796 Y125.203 E6.24802
G1 X133.092 Y126.192 E6.30859
G1 X130.802 Y128.798 E6.48167
G1 X130.223 Y129.456 E6.52539
G1 X127.036 Y132.407 E6.74209
G1 X125.270 Y133.733 E6.85227
G1 X124.832 Y134.061 E6.87957
G1 X123.559 Y135.016 E6.95896
G1 X119.927 Y137.197 E7.17032
G1 X116.127 Y138.988 E7.37991
G1 X115.789 Y139.133 E7.39826
G1 X111.873 Y140.494 E7.60509
G1 X110.822 Y140.751 E7.65907
G1 X107.565 Y141.520 E7.82603
G1 X103.552 Y142.039 E8.02790
G1 X103.267 Y142.077 E8.04225
G1 X102.492 Y142.098 E8.08093
G1 X98.912 Y142.190 E8.25959
G1 X94.580 Y141.855 E8.47636
G1 X90.600 Y141.129 E8.67820
G1 X90.307 Y141.076 E8.69306
G1 X86.133 Y139.861 E8.90994
G1 X82.236 Y138.276 E9.11983
G1 X78.515 Y136.310 E9.32979
G1 X78.220 Y136.146 E9.34663
G1 X74.668 Y133.756 E9.56022
G1 X71.553 Y131.157 E9.76262
G1 X71.317 Y130.958 E9.77802
G1 X69.308 Y128.897 E9.92161
G1 X68.298 Y127.860 E9.99383
G1 X66.339 Y125.385 E10.15131
G1 X65.952 Y124.897 E10.18238
G1 X65.601 Y124.452 E10.21066
G1 X63.269 Y120.787 E10.42738
G1 X61.327 Y116.900 E10.64416
G1 X59.809 Y112.872 E10.85891
G1 X59.291 Y110.924 E10.95948
G1 X58.688 Y108.633 E11.07767
G1 X58.065 Y104.635 E11.27954
G1 X58.019 Y104.342 E11.29433
G1 X57.796 Y100.000 E11.51124
G1 X57.934 Y97.310 E11.64562
G1 X58.019 Y95.660 E11.72805
G1 X58.642 Y91.659 E11.93007
G1 X58.688 Y91.364 E11.94496
G1 X59.256 Y89.208 E12.05620
G1 X59.795 Y87.164 E12.16166
G1 X61.235 Y83.341 E12.36547
G1 X61.329 Y83.095 E12.37861
G1 X63.160 Y79.432 E12.58292
G1 X63.334 Y79.109 E12.60122
G1 X65.292 Y76.034 E12.78309
G1 X65.599 Y75.548 E12.81177
G1 X68.270 Y72.174 E13.02646
G1 X69.305 Y71.105 E13.10070
G1 X71.024 Y69.341 E13.22358
G1 F2400 E9.22358
G0 F9000 X73.721 Y72.019
;TYPE:WALL-INNER
G1 F2400 E13.22358
G1 F1800 X73.964 Y71.780 E13.24058
G1 X76.927 Y69.307 E13.43313
G1 X80.206 Y67.098 E13.63038
G1 X83.603 Y65.284 E13.82251
G1 X87.382 Y63.732 E14.02632
G1 X91.182 Y62.626 E14.22377
G1 X95.069 Y61.918 E14.42089
G1 X99.006 Y61.613 E14.61789
G1 X102.965 Y61.715 E14.81547
G1 X106.778 Y62.208 E15.00729
G1 X110.730 Y63.131 E15.20976
G1 X114.404 Y64.408 E15.40381
G1 X117.933 Y66.053 E15.59806
G1 X121.403 Y68.120 E15.79957
G1 X121.906 Y68.494 E15.83084
G1 X122.496 Y68.936 E15.86762
G1 X124.598 Y70.514 E15.99875
G1 X127.503 Y73.203 E16.19624
G1 X130.105 Y76.163 E16.39286
G1 X132.403 Y79.395 E16.59071
G1 X134.345 Y82.827 E16.78745
G1 X135.884 Y86.349 E16.97920
G1 X135.935 Y86.473 E16.98589
G1 X137.075 Y90.043 E17.17286
G1 X137.133 Y90.221 E17.18220
G1 X137.914 Y93.960 E17.37277
G1 X138.349 Y98.031 E17.57703
G1 X138.400 Y100.000 E17.67529
G1 X138.349 Y101.968 E17.77351
G1 X137.941 Y105.913 E17.97138
G1 X137.157 Y109.666 E18.16266
G1 X135.938 Y113.520 E18.36432
G1 X134.388 Y117.073 E18.55771
G1 X132.403 Y120.604 E18.75980
G1 X130.109 Y123.830 E18.95729
G1 X127.498 Y126.801 E19.15462
G1 X124.598 Y129.486 E19.35179
G1 X121.434 Y131.860 E19.54914
G1 X118.139 Y133.838 E19.74087
G1 X114.558 Y135.526 E19.93838
G1 X110.795 Y136.846 E20.13734
G1 X109.931 Y137.057 E20.18171
G1 X106.882 Y137.777 E20.33801
G1 X103.063 Y138.270 E20.53012
G1 X99.006 Y138.386 E20.73261
G1 X95.069 Y138.081 E20.92961
G1 X91.182 Y137.373 E21.12673
G1 X87.385 Y136.268 E21.32402
G1 X83.845 Y134.828 E21.51468
G1 X80.322 Y132.967 E21.71346
G1 X76.950 Y130.711 E21.91587
G1 X73.995 Y128.246 E22.10785
G1 X71.150 Y125.341 E22.31071
G1 X68.704 Y122.252 E22.50729
G1 X66.583 Y118.916 E22.70451
G1 X64.812 Y115.373 E22.90213
G1 X63.433 Y111.714 E23.09721
G1 X62.965 Y109.952 E23.18816
G1 X62.413 Y107.856 E23.29630
G1 X61.820 Y104.050 E23.48847
G1 X61.803 Y103.942 E23.49393
G1 X61.601 Y100.000 E23.69085
G1 X61.803 Y96.054 E23.88798
G1 X62.396 Y92.249 E24.08010
G1 X62.413 Y92.140 E24.08560
G1 X63.419 Y88.321 E24.28263
G1 X64.789 Y84.687 E24.47639
G1 X66.535 Y81.178 E24.67193
G1 X68.503 Y78.066 E24.85563
G1 X68.707 Y77.744 E24.87465
G1 X71.130 Y74.683 E25.06941
G1 X72.030 Y73.754 E25.13394
G1 X73.721 Y72.019 E25.25482
G0 F9000 X74.428 Y73.263
G1 F1800 X74.103 Y73.432 E25.27309
G1 X73.812 Y73.652 E25.29129
G1 X73.563 Y73.918 E25.30947
G1 X73.362 Y74.222 E25.32765
G1 X73.216 Y74.553 E25.34570
G1 X73.129 Y74.888 E25.36297
G1 X73.099 Y75.254 E25.38129
G1 X73.134 Y75.636 E25.40043
G1 X73.230 Y75.990 E25.41872
G1 X73.385 Y76.321 E25.43696
G1 X73.591 Y76.618 E25.45499
G1 X73.831 Y76.868 E25.47228
G1 X74.142 Y77.094 E25.49146
G1 X74.467 Y77.254 E25.50953
G1 X74.798 Y77.355 E25.52680
G1 X75.162 Y77.401 E25.54510
G1 X75.544 Y77.382 E25.56419
G1 X75.885 Y77.308 E25.58159
G1 X76.237 Y77.162 E25.60061
G1 X76.530 Y76.981 E25.61779
G1 X76.804 Y76.740 E25.63599
G1 X77.036 Y76.453 E25.65441
G1 X77.218 Y76.118 E25.67343
G1 X77.334 Y75.793 E25.69064
G1 X77.393 Y75.445 E25.70825
G1 X77.402 Y75.239 E25.71854
G1 X77.390 Y75.031 E25.72893
G1 X77.327 Y74.688 E25.74633
G1 X77.211 Y74.363 E25.76355
G1 X77.034 Y74.046 E25.78166
G1 X76.803 Y73.759 E25.80004
G1 X76.513 Y73.510 E25.81911
G1 X76.220 Y73.329 E25.83629
G1 X75.882 Y73.193 E25.85447
G1 X75.525 Y73.116 E25.87269
G1 X75.155 Y73.100 E25.89117
G1 X74.775 Y73.154 E25.91032
G1 X74.428 Y73.263 E25.92846
G0 F9000 X76.220 Y73.331
G0 X77.327 Y74.689
G0 X78.197 Y77.828
G1 F1800 X77.715 Y78.331 E25.96322
G1 X77.326 Y78.908 E25.99794
G1 X77.040 Y79.541 E26.03259
G1 X76.864 Y80.214 E26.06730
G1 X76.806 Y80.908 E26.10204
G1 X76.864 Y81.601 E26.13674
G1 X77.040 Y82.274 E26.17144
G1 X77.326 Y82.909 E26.20619
G1 X77.715 Y83.484 E26.24082
G1 X78.197 Y83.987 E26.27558
G1 X78.758 Y84.401 E26.31036
G1 X79.378 Y84.714 E26.34501
G1 X80.043 Y84.918 E26.37971
G1 X80.734 Y85.006 E26.41447
G1 X81.428 Y84.976 E26.44912
G1 X82.108 Y84.830 E26.48382
G1 X82.754 Y84.571 E26.51854
G1 X83.347 Y84.206 E26.55328
G1 X83.869 Y83.745 E26.58803
G1 X84.306 Y83.205 E26.62269
G1 X84.646 Y82.597 E26.65744
G1 X84.878 Y81.942 E26.69211
G1 X84.995 Y81.255 E26.72688
G1 X84.995 Y80.560 E26.76155
G1 X84.878 Y79.874 E26.79627
G1 X84.646 Y79.218 E26.83098
G1 X84.306 Y78.611 E26.86569
G1 X83.869 Y78.069 E26.90043
G1 X83.347 Y77.610 E26.93511
G1 X82.754 Y77.244 E26.96987
G1 X82.108 Y76.985 E27.00460
G1 X81.428 Y76.839 E27.03929
G1 X80.734 Y76.809 E27.07395
G1 X80.043 Y76.897 E27.10870
G1 X79.378 Y77.101 E27.14341
G1 X78.758 Y77.414 E27.17806
G1 X78.197 Y77.828 E27.21284
G0 F9000 X80.043 Y76.899
G0 X95.956 Y73.692
G1 F1800 X96.131 Y74.366 E27.24758
G1 X96.418 Y75.000 E27.28230
G1 X96.809 Y75.578 E27.31712
G1 X97.314 Y76.097 E27.35324
G1 X97.848 Y76.493 E27.38641
G1 X98.471 Y76.806 E27.42120
G1 X99.135 Y77.010 E27.45585
G1 X99.826 Y77.098 E27.49060
G1 X100.520 Y77.068 E27.52526
G1 X101.200 Y76.922 E27.55996
G1 X101.846 Y76.663 E27.59468
G1 X102.439 Y76.297 E27.62945
G1 X102.936 Y75.859 E27.66250
G1 X103.396 Y75.299 E27.69865
G1 X103.738 Y74.689 E27.73354
G1 X103.970 Y74.033 E27.76826
G1 X104.087 Y73.347 E27.80298
G1 X104.087 Y72.652 E27.83765
G1 X103.970 Y71.967 E27.87232
G1 X103.765 Y71.383 E27.90320
G1 X103.401 Y70.707 E27.94150
G1 X102.961 Y70.160 E27.97653
G1 X102.439 Y69.702 E28.01117
G1 X101.846 Y69.336 E28.04594
G1 X101.200 Y69.077 E28.08066
G1 X100.520 Y68.931 E28.11536
G1 X99.826 Y68.901 E28.15002
G1 X99.135 Y68.989 E28.18477
G1 X98.471 Y69.193 E28.21942
G1 X97.848 Y69.506 E28.25421
G1 X97.289 Y69.920 E28.28891
G1 X96.807 Y70.423 E28.32367
G1 X96.418 Y70.999 E28.35834
G1 X96.131 Y71.633 E28.39306
G1 X95.956 Y72.307 E28.42781
G1 X95.898 Y73.000 E28.46250
G1 X95.956 Y73.692 E28.49715
G0 F9000 X96.132 Y71.634
G0 X97.290 Y69.921
G0 X99.215 Y67.002
G1 F1800 X99.547 Y67.104 E28.51447
G1 X99.911 Y67.150 E28.53278
G1 X100.292 Y67.131 E28.55181
G1 X100.633 Y67.057 E28.56922
G1 X100.985 Y66.911 E28.58823
G1 X101.279 Y66.730 E28.60545
G1 X101.554 Y66.489 E28.62370
G1 X101.785 Y66.201 E28.64212
G1 X101.968 Y65.864 E28.66125
G1 X102.085 Y65.522 E28.67928
G1 X102.142 Y65.196 E28.69579
G1 X102.151 Y64.986 E28.70628
G1 X102.138 Y64.778 E28.71668
G1 X102.076 Y64.438 E28.73392
G1 X101.961 Y64.113 E28.75112
G1 X101.783 Y63.795 E28.76930
G1 X101.552 Y63.508 E28.78768
G1 X101.262 Y63.258 E28.80678
G1 X100.968 Y63.077 E28.82401
G1 X100.629 Y62.941 E28.84223
G1 X100.272 Y62.865 E28.86044
G1 X99.906 Y62.849 E28.87872
G1 X99.525 Y62.902 E28.89791
G1 X99.176 Y63.012 E28.91616
G1 X98.852 Y63.181 E28.93440
G1 X98.559 Y63.401 E28.95268
G1 X98.312 Y63.667 E28.97079
G1 X98.110 Y63.971 E28.98899
G1 X97.965 Y64.303 E29.00707
G1 X97.879 Y64.635 E29.02418
G1 X97.846 Y65.003 E29.04261
G1 X97.884 Y65.387 E29.06186
G1 X97.979 Y65.737 E29.07996
G1 X98.133 Y66.069 E29.09822
G1 X98.340 Y66.366 E29.11628
G1 X98.579 Y66.617 E29.13357
G1 X98.892 Y66.842 E29.15280
G1 X99.215 Y67.002 E29.17078
G0 F9000 X115.899 Y78.331
G1 F1800 X115.510 Y78.907 E29.20546
G1 X115.223 Y79.541 E29.24018
G1 X115.049 Y80.214 E29.27486
G1 X114.989 Y80.908 E29.30961
G1 X115.049 Y81.601 E29.34432
G1 X115.223 Y82.274 E29.37900
G1 X115.510 Y82.909 E29.41376
G1 X115.899 Y83.484 E29.44840
G1 X116.381 Y83.987 E29.48315
G1 X116.940 Y84.401 E29.51786
G1 X117.562 Y84.714 E29.55260
G1 X118.227 Y84.918 E29.58730
G1 X118.918 Y85.006 E29.62205
G1 X119.612 Y84.976 E29.65671
G1 X120.292 Y84.830 E29.69141
G1 X120.938 Y84.571 E29.72613
G1 X121.531 Y84.206 E29.76087
G1 X122.053 Y83.745 E29.79562
G1 X122.490 Y83.205 E29.83027
G1 X122.830 Y82.597 E29.86503
G1 X123.061 Y81.942 E29.89968
G1 X123.179 Y81.255 E29.93445
G1 X123.179 Y80.560 E29.96913
G1 X123.061 Y79.874 E30.00385
G1 X122.830 Y79.218 E30.03855
G1 X122.490 Y78.611 E30.07326
G1 X122.053 Y78.069 E30.10800
G1 X121.531 Y77.610 E30.14268
G1 X120.938 Y77.244 E30.17744
G1 X120.292 Y76.985 E30.21217
G1 X119.612 Y76.839 E30.24686
G1 X118.918 Y76.809 E30.28152
G1 X118.227 Y76.897 E30.31627
G1 X117.562 Y77.101 E30.35098
G1 X116.940 Y77.414 E30.38571
G1 X116.381 Y77.828 E30.42042
G1 X115.899 Y78.331 E30.45518
G0 F9000 X117.562 Y77.102
G0 X119.612 Y76.840
G0 X122.720 Y75.970
G1 F1800 X122.881 Y76.320 E30.47440
G1 X123.088 Y76.618 E30.49250
G1 X123.329 Y76.869 E30.50986
G1 X123.640 Y77.094 E30.52901
G1 X123.964 Y77.254 E30.54704
G1 X124.296 Y77.355 E30.56435
G1 X124.659 Y77.401 E30.58261
G1 X125.041 Y77.382 E30.60169
G1 X125.382 Y77.308 E30.61910
G1 X125.734 Y77.162 E30.63811
G1 X126.028 Y76.981 E30.65533
G1 X126.302 Y76.739 E30.67357
G1 X126.533 Y76.454 E30.69187
G1 X126.717 Y76.115 E30.71112
G1 X126.834 Y75.773 E30.72915
G1 X126.891 Y75.444 E30.74581
G1 X126.899 Y75.237 E30.75614
G1 X126.887 Y75.031 E30.76644
G1 X126.825 Y74.689 E30.78378
G1 X126.709 Y74.363 E30.80104
G1 X126.530 Y74.045 E30.81925
G1 X126.300 Y73.759 E30.83756
G1 X126.011 Y73.510 E30.85659
G1 X125.717 Y73.329 E30.87381
G1 X125.379 Y73.193 E30.89199
G1 X125.022 Y73.116 E30.91021
G1 X124.652 Y73.100 E30.92869
G1 X124.273 Y73.154 E30.94779
G1 X123.925 Y73.263 E30.96598
G1 X123.601 Y73.432 E30.98421
G1 X123.309 Y73.651 E31.00242
G1 X123.062 Y73.916 E31.02049
G1 X122.867 Y74.204 E31.03785
G1 X122.714 Y74.554 E31.05690
G1 X122.628 Y74.886 E31.07401
G1 X122.595 Y75.254 E31.09245
G1 X122.632 Y75.634 E31.11150
G1 X122.720 Y75.970 E31.12882
G0 F9000 X126.135 Y95.989
G1 F1800 X125.470 Y96.193 E31.16353
G1 X124.848 Y96.506 E31.19827
G1 X124.289 Y96.920 E31.23297
G1 X123.807 Y97.423 E31.26773
G1 X123.418 Y97.999 E31.30240
G1 X123.131 Y98.633 E31.33712
G1 X122.956 Y99.307 E31.37186
G1 X122.898 Y100.000 E31.40656
G1 X122.956 Y100.692 E31.44120
G1 X123.131 Y101.366 E31.47595
G1 X123.418 Y102.000 E31.51067
G1 X123.809 Y102.578 E31.54548
G1 X124.314 Y103.097 E31.58161
G1 X124.848 Y103.493 E31.61478
G1 X125.470 Y103.806 E31.64951
G1 X126.135 Y104.010 E31.68422
G1 X126.826 Y104.098 E31.71897
G1 X127.520 Y104.068 E31.75363
G1 X128.200 Y103.922 E31.78833
G1 X128.846 Y103.663 E31.82305
G1 X129.439 Y103.297 E31.85781
G1 X129.961 Y102.838 E31.89249
G1 X130.398 Y102.296 E31.92723
G1 X130.738 Y101.689 E31.96194
G1 X130.970 Y101.033 E31.99665
G1 X131.087 Y100.347 E32.03137
G1 X131.087 Y99.652 E32.06605
G1 X130.970 Y98.966 E32.10076
G1 X130.738 Y98.310 E32.13548
G1 X130.398 Y97.703 E32.17019
G1 X129.961 Y97.161 E32.20492
G1 X129.439 Y96.702 E32.23960
G1 X128.846 Y96.336 E32.27437
G1 X128.200 Y96.077 E32.30909
G1 X127.520 Y95.931 E32.34379
G1 X126.826 Y95.901 E32.37845
G1 X126.135 Y95.989 E32.41320
G0 F9000 X128.199 Y96.078
G0 X129.960 Y97.162
G0 X133.110 Y98.971
G1 F1800 X132.965 Y99.303 E32.43127
G1 X132.878 Y99.637 E32.44849
G1 X132.848 Y100.003 E32.46681
G1 X132.883 Y100.386 E32.48600
G1 X132.979 Y100.737 E32.50416
G1 X133.133 Y101.069 E32.52241
G1 X133.340 Y101.366 E32.54048
G1 X133.579 Y101.617 E32.55777
G1 X133.892 Y101.842 E32.57700
G1 X134.215 Y102.002 E32.59498
G1 X134.547 Y102.104 E32.61231
G1 X134.911 Y102.150 E32.63061
G1 X135.292 Y102.131 E32.64965
G1 X135.633 Y102.057 E32.66705
G1 X135.985 Y101.911 E32.68607
G1 X136.279 Y101.730 E32.70329
G1 X136.554 Y101.489 E32.72153
G1 X136.785 Y101.201 E32.73995
G1 X136.968 Y100.864 E32.75908
G1 X137.085 Y100.522 E32.77712
G1 X137.142 Y100.196 E32.79363
G1 X137.151 Y99.986 E32.80412
G1 X137.138 Y99.778 E32.81451
G1 X137.076 Y99.438 E32.83176
G1 X136.961 Y99.113 E32.84895
G1 X136.783 Y98.795 E32.86714
G1 X136.552 Y98.508 E32.88552
G1 X136.262 Y98.258 E32.90462
G1 X135.968 Y98.077 E32.92184
G1 X135.629 Y97.941 E32.94007
G1 X135.272 Y97.865 E32.95828
G1 X134.906 Y97.849 E32.97655
G1 X134.525 Y97.902 E32.99574
G1 X134.176 Y98.012 E33.01400
G1 X133.852 Y98.181 E33.03223
G1 X133.559 Y98.401 E33.05051
G1 X133.312 Y98.667 E33.06862
G1 X133.110 Y98.971 E33.08683
G0 F9000 X121.531 Y115.793
G1 F1800 X120.938 Y115.428 E33.12157
G1 X120.292 Y115.169 E33.15629
G1 X119.612 Y115.023 E33.19099
G1 X118.918 Y114.993 E33.22565
G1 X118.227 Y115.081 E33.26040
G1 X117.562 Y115.285 E33.29510
G1 X116.940 Y115.598 E33.32984
G1 X116.381 Y116.012 E33.36455
G1 X115.899 Y116.515 E33.39930
G1 X115.510 Y117.090 E33.43394
G1 X115.223 Y117.725 E33.46870
G1 X115.049 Y118.398 E33.50339
G1 X114.989 Y119.091 E33.53809
G1 X115.049 Y119.785 E33.57284
G1 X115.223 Y120.458 E33.60752
G1 X115.510 Y121.092 E33.64224
G1 X115.899 Y121.668 E33.67692
G1 X116.381 Y122.171 E33.71167
G1 X116.940 Y122.585 E33.74638
G1 X117.562 Y122.898 E33.78112
G1 X118.227 Y123.102 E33.81582
G1 X118.918 Y123.190 E33.85057
G1 X119.612 Y123.160 E33.88523
G1 X120.292 Y123.014 E33.91993
