;Generated with Cura_SteamEngine 15.01
; Default start code
G28 ; Home extruder
G1 Z15 F2000
M107 ; Turn off fan
G90 ; Absolute positioning
M82 ; Extruder in absolute mode
M104 T0 S180
M190 S50
; Activate all used extruder
G92 E0 ; Reset extruder position
; Wait for all used extruders to reach temperature
M109 T0 S210 R210
;Layer count: 200
;LAYER:0
M107
G0 F9000 X131.017 Y130.534 Z0.300
;TYPE:SKIRT
G1 F1800 X133.038 Y128.730 E0.13515
G1 X135.490 Y126.989 E0.28519
G1 X137.949 Y125.625 E0.42547
G1 X138.189 Y125.491 E0.43919
G1 X140.749 Y124.431 E0.57742
G1 X140.749 Y124.432 E0.57747
G1 X141.007 Y124.323 E0.59145
G1 X142.007 Y124.035 E0.64336
G1 X143.946 Y123.476 E0.74404
G1 X146.908 Y122.974 E0.89392
G1 X149.711 Y122.811 E1.03400
G1 X150.000 Y122.795 E1.04844
G1 X152.930 Y122.959 E1.19485
G1 X155.976 Y123.462 E1.34887
G1 X157.877 Y124.002 E1.44747
G1 X158.380 Y124.146 E1.47357
G1 X158.987 Y124.322 E1.50510
G1 X161.615 Y125.410 E1.64700
G1 X161.954 Y125.571 E1.66573
G1 X164.453 Y126.954 E1.80822
G1 X166.731 Y128.566 E1.94745
G1 X166.966 Y128.734 E1.96186
G1 X168.981 Y130.533 E2.09662
G1 X169.465 Y131.017 E2.13077
G1 X171.269 Y133.038 E2.26593
G1 X173.010 Y135.490 E2.41596
G1 X174.374 Y137.949 E2.55625
G1 X174.508 Y138.189 E2.56996
G1 X175.568 Y140.749 E2.70820
G1 X175.567 Y140.749 E2.70825
G1 X175.676 Y141.007 E2.72222
G1 X175.964 Y142.007 E2.77414
G1 X176.523 Y143.946 E2.87481
G1 X177.025 Y146.908 E3.02470
G1 X177.188 Y149.707 E3.16458
G1 X177.187 Y149.707 E3.16463
G1 X177.206 Y149.986 E3.17858
G1 X177.041 Y152.931 E3.32573
G1 X176.536 Y155.977 E3.47977
G1 X175.973 Y157.961 E3.58266
G1 X175.679 Y158.983 E3.63572
G1 X174.589 Y161.615 E3.77785
G1 X174.428 Y161.954 E3.79657
G1 X173.045 Y164.453 E3.93906
G1 X171.433 Y166.731 E4.07829
G1 X171.265 Y166.966 E4.09270
G1 X169.466 Y168.981 E4.22747
G1 X168.982 Y169.465 E4.26162
G1 X166.961 Y171.269 E4.39677
G1 X164.567 Y172.967 E4.54320
G1 X161.810 Y174.508 E4.70078
G1 X159.103 Y175.629 E4.84695
G1 X157.986 Y175.965 E4.90514
G1 X156.053 Y176.523 E5.00552
G1 X153.091 Y177.025 E5.15540
G1 X150.293 Y177.188 E5.29523
G1 X150.293 Y177.187 E5.29528
G1 X150.014 Y177.206 E5.30923
G1 X147.068 Y177.041 E5.45644
G1 X144.022 Y176.536 E5.61048
G1 X142.119 Y175.996 E5.70917
G1 X141.016 Y175.679 E5.76643
G1 X138.384 Y174.589 E5.90855
G1 X138.045 Y174.428 E5.92728
G1 X135.546 Y173.045 E6.06977
G1 X133.099 Y171.313 E6.21934
G1 X131.022 Y169.469 E6.35791
G1 X130.534 Y168.982 E6.39230
G1 X128.730 Y166.961 E6.52746
G1 X127.032 Y164.567 E6.67389
G1 X125.491 Y161.810 E6.83146
G1 X124.378 Y159.120 E6.97670
G1 X124.155 Y158.412 E7.01373
G1 X124.003 Y157.876 E7.04153
G1 X123.476 Y156.054 E7.13615
G1 X122.974 Y153.091 E7.28608
G1 X122.811 Y150.289 E7.42611
G1 X122.795 Y150.000 E7.44055
G1 X122.959 Y147.069 E7.58701
G1 X123.462 Y144.022 E7.74108
G1 X124.033 Y142.013 E7.84528
G1 X124.321 Y141.015 E7.89710
G1 X125.410 Y138.384 E8.03917
G1 X125.571 Y138.045 E8.05789
G1 X126.954 Y135.546 E8.20038
G1 X128.686 Y133.099 E8.34995
G1 X130.530 Y131.022 E8.48852
G1 X131.017 Y130.534 E8.52291
G1 F2400 E4.52291
G0 F9000 X133.616 Y133.309
;TYPE:WALL-INNER
G1 F2400 E8.52291
G1 F1800 X135.418 Y131.700 E8.64344
G1 X137.513 Y130.213 E8.77161
G1 X139.801 Y128.943 E8.90217
G1 X142.204 Y127.942 E9.03204
G1 X144.793 Y127.187 E9.16658
G1 X147.340 Y126.755 E9.29547
G1 X149.927 Y126.605 E9.42475
G1 X150.000 Y126.601 E9.42840
G1 X152.512 Y126.741 E9.55392
G1 X155.146 Y127.177 E9.68712
G1 X157.331 Y127.798 E9.80044
G1 X157.729 Y127.913 E9.82111
G1 X160.071 Y128.883 E9.94758
G1 X162.424 Y130.174 E10.08148
G1 X164.528 Y131.663 E10.21008
G1 X166.382 Y133.308 E10.33373
G1 X168.299 Y135.418 E10.47596
G1 X169.786 Y137.513 E10.60413
G1 X171.056 Y139.801 E10.73469
G1 X172.057 Y142.204 E10.86456
G1 X172.812 Y144.793 E10.99910
G1 X173.244 Y147.340 E11.12799
G1 X173.394 Y149.929 E11.25737
G1 X173.399 Y150.000 E11.26092
G1 X173.259 Y152.512 E11.38644
G1 X172.822 Y155.146 E11.51965
G1 X172.320 Y156.915 E11.61139
G1 X172.083 Y157.736 E11.65402
G1 X171.116 Y160.071 E11.78011
G1 X169.825 Y162.424 E11.91401
G1 X168.336 Y164.528 E12.04261
G1 X166.691 Y166.382 E12.16626
G1 X166.383 Y166.690 E12.18799
G1 X164.582 Y168.298 E12.30845
G1 X162.541 Y169.746 E12.43330
G1 X160.144 Y171.085 E12.57028
G1 X157.825 Y172.046 E12.69551
G1 X156.915 Y172.320 E12.74293
G1 X155.206 Y172.812 E12.83165
G1 X152.659 Y173.244 E12.96054
G1 X150.071 Y173.394 E13.08987
G1 X149.995 Y173.399 E13.09367
G1 X147.487 Y173.259 E13.21899
G1 X144.853 Y172.822 E13.35220
G1 X143.164 Y172.343 E13.43978
G1 X142.263 Y172.083 E13.48657
G1 X139.928 Y171.116 E13.61266
G1 X139.787 Y171.049 E13.62045
G1 X137.575 Y169.825 E13.74657
G1 X135.463 Y168.330 E13.87567
G1 X133.624 Y166.698 E13.99833
G1 X131.701 Y164.582 E14.14098
G1 X130.253 Y162.541 E14.26583
G1 X128.914 Y160.144 E14.40281
G1 X127.953 Y157.823 E14.52814
G1 X127.793 Y157.315 E14.55471
G1 X127.189 Y155.214 E14.66378
G1 X126.755 Y152.659 E14.79307
G1 X126.605 Y150.073 E14.92230
G1 X126.601 Y150.000 E14.92595
G1 X126.741 Y147.487 E15.05152
G1 X127.177 Y144.853 E15.18472
G1 X127.686 Y143.059 E15.27776
G1 X127.916 Y142.263 E15.31909
G1 X128.883 Y139.928 E15.44518
G1 X130.174 Y137.575 E15.57908
G1 X131.669 Y135.463 E15.70818
G1 X133.301 Y133.624 E15.83084
G1 X133.616 Y133.309 E15.85307
G0 F9000 X134.435 Y134.243
G1 F1800 X134.183 Y134.506 E15.87124
G1 X133.975 Y134.812 E15.88970
G1 X133.821 Y135.170 E15.90914
G1 X133.737 Y135.492 E15.92574
G1 X133.704 Y135.861 E15.94423
G1 X133.744 Y136.251 E15.96379
G1 X133.828 Y136.575 E15.98049
G1 X133.978 Y136.906 E15.99862
G1 X134.185 Y137.213 E16.01709
G1 X134.464 Y137.495 E16.03688
G1 X134.761 Y137.706 E16.05506
G1 X135.083 Y137.863 E16.07293
G1 X135.404 Y137.962 E16.08969
G1 X135.771 Y138.008 E16.10814
G1 X136.165 Y137.986 E16.12783
G1 X136.521 Y137.903 E16.14606
G1 X136.857 Y137.761 E16.16426
G1 X137.164 Y137.565 E16.18243
G1 X137.430 Y137.323 E16.20038
G1 X137.641 Y137.063 E16.21708
G1 X137.819 Y136.744 E16.23531
G1 X137.940 Y136.400 E16.25350
G1 X138.002 Y136.042 E16.27163
G1 X138.003 Y135.720 E16.28769
G1 X137.998 Y135.649 E16.29124
G1 X137.929 Y135.283 E16.30982
G1 X137.803 Y134.940 E16.32805
G1 X137.619 Y134.623 E16.34634
G1 X137.384 Y134.343 E16.36458
G1 X137.107 Y134.108 E16.38270
G1 X136.793 Y133.922 E16.40091
G1 X136.458 Y133.793 E16.41882
G1 X136.130 Y133.723 E16.43555
G1 X135.763 Y133.707 E16.45388
G1 X135.371 Y133.762 E16.47362
G1 X135.022 Y133.875 E16.49193
G1 X134.703 Y134.043 E16.50991
G1 X134.435 Y134.243 E16.52660
G0 F9000 X135.372 Y133.764
G0 X147.970 Y130.717
G1 F1800 X148.121 Y131.049 E16.54479
G1 X148.328 Y131.355 E16.56322
G1 X148.606 Y131.637 E16.58298
G1 X148.903 Y131.848 E16.60116
G1 X149.226 Y132.005 E16.61907
G1 X149.546 Y132.104 E16.63579
G1 X149.913 Y132.150 E16.65424
G1 X150.306 Y132.128 E16.67388
G1 X150.662 Y132.046 E16.69210
G1 X151.000 Y131.904 E16.71039
G1 X151.306 Y131.707 E16.72855
G1 X151.573 Y131.465 E16.74653
G1 X151.783 Y131.204 E16.76324
G1 X151.961 Y130.886 E16.78142
G1 X152.082 Y130.542 E16.79961
G1 X152.144 Y130.184 E16.81774
G1 X152.145 Y129.862 E16.83381
G1 X152.140 Y129.791 E16.83736
G1 X152.072 Y129.429 E16.85573
G1 X151.959 Y129.109 E16.87266
G1 X151.762 Y128.768 E16.89231
G1 X151.528 Y128.486 E16.91059
G1 X151.248 Y128.249 E16.92889
G1 X150.935 Y128.064 E16.94703
G1 X150.600 Y127.935 E16.96494
G1 X150.272 Y127.865 E16.98168
G1 X149.905 Y127.849 E17.00000
G1 X149.513 Y127.904 E17.01975
G1 X149.164 Y128.017 E17.03805
G1 X148.846 Y128.185 E17.05600
G1 X148.577 Y128.384 E17.07269
G1 X148.325 Y128.648 E17.09090
G1 X148.118 Y128.954 E17.10933
G1 X147.963 Y129.312 E17.12879
G1 X147.879 Y129.635 E17.14544
G1 X147.846 Y130.004 E17.16393
G1 X147.886 Y130.393 E17.18344
G1 X147.970 Y130.717 E17.20013
G0 F9000 X149.227 Y132.004
G0 X150.999 Y131.903
G0 X162.105 Y135.170
G1 F1800 X162.020 Y135.493 E17.21680
G1 X161.990 Y135.861 E17.23522
G1 X162.027 Y136.250 E17.25471
G1 X162.112 Y136.575 E17.27147
G1 X162.263 Y136.907 E17.28967
G1 X162.471 Y137.214 E17.30817
G1 X162.749 Y137.495 E17.32789
G1 X163.045 Y137.706 E17.34603
G1 X163.368 Y137.863 E17.36394
G1 X163.688 Y137.962 E17.38065
G1 X164.055 Y138.008 E17.39911
G1 X164.450 Y137.986 E17.41884
G1 X164.807 Y137.902 E17.43714
G1 X165.141 Y137.761 E17.45523
G1 X165.448 Y137.565 E17.47340
G1 X165.715 Y137.323 E17.49138
G1 X165.925 Y137.062 E17.50809
G1 X166.102 Y136.744 E17.52625
G1 X166.225 Y136.400 E17.54447
G1 X166.286 Y136.041 E17.56264
G1 X166.287 Y135.720 E17.57866
G1 X166.282 Y135.650 E17.58216
G1 X166.215 Y135.283 E17.60077
G1 X166.086 Y134.939 E17.61910
G1 X165.903 Y134.623 E17.63732
G1 X165.669 Y134.343 E17.65552
G1 X165.390 Y134.107 E17.67375
G1 X165.078 Y133.922 E17.69185
G1 X164.743 Y133.793 E17.70976
G1 X164.415 Y133.723 E17.72649
G1 X164.047 Y133.707 E17.74487
G1 X163.655 Y133.762 E17.76462
G1 X163.307 Y133.875 E17.78287
G1 X162.987 Y134.043 E17.80090
G1 X162.719 Y134.243 E17.81759
G1 X162.468 Y134.505 E17.83569
G1 X162.260 Y134.811 E17.85415
G1 X162.105 Y135.170 E17.87366
G0 F9000 X162.264 Y136.906
G0 X168.846 Y148.185
G1 F1800 X168.577 Y148.384 E17.89035
G1 X168.325 Y148.648 E17.90856
G1 X168.118 Y148.954 E17.92699
G1 X167.963 Y149.312 E17.94645
G1 X167.879 Y149.635 E17.96310
G1 X167.846 Y150.004 E17.98159
G1 X167.886 Y150.393 E18.00110
G1 X167.970 Y150.717 E18.01779
G1 X168.121 Y151.049 E18.03599
G1 X168.328 Y151.355 E18.05442
G1 X168.606 Y151.637 E18.07418
G1 X168.903 Y151.848 E18.09235
G1 X169.226 Y152.005 E18.11027
G1 X169.546 Y152.104 E18.12698
G1 X169.913 Y152.150 E18.14544
G1 X170.306 Y152.128 E18.16507
G1 X170.662 Y152.046 E18.18330
G1 X171.000 Y151.904 E18.20159
G1 X171.306 Y151.707 E18.21975
G1 X171.573 Y151.465 E18.23772
G1 X171.783 Y151.204 E18.25444
G1 X171.961 Y150.886 E18.27262
G1 X172.082 Y150.542 E18.29081
G1 X172.144 Y150.184 E18.30894
G1 X172.145 Y149.862 E18.32500
G1 X172.140 Y149.791 E18.32855
G1 X172.072 Y149.429 E18.34693
G1 X171.959 Y149.109 E18.36386
G1 X171.762 Y148.768 E18.38351
G1 X171.528 Y148.486 E18.40179
G1 X171.248 Y148.249 E18.42009
G1 X170.935 Y148.064 E18.43823
G1 X170.600 Y147.935 E18.45614
G1 X170.272 Y147.865 E18.47287
G1 X169.905 Y147.849 E18.49120
G1 X169.513 Y147.904 E18.51095
G1 X169.164 Y148.017 E18.52925
G1 X168.846 Y148.185 E18.54719
G0 F9000 X167.879 Y149.636
G0 X164.744 Y162.079
G1 F1800 X164.417 Y162.007 E18.56390
G1 X164.047 Y161.991 E18.58238
G1 X163.655 Y162.046 E18.60212
G1 X163.306 Y162.159 E18.62043
G1 X162.987 Y162.328 E18.63844
G1 X162.720 Y162.526 E18.65502
G1 X162.468 Y162.789 E18.67319
G1 X162.260 Y163.096 E18.69169
G1 X162.105 Y163.454 E18.71116
G1 X162.020 Y163.778 E18.72787
G1 X161.990 Y164.146 E18.74629
G1 X162.027 Y164.535 E18.76578
G1 X162.112 Y164.859 E18.78249
G1 X162.263 Y165.192 E18.80074
G1 X162.471 Y165.498 E18.81919
G1 X162.748 Y165.778 E18.83884
G1 X163.045 Y165.991 E18.85708
G1 X163.369 Y166.147 E18.87502
G1 X163.688 Y166.246 E18.89168
G1 X164.055 Y166.292 E18.91014
G1 X164.449 Y166.270 E18.92982
G1 X164.806 Y166.188 E18.94810
G1 X165.142 Y166.046 E18.96630
G1 X165.448 Y165.849 E18.98445
G1 X165.719 Y165.603 E19.00271
G1 X165.939 Y165.320 E19.02060
G1 X166.102 Y165.029 E19.03724
G1 X166.225 Y164.684 E19.05551
G1 X166.286 Y164.325 E19.07368
G1 X166.287 Y164.004 E19.08969
G1 X166.282 Y163.934 E19.09319
G1 X166.215 Y163.571 E19.11161
G1 X166.101 Y163.250 E19.12860
G1 X165.904 Y162.910 E19.14821
G1 X165.670 Y162.628 E19.16649
G1 X165.389 Y162.391 E19.18483
G1 X165.077 Y162.207 E19.20290
G1 X164.744 Y162.079 E19.22070
G0 F9000 X162.988 Y162.329
G0 X151.959 Y169.109
G1 F1800 X151.762 Y168.768 E19.24035
G1 X151.528 Y168.486 E19.25863
G1 X151.248 Y168.249 E19.27693
G1 X150.935 Y168.064 E19.29507
G1 X150.600 Y167.935 E19.31298
G1 X150.272 Y167.865 E19.32971
G1 X149.905 Y167.849 E19.34804
G1 X149.513 Y167.904 E19.36779
G1 X149.164 Y168.017 E19.38609
G1 X148.846 Y168.185 E19.40403
G1 X148.577 Y168.384 E19.42073
G1 X148.325 Y168.648 E19.43893
G1 X148.118 Y168.954 E19.45737
G1 X147.963 Y169.312 E19.47683
G1 X147.879 Y169.635 E19.49348
G1 X147.846 Y170.004 E19.51196
G1 X147.886 Y170.393 E19.53147
G1 X147.970 Y170.717 E19.54817
G1 X148.121 Y171.049 E19.56637
G1 X148.328 Y171.355 E19.58480
G1 X148.606 Y171.637 E19.60455
G1 X148.903 Y171.848 E19.62273
G1 X149.226 Y172.005 E19.64065
G1 X149.546 Y172.104 E19.65736
G1 X149.913 Y172.150 E19.67581
G1 X150.306 Y172.128 E19.69545
G1 X150.662 Y172.046 E19.71367
G1 X151.000 Y171.904 E19.73197
G1 X151.306 Y171.707 E19.75012
G1 X151.573 Y171.465 E19.76810
G1 X151.783 Y171.204 E19.78481
G1 X151.961 Y170.886 E19.80299
G1 X152.082 Y170.542 E19.82119
G1 X152.144 Y170.184 E19.83931
G1 X152.145 Y169.862 E19.85538
G1 X152.140 Y169.791 E19.85893
G1 X152.072 Y169.429 E19.87731
G1 X151.959 Y169.109 E19.89424
G0 F9000 X150.598 Y167.936
G0 X137.940 Y164.684
G1 F1800 X138.002 Y164.326 E19.91236
G1 X138.003 Y164.004 E19.92843
G1 X137.998 Y163.933 E19.93198
G1 X137.930 Y163.571 E19.95036
G1 X137.817 Y163.251 E19.96729
G1 X137.619 Y162.909 E19.98700
G1 X137.384 Y162.628 E20.00528
G1 X137.106 Y162.391 E20.02350
G1 X136.792 Y162.207 E20.04166
G1 X136.459 Y162.079 E20.05946
G1 X136.132 Y162.007 E20.07616
G1 X135.763 Y161.991 E20.09459
G1 X135.371 Y162.046 E20.11434
G1 X135.021 Y162.159 E20.13269
G1 X134.704 Y162.328 E20.15061
G1 X134.435 Y162.526 E20.16727
G1 X134.182 Y162.790 E20.18552
G1 X133.975 Y163.097 E20.20399
G1 X133.821 Y163.454 E20.22339
G1 X133.737 Y163.777 E20.24004
G1 X133.704 Y164.146 E20.25852
G1 X133.744 Y164.536 E20.27808
G1 X133.828 Y164.859 E20.29473
G1 X133.978 Y165.192 E20.31295
G1 X134.185 Y165.498 E20.33138
G1 X134.464 Y165.778 E20.35110
G1 X134.761 Y165.991 E20.36934
G1 X135.084 Y166.147 E20.38723
G1 X135.404 Y166.246 E20.40394
G1 X135.771 Y166.292 E20.42240
G1 X136.164 Y166.270 E20.44203
G1 X136.520 Y166.188 E20.46026
G1 X136.858 Y166.046 E20.47855
G1 X137.165 Y165.848 E20.49678
G1 X137.434 Y165.603 E20.51493
G1 X137.655 Y165.321 E20.53280
G1 X137.819 Y165.028 E20.54956
G1 X137.940 Y164.684 E20.56775
G0 F9000 X137.618 Y162.910
G0 X131.000 Y151.904
G1 F1800 X131.306 Y151.707 E20.58590
G1 X131.573 Y151.465 E20.60388
G1 X131.783 Y151.204 E20.62060
G1 X131.961 Y150.886 E20.63878
G1 X132.082 Y150.542 E20.65697
G1 X132.144 Y150.184 E20.67510
G1 X132.145 Y149.862 E20.69116
G1 X132.140 Y149.791 E20.69471
G1 X132.072 Y149.429 E20.71309
G1 X131.959 Y149.109 E20.73002
G1 X131.762 Y148.768 E20.74967
G1 X131.528 Y148.486 E20.76795
G1 X131.248 Y148.249 E20.78625
G1 X130.935 Y148.064 E20.80439
G1 X130.600 Y147.935 E20.82230
G1 X130.272 Y147.865 E20.83903
G1 X129.905 Y147.849 E20.85736
G1 X129.513 Y147.904 E20.87711
G1 X129.164 Y148.017 E20.89541
G1 X128.846 Y148.185 E20.91335
G1 X128.577 Y148.384 E20.93005
G1 X128.325 Y148.648 E20.94825
G1 X128.118 Y148.954 E20.96669
G1 X127.963 Y149.312 E20.98615
G1 X127.879 Y149.635 E21.00280
G1 X127.846 Y150.004 E21.02128
G1 X127.886 Y150.393 E21.04079
G1 X127.970 Y150.717 E21.05749
G1 X128.121 Y151.049 E21.07569
G1 X128.328 Y151.355 E21.09412
G1 X128.606 Y151.637 E21.11387
G1 X128.903 Y151.848 E21.13205
G1 X129.226 Y152.005 E21.14997
G1 X129.546 Y152.104 E21.16668
G1 X129.913 Y152.150 E21.18513
G1 X130.306 Y152.128 E21.20477
G1 X130.662 Y152.046 E21.22300
G1 X131.000 Y151.904 E21.24129
G0 F9000 X130.813 Y151.549
;TYPE:WALL-OUTER
G1 F1800 X131.062 Y151.388 E21.25608
G1 X131.281 Y151.190 E21.27081
G1 X131.450 Y150.979 E21.28430
G1 X131.595 Y150.721 E21.29906
G1 X131.693 Y150.441 E21.31386
G1 X131.744 Y150.149 E21.32865
G1 X131.745 Y149.875 E21.34232
G1 X131.743 Y149.842 E21.34397
G1 X131.685 Y149.533 E21.35965
G1 X131.594 Y149.277 E21.37321
G1 X131.433 Y148.997 E21.38932
G1 X131.243 Y148.769 E21.40413
G1 X131.015 Y148.576 E21.41903
G1 X130.760 Y148.425 E21.43382
G1 X130.485 Y148.320 E21.44850
G1 X130.221 Y148.263 E21.46198
G1 X129.924 Y148.250 E21.47681
G1 X129.603 Y148.295 E21.49298
G1 X129.321 Y148.387 E21.50778
G1 X129.059 Y148.525 E21.52255
G1 X128.842 Y148.685 E21.53600
G1 X128.638 Y148.900 E21.55079
G1 X128.470 Y149.147 E21.56569
G1 X128.342 Y149.443 E21.58178
G1 X128.274 Y149.704 E21.59524
G1 X128.248 Y150.001 E21.61011
