;Generated with Cura_SteamEngine 15.01
; Default start code
G28 ; Home extruder
G1 Z15 F2000
M107 ; Turn off fan
G90 ; Absolute positioning
M82 ; Extruder in absolute mode
M104 T0 S180
M190 S50
; Activate all used extruder
G92 E0 ; Reset extruder position
; Wait for all used extruders to reach temperature
M109 T0 S210 R210
;Layer count: 145
;LAYER:0
M107
G0 F9000 X217.121 Y28.100 Z0.300
;TYPE:SKIRT
G1 F1800 X273.521 Y28.100 E2.81381
G1 X273.521 Y66.500 E4.72959
G1 X217.121 Y66.500 E7.54340
G1 X217.121 Y28.100 E9.45918
G1 F2400 E5.45918
G0 F9000 X220.921 Y31.900
;TYPE:WALL-INNER
G1 F2400 E9.45918
G1 F1800 X269.721 Y31.900 E11.89382
G1 X269.721 Y62.700 E13.43044
G1 X220.921 Y62.700 E15.86508
G1 X220.921 Y31.900 E17.40170
G0 F9000 X236.633 Y45.968
G1 F1800 X236.432 Y46.272 E17.41988
G1 X236.287 Y46.602 E17.43787
G1 X236.199 Y46.937 E17.45515
G1 X236.169 Y47.303 E17.47347
G1 X236.204 Y47.685 E17.49261
G1 X236.300 Y48.039 E17.51091
G1 X236.455 Y48.370 E17.52914
G1 X236.661 Y48.667 E17.54717
G1 X236.901 Y48.917 E17.56446
G1 X237.212 Y49.143 E17.58364
G1 X237.537 Y49.303 E17.60172
G1 X237.868 Y49.404 E17.61898
G1 X238.232 Y49.450 E17.63729
G1 X238.614 Y49.431 E17.65637
G1 X238.955 Y49.357 E17.67378
G1 X239.307 Y49.211 E17.69279
G1 X239.600 Y49.030 E17.70997
G1 X239.874 Y48.789 E17.72817
G1 X240.106 Y48.502 E17.74659
G1 X240.288 Y48.167 E17.76561
G1 X240.404 Y47.842 E17.78282
G1 X240.463 Y47.494 E17.80043
G1 X240.472 Y47.288 E17.81072
G1 X240.460 Y47.080 E17.82111
G1 X240.397 Y46.737 E17.83851
G1 X240.281 Y46.412 E17.85573
G1 X240.104 Y46.095 E17.87384
G1 X239.873 Y45.808 E17.89222
G1 X239.583 Y45.559 E17.91129
G1 X239.290 Y45.378 E17.92847
G1 X238.952 Y45.242 E17.94665
G1 X238.595 Y45.165 E17.96487
G1 X238.225 Y45.149 E17.98335
G1 X237.845 Y45.203 E18.00250
G1 X237.498 Y45.312 E18.02064
G1 X237.173 Y45.481 E18.03892
G1 X236.882 Y45.701 E18.05712
G1 X236.633 Y45.968 E18.07533
G0 F9000 X243.455 Y41.370
G1 F1800 X243.661 Y41.667 E18.09337
G1 X243.901 Y41.917 E18.11066
G1 X244.212 Y42.143 E18.12984
G1 X244.537 Y42.303 E18.14791
G1 X244.868 Y42.404 E18.16517
G1 X245.232 Y42.450 E18.18348
G1 X245.614 Y42.431 E18.20256
G1 X245.955 Y42.357 E18.21997
G1 X246.307 Y42.211 E18.23898
G1 X246.600 Y42.030 E18.25616
G1 X246.874 Y41.789 E18.27437
G1 X247.106 Y41.502 E18.29278
G1 X247.288 Y41.167 E18.31180
G1 X247.404 Y40.842 E18.32902
G1 X247.463 Y40.494 E18.34663
G1 X247.472 Y40.288 E18.35691
G1 X247.460 Y40.080 E18.36731
G1 X247.397 Y39.737 E18.38471
G1 X247.281 Y39.412 E18.40192
G1 X247.104 Y39.095 E18.42004
G1 X246.873 Y38.808 E18.43842
G1 X246.583 Y38.559 E18.45749
G1 X246.290 Y38.378 E18.47467
G1 X245.952 Y38.242 E18.49284
G1 X245.595 Y38.165 E18.51106
G1 X245.225 Y38.149 E18.52954
G1 X244.845 Y38.203 E18.54869
G1 X244.498 Y38.312 E18.56684
G1 X244.173 Y38.481 E18.58511
G1 X243.882 Y38.701 E18.60331
G1 X243.633 Y38.968 E18.62153
G1 X243.432 Y39.272 E18.63971
G1 X243.287 Y39.602 E18.65769
G1 X243.199 Y39.937 E18.67497
G1 X243.169 Y40.303 E18.69329
G1 X243.204 Y40.685 E18.71243
G1 X243.300 Y41.039 E18.73073
G1 X243.455 Y41.370 E18.74896
G0 F9000 X244.538 Y42.301
G0 X250.633 Y45.968
G1 F1800 X250.432 Y46.272 E18.76715
G1 X250.287 Y46.602 E18.78513
G1 X250.199 Y46.937 E18.80241
G1 X250.169 Y47.303 E18.82073
G1 X250.204 Y47.685 E18.83987
G1 X250.300 Y48.039 E18.85817
G1 X250.455 Y48.370 E18.87640
G1 X250.661 Y48.667 E18.89443
G1 X250.901 Y48.917 E18.91172
G1 X251.212 Y49.143 E18.93090
G1 X251.537 Y49.303 E18.94898
G1 X251.868 Y49.404 E18.96624
G1 X252.232 Y49.450 E18.98455
G1 X252.614 Y49.431 E19.00363
G1 X252.955 Y49.357 E19.02104
G1 X253.307 Y49.211 E19.04005
G1 X253.600 Y49.030 E19.05723
G1 X253.874 Y48.789 E19.07544
G1 X254.106 Y48.502 E19.09385
G1 X254.288 Y48.167 E19.11287
G1 X254.404 Y47.842 E19.13008
G1 X254.463 Y47.494 E19.14769
G1 X254.472 Y47.288 E19.15798
G1 X254.460 Y47.080 E19.16837
G1 X254.397 Y46.737 E19.18577
G1 X254.281 Y46.412 E19.20299
G1 X254.104 Y46.095 E19.22110
G1 X253.873 Y45.808 E19.23948
G1 X253.583 Y45.559 E19.25855
G1 X253.290 Y45.378 E19.27574
G1 X252.952 Y45.242 E19.29391
G1 X252.595 Y45.165 E19.31213
G1 X252.225 Y45.149 E19.33061
G1 X251.845 Y45.203 E19.34976
G1 X251.498 Y45.312 E19.36790
G1 X251.173 Y45.481 E19.38618
G1 X250.882 Y45.701 E19.40438
G1 X250.633 Y45.968 E19.42259
G0 F9000 X246.583 Y52.559
G1 F1800 X246.290 Y52.378 E19.43978
G1 X245.952 Y52.242 E19.45795
G1 X245.595 Y52.165 E19.47617
G1 X245.225 Y52.149 E19.49465
G1 X244.845 Y52.203 E19.51380
G1 X244.498 Y52.312 E19.53194
G1 X244.173 Y52.481 E19.55022
G1 X243.882 Y52.701 E19.56842
G1 X243.633 Y52.968 E19.58663
G1 X243.432 Y53.272 E19.60482
G1 X243.287 Y53.602 E19.62280
G1 X243.199 Y53.937 E19.64008
G1 X243.169 Y54.303 E19.65840
G1 X243.204 Y54.685 E19.67754
G1 X243.300 Y55.039 E19.69584
G1 X243.455 Y55.370 E19.71407
G1 X243.661 Y55.667 E19.73210
G1 X243.901 Y55.917 E19.74939
G1 X244.212 Y56.143 E19.76857
G1 X244.537 Y56.303 E19.78665
G1 X244.868 Y56.404 E19.80391
G1 X245.232 Y56.450 E19.82222
G1 X245.614 Y56.431 E19.84130
G1 X245.955 Y56.357 E19.85871
G1 X246.307 Y56.211 E19.87772
G1 X246.600 Y56.030 E19.89490
G1 X246.874 Y55.789 E19.91311
G1 X247.106 Y55.502 E19.93152
G1 X247.288 Y55.167 E19.95054
G1 X247.404 Y54.842 E19.96775
G1 X247.463 Y54.494 E19.98536
G1 X247.472 Y54.288 E19.99565
G1 X247.460 Y54.080 E20.00605
G1 X247.397 Y53.737 E20.02344
G1 X247.281 Y53.412 E20.04066
G1 X247.104 Y53.095 E20.05877
G1 X246.873 Y52.808 E20.07715
G1 X246.583 Y52.559 E20.09622
G0 F9000 X246.346 Y52.883
;TYPE:WALL-OUTER
G1 F1800 X246.109 Y52.737 E20.11011
G1 X245.834 Y52.626 E20.12491
G1 X245.544 Y52.563 E20.13971
G1 X245.245 Y52.550 E20.15464
G1 X244.934 Y52.594 E20.17031
G1 X244.651 Y52.683 E20.18511
G1 X244.387 Y52.820 E20.19995
G1 X244.151 Y52.999 E20.21473
G1 X243.948 Y53.216 E20.22956
G1 X243.785 Y53.464 E20.24436
G1 X243.666 Y53.734 E20.25908
G1 X243.595 Y54.004 E20.27301
G1 X243.570 Y54.301 E20.28788
G1 X243.599 Y54.614 E20.30356
G1 X243.677 Y54.901 E20.31840
G1 X243.803 Y55.170 E20.33322
G1 X243.972 Y55.413 E20.34799
G1 X244.165 Y55.614 E20.36189
G1 X244.419 Y55.799 E20.37757
G1 X244.685 Y55.930 E20.39236
G1 X244.952 Y56.011 E20.40628
G1 X245.247 Y56.049 E20.42112
G1 X245.561 Y56.033 E20.43681
G1 X245.835 Y55.974 E20.45079
G1 X246.124 Y55.854 E20.46640
G1 X246.361 Y55.707 E20.48031
G1 X246.585 Y55.511 E20.49516
G1 X246.772 Y55.279 E20.51003
G1 X246.921 Y55.004 E20.52563
G1 X247.015 Y54.741 E20.53957
G1 X247.064 Y54.452 E20.55419
G1 X247.071 Y54.291 E20.56223
G1 X247.062 Y54.127 E20.57043
G1 X247.010 Y53.841 E20.58493
G1 X246.916 Y53.578 E20.59886
G1 X246.771 Y53.320 E20.61363
G1 X246.584 Y53.087 E20.62853
G1 X246.346 Y52.883 E20.64417
G0 F9000 X246.541 Y52.655
G0 X250.755 Y48.619
G0 X250.972 Y48.413
G1 F1800 X251.165 Y48.614 E20.65807
G1 X251.419 Y48.799 E20.67375
G1 X251.685 Y48.930 E20.68854
G1 X251.952 Y49.011 E20.70246
G1 X252.247 Y49.049 E20.71730
G1 X252.561 Y49.033 E20.73299
G1 X252.835 Y48.974 E20.74697
G1 X253.124 Y48.854 E20.76258
G1 X253.361 Y48.707 E20.77650
G1 X253.585 Y48.511 E20.79135
G1 X253.772 Y48.279 E20.80621
G1 X253.921 Y48.004 E20.82182
G1 X254.015 Y47.741 E20.83575
G1 X254.064 Y47.452 E20.85038
G1 X254.071 Y47.291 E20.85842
G1 X254.062 Y47.127 E20.86661
G1 X254.010 Y46.841 E20.88111
G1 X253.916 Y46.578 E20.89505
G1 X253.771 Y46.320 E20.90981
G1 X253.584 Y46.087 E20.92472
G1 X253.346 Y45.883 E20.94036
G1 X253.109 Y45.737 E20.95424
G1 X252.834 Y45.626 E20.96904
G1 X252.544 Y45.563 E20.98385
G1 X252.245 Y45.550 E20.99878
G1 X251.934 Y45.594 E21.01445
G1 X251.651 Y45.683 E21.02925
G1 X251.387 Y45.820 E21.04409
G1 X251.151 Y45.999 E21.05886
G1 X250.948 Y46.216 E21.07369
G1 X250.785 Y46.464 E21.08849
G1 X250.666 Y46.734 E21.10322
G1 X250.595 Y47.004 E21.11714
G1 X250.570 Y47.301 E21.13201
G1 X250.599 Y47.614 E21.14770
G1 X250.677 Y47.901 E21.16253
G1 X250.803 Y48.170 E21.17735
G1 X250.972 Y48.413 E21.19212
G0 F9000 X250.755 Y48.619
G0 X246.517 Y41.964
G0 X246.361 Y41.707
G1 F1800 X246.585 Y41.511 E21.20697
G1 X246.772 Y41.279 E21.22184
G1 X246.921 Y41.004 E21.23744
G1 X247.015 Y40.741 E21.25137
G1 X247.064 Y40.452 E21.26600
G1 X247.071 Y40.291 E21.27404
G1 X247.062 Y40.127 E21.28223
G1 X247.010 Y39.841 E21.29674
G1 X246.916 Y39.578 E21.31067
G1 X246.771 Y39.320 E21.32543
G1 X246.584 Y39.087 E21.34034
G1 X246.346 Y38.883 E21.35598
G1 X246.109 Y38.737 E21.36987
G1 X245.834 Y38.626 E21.38466
G1 X245.544 Y38.563 E21.39947
G1 X245.245 Y38.550 E21.41440
G1 X244.934 Y38.594 E21.43007
G1 X244.651 Y38.683 E21.44487
G1 X244.387 Y38.820 E21.45971
G1 X244.151 Y38.999 E21.47449
G1 X243.948 Y39.216 E21.48931
G1 X243.785 Y39.464 E21.50412
G1 X243.666 Y39.734 E21.51884
G1 X243.595 Y40.004 E21.53277
G1 X243.570 Y40.301 E21.54764
G1 X243.599 Y40.614 E21.56332
G1 X243.677 Y40.901 E21.57816
G1 X243.803 Y41.170 E21.59298
G1 X243.972 Y41.413 E21.60774
G1 X244.165 Y41.614 E21.62165
G1 X244.419 Y41.799 E21.63732
G1 X244.685 Y41.930 E21.65211
G1 X244.952 Y42.011 E21.66604
G1 X245.247 Y42.049 E21.68087
G1 X245.561 Y42.033 E21.69656
G1 X245.835 Y41.974 E21.71054
G1 X246.124 Y41.854 E21.72616
G1 X246.361 Y41.707 E21.74007
G0 F9000 X246.517 Y41.964
G0 X240.006 Y46.133
G0 X239.771 Y46.320
G1 F1800 X239.584 Y46.087 E21.75497
G1 X239.346 Y45.883 E21.77061
G1 X239.109 Y45.737 E21.78450
G1 X238.834 Y45.626 E21.79930
G1 X238.544 Y45.563 E21.81410
G1 X238.245 Y45.550 E21.82903
G1 X237.934 Y45.594 E21.84470
G1 X237.651 Y45.683 E21.85950
G1 X237.387 Y45.820 E21.87434
G1 X237.151 Y45.999 E21.88912
G1 X236.948 Y46.216 E21.90395
G1 X236.785 Y46.464 E21.91875
G1 X236.666 Y46.734 E21.93347
G1 X236.595 Y47.004 E21.94740
G1 X236.570 Y47.301 E21.96227
G1 X236.599 Y47.614 E21.97795
G1 X236.677 Y47.901 E21.99279
G1 X236.803 Y48.170 E22.00761
G1 X236.972 Y48.413 E22.02238
G1 X237.165 Y48.614 E22.03628
G1 X237.419 Y48.799 E22.05196
G1 X237.685 Y48.930 E22.06675
G1 X237.952 Y49.011 E22.08067
G1 X238.247 Y49.049 E22.09551
G1 X238.561 Y49.033 E22.11119
G1 X238.835 Y48.974 E22.12518
G1 X239.124 Y48.854 E22.14079
G1 X239.361 Y48.707 E22.15470
G1 X239.585 Y48.511 E22.16955
G1 X239.772 Y48.279 E22.18442
G1 X239.921 Y48.004 E22.20002
G1 X240.015 Y47.741 E22.21396
G1 X240.064 Y47.452 E22.22858
G1 X240.071 Y47.291 E22.23662
G1 X240.062 Y47.127 E22.24482
G1 X240.010 Y46.841 E22.25932
G1 X239.916 Y46.578 E22.27325
G1 X239.771 Y46.320 E22.28802
G0 F9000 X240.006 Y46.133
G0 X239.582 Y45.560
G0 X220.821 Y31.710
G0 X220.521 Y31.500
G1 F1800 X270.121 Y31.500 E24.76257
G1 X270.121 Y63.100 E26.33910
G1 X220.521 Y63.100 E28.81366
G1 X220.521 Y31.500 E30.39019
G0 F9000 X221.202 Y31.980
;TYPE:SKIN
G1 F1800 X236.124 Y46.903 E31.44305
G0 F9000 X236.257 Y46.470
G1 F1800 X221.767 Y31.980 E32.46540
G0 F9000 X222.333 Y31.980
G1 F1800 X236.450 Y46.097 E33.46143
G0 F9000 X236.699 Y45.780
G1 F1800 X222.899 Y31.980 E34.43509
G0 F9000 X223.464 Y31.980
G1 F1800 X236.996 Y45.512 E35.38985
G0 F9000 X237.348 Y45.297
G1 F1800 X224.030 Y31.980 E36.32947
G0 F9000 X224.596 Y31.980
G1 F1800 X237.760 Y45.144 E37.25826
G0 F9000 X238.251 Y45.069
G1 F1800 X225.161 Y31.980 E38.18180
G0 F9000 X225.727 Y31.980
G1 F1800 X238.894 Y45.147 E39.11080
G0 F9000 X237.174 Y45.481
G0 X236.200 Y46.937
G0 X236.101 Y47.445
G1 F1800 X221.000 Y32.344 E40.17626
G0 F9000 X221.000 Y32.910
G1 F1800 X236.283 Y48.193 E41.25455
G0 F9000 X237.431 Y49.341
G1 F1800 X243.284 Y55.193 E41.66748
G0 F9000 X243.101 Y54.445
G1 F1800 X238.181 Y49.525 E42.01461
G0 F9000 X238.713 Y49.491
G1 F1800 X243.125 Y53.903 E42.32590
G0 F9000 X243.257 Y53.470
G1 F1800 X239.150 Y49.363 E42.61567
G0 F9000 X239.523 Y49.170
G1 F1800 X243.450 Y53.097 E42.89274
G0 F9000 X243.698 Y52.779
G1 F1800 X239.842 Y48.924 E43.16477
G0 F9000 X239.962 Y62.619
G1 F1800 X221.000 Y43.658 E44.50261
G0 F9000 X221.000 Y44.223
G1 F1800 X239.396 Y62.619 E45.80054
G0 F9000 X238.830 Y62.619
G1 F1800 X221.000 Y44.789 E47.05855
G0 F9000 X221.000 Y45.355
G1 F1800 X238.265 Y62.619 E48.27665
G0 F9000 X237.699 Y62.619
G1 F1800 X221.000 Y45.920 E49.45486
G0 F9000 X221.000 Y46.486
G1 F1800 X237.133 Y62.619 E50.59313
G0 F9000 X236.568 Y62.619
G1 F1800 X221.000 Y47.052 E51.69150
G0 F9000 X221.000 Y47.617
G1 F1800 X236.002 Y62.619 E52.74997
G0 F9000 X235.436 Y62.619
G1 F1800 X221.000 Y48.183 E53.76851
G0 F9000 X221.000 Y48.749
G1 F1800 X234.871 Y62.619 E54.74715
G0 F9000 X234.305 Y62.619
G1 F1800 X221.000 Y49.315 E55.68585
G0 F9000 X221.000 Y49.880
G1 F1800 X233.739 Y62.619 E56.58465
G0 F9000 X233.174 Y62.619
G1 F1800 X221.000 Y50.446 E57.44356
G0 F9000 X221.000 Y51.012
G1 F1800 X232.608 Y62.619 E58.26253
G0 F9000 X232.042 Y62.619
G1 F1800 X221.000 Y51.577 E59.04161
G0 F9000 X221.000 Y52.143
G1 F1800 X231.477 Y62.619 E59.78078
G0 F9000 X230.911 Y62.619
G1 F1800 X221.000 Y52.709 E60.48002
G0 F9000 X221.000 Y53.274
G1 F1800 X230.345 Y62.619 E61.13936
G0 F9000 X229.780 Y62.619
G1 F1800 X221.000 Y53.840 E61.75880
G0 F9000 X221.000 Y54.406
G1 F1800 X229.214 Y62.619 E62.33831
G0 F9000 X228.648 Y62.619
G1 F1800 X221.000 Y54.971 E62.87791
G0 F9000 X221.000 Y55.537
G1 F1800 X228.082 Y62.619 E63.37759
G0 F9000 X227.517 Y62.619
G1 F1800 X221.000 Y56.103 E63.83736
G0 F9000 X221.000 Y56.668
G1 F1800 X226.951 Y62.619 E64.25724
G0 F9000 X226.385 Y62.619
G1 F1800 X221.000 Y57.234 E64.63718
G0 F9000 X221.000 Y57.800
G1 F1800 X225.820 Y62.619 E64.97722
G0 F9000 X225.254 Y62.619
G1 F1800 X221.000 Y58.366 E65.27733
G0 F9000 X221.000 Y58.931
G1 F1800 X224.688 Y62.619 E65.53754
G0 F9000 X224.123 Y62.619
G1 F1800 X221.000 Y59.497 E65.75784
G0 F9000 X221.000 Y43.092
G1 F1800 X240.528 Y62.619 E67.13562
G0 F9000 X241.093 Y62.619
G1 F1800 X221.000 Y42.526 E68.55329
G0 F9000 X221.000 Y41.961
G1 F1800 X241.659 Y62.619 E70.01085
G0 F9000 X242.225 Y62.619
G1 F1800 X221.000 Y41.395 E71.50836
G0 F9000 X221.000 Y40.829
G1 F1800 X242.790 Y62.619 E73.04576
G0 F9000 X243.356 Y62.619
G1 F1800 X221.000 Y40.264 E74.62306
G0 F9000 X221.000 Y39.698
G1 F1800 X243.922 Y62.619 E76.24030
G0 F9000 X244.487 Y62.619
G1 F1800 X221.000 Y39.132 E77.89743
G0 F9000 X221.000 Y38.567
G1 F1800 X245.053 Y62.619 E79.59446
G0 F9000 X245.619 Y62.619
G1 F1800 X221.000 Y38.001 E81.33143
G0 F9000 X221.000 Y37.435
G1 F1800 X246.184 Y62.619 E83.10830
G0 F9000 X246.750 Y62.619
G1 F1800 X221.000 Y36.869 E84.92510
G0 F9000 X221.000 Y36.304
G1 F1800 X247.316 Y62.619 E86.78180
G0 F9000 X247.881 Y62.619
G1 F1800 X221.000 Y35.738 E88.67840
G0 F9000 X221.000 Y35.172
G1 F1800 X248.447 Y62.619 E90.61494
G0 F9000 X249.013 Y62.619
G1 F1800 X221.000 Y34.607 E92.59137
G0 F9000 X221.000 Y34.041
G1 F1800 X249.578 Y62.619 E94.60770
G0 F9000 X250.144 Y62.619
G1 F1800 X221.000 Y33.475 E96.66397
G0 F9000 X226.293 Y31.980
G1 F1800 X256.932 Y62.619 E98.82572
G0 F9000 X256.367 Y62.619
G1 F1800 X247.476 Y53.729 E99.45299
G0 F9000 X247.547 Y54.365
G1 F1800 X255.801 Y62.619 E100.03535
G0 F9000 X255.235 Y62.619
G1 F1800 X247.479 Y54.863 E100.58258
G0 F9000 X247.321 Y55.271
G1 F1800 X254.670 Y62.619 E101.10106
G0 F9000 X254.104 Y62.619
G1 F1800 X247.109 Y55.624 E101.59459
G0 F9000 X246.842 Y55.923
G1 F1800 X253.538 Y62.619 E102.06703
G0 F9000 X252.973 Y62.619
G1 F1800 X246.523 Y56.170 E102.52208
G0 F9000 X246.150 Y56.362
G1 F1800 X252.407 Y62.619 E102.96354
G0 F9000 X251.841 Y62.619
G1 F1800 X245.713 Y56.492 E103.39587
G0 F9000 X245.181 Y56.525
G1 F1800 X251.276 Y62.619 E103.82587
G0 F9000 X250.710 Y62.619
G1 F1800 X244.431 Y56.340 E104.26889
G0 F9000 X243.302 Y55.038
G0 X243.434 Y53.273
G0 X243.997 Y52.512
G1 F1800 X240.108 Y48.624 E104.54324
G0 F9000 X240.321 Y48.271
G1 F1800 X244.348 Y52.298 E104.82737
G0 F9000 X244.760 Y52.144
G1 F1800 X240.479 Y47.863 E105.12942
G0 F9000 X240.547 Y47.365
G1 F1800 X245.251 Y52.069 E105.46131
G0 F9000 X245.894 Y52.147
G1 F1800 X240.476 Y46.729 E105.84358
G0 F9000 X244.656 Y42.423
G1 F1800 X250.196 Y47.963 E106.23446
G0 F9000 X250.089 Y47.291
G1 F1800 X245.324 Y42.526 E106.57065
G0 F9000 X245.830 Y42.466
G1 F1800 X250.154 Y46.790 E106.87573
G0 F9000 X250.300 Y46.371
G1 F1800 X246.250 Y42.321 E107.16148
G0 F9000 X246.611 Y42.116
G1 F1800 X250.507 Y46.012 E107.43637
G0 F9000 X250.767 Y45.706
G1 F1800 X246.918 Y41.857 E107.70793
