;Generated with Cura_SteamEngine 15.01
; Default start code
G28 ; Home extruder
G1 Z15 F2000
M107 ; Turn off fan
G90 ; Absolute positioning
M82 ; Extruder in absolute mode
M104 T0 S180
M190 S50
; Activate all used extruder
G92 E0 ; Reset extruder position
; Wait for all used extruders to reach temperature
M109 T0 S210 R210
;Layer count: 70
;LAYER:0
M107
G0 F9000 X128.021 Y33.148 Z0.300
;TYPE:SKIRT
G1 F1800 X128.538 Y31.190 E0.10103
G1 X128.605 Y30.943 E0.11380
G1 X129.306 Y29.116 E0.21143
G1 X129.396 Y28.883 E0.22389
G1 X130.367 Y26.977 E0.33061
G1 X131.464 Y25.275 E0.43163
G1 X131.605 Y25.060 E0.44446
G1 X132.948 Y23.401 E0.55095
G1 X134.372 Y21.967 E0.65177
G1 X134.554 Y21.785 E0.66461
G1 X136.217 Y20.439 E0.77135
G1 X137.902 Y19.335 E0.87185
G1 X138.117 Y19.195 E0.88465
G1 X140.030 Y18.220 E0.99178
G1 X141.921 Y17.487 E1.09296
G1 X142.161 Y17.396 E1.10576
G1 X144.036 Y16.894 E1.20260
G1 X144.036 Y16.893 E1.20265
G1 X144.282 Y16.827 E1.21536
G1 X146.402 Y16.491 E1.32245
G1 X148.378 Y16.381 E1.42118
G1 X148.651 Y16.363 E1.43483
G1 X150.655 Y16.467 E1.53495
G1 X150.905 Y16.484 E1.54745
G1 X152.997 Y16.815 E1.65312
G1 X154.955 Y17.332 E1.75415
G1 X155.202 Y17.399 E1.76692
G1 X157.029 Y18.100 E1.86455
G1 X157.263 Y18.190 E1.87705
G1 X159.167 Y19.161 E1.98368
G1 X160.870 Y20.258 E2.08475
G1 X161.085 Y20.399 E2.09758
G1 X162.745 Y21.742 E2.20410
G1 X164.178 Y23.166 E2.30489
G1 X164.359 Y23.348 E2.31770
G1 X165.706 Y25.010 E2.42443
G1 X166.810 Y26.696 E2.52497
G1 X166.951 Y26.912 E2.53784
G1 X167.925 Y28.826 E2.64498
G1 X168.654 Y30.706 E2.74558
G1 X168.747 Y30.945 E2.75838
G1 X169.251 Y32.830 E2.85572
G1 X169.252 Y32.830 E2.85577
G1 X169.318 Y33.076 E2.86848
G1 X169.654 Y35.197 E2.97562
G1 X169.766 Y37.210 E3.07620
G1 X169.781 Y37.444 E3.08790
G1 X169.678 Y39.448 E3.18801
G1 X169.661 Y39.699 E3.20056
G1 X169.330 Y41.791 E3.30623
G1 X168.813 Y43.749 E3.40726
G1 X168.745 Y43.997 E3.42009
G1 X168.044 Y45.824 E3.51772
G1 X167.954 Y46.056 E3.53014
G1 X166.984 Y47.960 E3.63674
G1 X165.887 Y49.664 E3.73785
G1 X165.746 Y49.880 E3.75072
G1 X164.402 Y51.539 E3.85724
G1 X162.979 Y52.971 E3.95796
G1 X162.797 Y53.153 E3.97080
G1 X161.134 Y54.500 E4.07757
G1 X159.448 Y55.604 E4.17811
G1 X159.232 Y55.745 E4.19098
G1 X157.320 Y56.718 E4.29801
G1 X155.439 Y57.448 E4.39868
G1 X155.200 Y57.541 E4.41147
G1 X153.315 Y58.045 E4.50882
G1 X153.315 Y58.046 E4.50887
G1 X153.069 Y58.112 E4.52157
G1 X150.948 Y58.448 E4.62871
G1 X148.934 Y58.560 E4.72934
G1 X148.700 Y58.575 E4.74104
G1 X146.697 Y58.472 E4.84111
G1 X146.446 Y58.455 E4.85366
G1 X144.354 Y58.124 E4.95933
G1 X142.396 Y57.607 E5.06036
G1 X142.148 Y57.539 E5.07319
G1 X140.324 Y56.839 E5.17066
G1 X140.098 Y56.753 E5.18272
G1 X138.183 Y55.778 E5.28993
G1 X136.481 Y54.681 E5.39095
G1 X136.265 Y54.540 E5.40382
G1 X134.607 Y53.196 E5.51031
G1 X133.173 Y51.773 E5.61109
G1 X132.991 Y51.591 E5.62394
G1 X131.644 Y49.927 E5.73074
G1 X130.541 Y48.242 E5.83122
G1 X130.401 Y48.027 E5.84402
G1 X129.426 Y46.114 E5.95114
G1 X128.696 Y44.233 E6.05180
G1 X128.604 Y43.994 E6.06458
G1 X128.100 Y42.109 E6.16193
G1 X128.099 Y42.109 E6.16198
G1 X128.033 Y41.863 E6.17468
G1 X127.697 Y39.743 E6.28177
G1 X127.585 Y37.730 E6.38235
G1 X127.569 Y37.493 E6.39420
G1 X127.673 Y35.490 E6.49427
G1 X127.690 Y35.240 E6.50677
G1 X128.021 Y33.148 E6.61244
G0 F9000 X128.413 Y33.231
G1 F1800 X128.925 Y31.293 E6.71244
G1 X128.986 Y31.068 E6.72407
G1 X129.679 Y29.260 E6.82067
G1 X129.762 Y29.046 E6.83213
G1 X130.714 Y27.177 E6.93677
G1 X131.800 Y25.493 E7.03674
G1 X131.929 Y25.296 E7.04849
G1 X133.246 Y23.668 E7.15296
G1 X134.655 Y22.249 E7.25273
G1 X134.822 Y22.082 E7.26451
G1 X136.453 Y20.762 E7.36919
G1 X138.121 Y19.670 E7.46865
G1 X138.318 Y19.541 E7.48040
G1 X140.194 Y18.585 E7.58545
G1 X142.064 Y17.860 E7.68551
G1 X142.284 Y17.777 E7.69724
G1 X144.150 Y17.277 E7.79362
G1 X144.366 Y17.218 E7.80479
G1 X146.445 Y16.889 E7.90980
G1 X148.436 Y16.778 E8.00929
G1 X148.653 Y16.764 E8.02014
G1 X150.632 Y16.866 E8.11900
G1 X150.861 Y16.881 E8.13045
G1 X152.914 Y17.207 E8.23416
G1 X154.852 Y17.719 E8.33416
G1 X155.077 Y17.780 E8.34579
G1 X156.885 Y18.473 E8.44239
G1 X157.099 Y18.556 E8.45384
G1 X158.967 Y19.508 E8.55844
G1 X160.652 Y20.594 E8.65846
G1 X160.849 Y20.723 E8.67020
G1 X162.477 Y22.040 E8.77468
G1 X163.895 Y23.450 E8.87444
G1 X164.061 Y23.616 E8.88615
G1 X165.382 Y25.247 E8.99087
G1 X166.475 Y26.915 E9.09036
G1 X166.604 Y27.113 E9.10215
G1 X167.559 Y28.989 E9.20717
G1 X168.281 Y30.850 E9.30676
G1 X168.366 Y31.069 E9.31848
G1 X168.865 Y32.934 E9.41480
G1 X168.927 Y33.160 E9.42649
G1 X169.256 Y35.239 E9.53150
G1 X169.364 Y37.199 E9.62943
G1 X169.380 Y37.446 E9.64178
G1 X169.279 Y39.425 E9.74064
G1 X169.264 Y39.655 E9.75214
G1 X168.938 Y41.708 E9.85585
G1 X168.426 Y43.646 E9.95586
G1 X168.365 Y43.872 E9.96753
G1 X167.670 Y45.680 E10.06417
G1 X167.588 Y45.893 E10.07556
G1 X166.637 Y47.761 E10.18013
G1 X165.551 Y49.446 E10.28015
G1 X165.422 Y49.644 E10.29194
G1 X164.104 Y51.271 E10.39640
G1 X162.696 Y52.689 E10.49610
G1 X162.529 Y52.855 E10.50784
G1 X160.898 Y54.177 E10.61259
G1 X159.032 Y55.398 E10.72384
G1 X157.156 Y56.353 E10.82886
G1 X155.295 Y57.075 E10.92845
G1 X155.076 Y57.160 E10.94017
G1 X153.201 Y57.662 E11.03701
G1 X152.985 Y57.721 E11.04818
G1 X150.905 Y58.050 E11.15324
G1 X148.926 Y58.159 E11.25213
G1 X148.698 Y58.174 E11.26353
G1 X146.720 Y58.073 E11.36234
G1 X146.490 Y58.058 E11.37384
G1 X144.437 Y57.732 E11.47754
G1 X142.499 Y57.220 E11.57755
G1 X142.273 Y57.159 E11.58923
G1 X140.467 Y56.465 E11.68575
G1 X140.260 Y56.386 E11.69681
G1 X138.383 Y55.431 E11.80187
G1 X136.699 Y54.345 E11.90184
G1 X136.501 Y54.216 E11.91363
G1 X134.874 Y52.898 E12.01810
G1 X133.456 Y51.490 E12.11779
G1 X133.288 Y51.323 E12.12961
G1 X131.968 Y49.691 E12.23433
G1 X130.748 Y47.826 E12.34552
G1 X129.791 Y45.950 E12.45058
G1 X129.069 Y44.088 E12.55022
G1 X128.985 Y43.870 E12.56187
G1 X128.483 Y41.995 E12.65871
G1 X128.424 Y41.779 E12.66988
G1 X128.095 Y39.700 E12.77490
G1 X127.984 Y37.708 E12.87443
G1 X127.970 Y37.491 E12.88528
G1 X128.072 Y35.513 E12.98409
G1 X128.087 Y35.284 E12.99554
G1 X128.413 Y33.231 E13.09925
G1 F2400 E9.09925
G0 F9000 X132.137 Y34.010
;TYPE:WALL-INNER
G1 F2400 E13.09925
G1 F1800 X132.595 Y32.278 E13.18863
G1 X132.603 Y32.248 E13.19018
G1 X133.226 Y30.625 E13.27691
G1 X133.237 Y30.597 E13.27841
G1 X134.015 Y29.069 E13.36396
G1 X134.986 Y27.563 E13.45336
G1 X136.072 Y26.216 E13.53968
G1 X137.348 Y24.931 E13.63003
G1 X138.688 Y23.841 E13.71620
G1 X140.223 Y22.836 E13.80774
G1 X141.756 Y22.055 E13.89357
G1 X143.423 Y21.409 E13.98277
G1 X145.134 Y20.947 E14.07119
G1 X146.854 Y20.672 E14.15809
G1 X148.650 Y20.572 E14.24783
G1 X148.682 Y20.570 E14.24943
G1 X150.405 Y20.660 E14.33551
G1 X150.437 Y20.662 E14.33711
G1 X152.135 Y20.931 E14.42288
G1 X153.867 Y21.389 E14.51226
G1 X153.897 Y21.397 E14.51381
G1 X155.520 Y22.020 E14.60054
G1 X157.078 Y22.812 E14.68773
G1 X158.582 Y23.780 E14.77697
G1 X159.929 Y24.866 E14.86329
G1 X161.213 Y26.142 E14.95360
G1 X162.308 Y27.488 E15.04017
G1 X163.311 Y29.021 E15.13157
G1 X164.088 Y30.547 E15.21700
G1 X164.738 Y32.221 E15.30659
G1 X165.198 Y33.928 E15.39479
G1 X165.473 Y35.647 E15.48164
G1 X165.572 Y37.444 E15.57143
G1 X165.574 Y37.469 E15.57268
G1 X165.485 Y39.199 E15.65911
G1 X165.483 Y39.231 E15.66071
G1 X165.214 Y40.929 E15.74648
G1 X164.756 Y42.661 E15.83586
G1 X164.748 Y42.691 E15.83740
G1 X164.114 Y44.340 E15.92554
G1 X163.336 Y45.869 E16.01113
G1 X162.365 Y47.376 E16.10057
G1 X161.274 Y48.727 E16.18721
G1 X160.003 Y50.007 E16.27720
G1 X158.653 Y51.105 E16.36402
G1 X157.128 Y52.103 E16.45495
G1 X155.598 Y52.882 E16.54060
G1 X153.924 Y53.532 E16.63019
G1 X152.217 Y53.992 E16.71839
G1 X150.498 Y54.267 E16.80525
G1 X148.700 Y54.366 E16.89508
G1 X148.668 Y54.368 E16.89668
G1 X146.946 Y54.279 E16.98271
G1 X146.914 Y54.277 E16.98431
G1 X145.216 Y54.008 E17.07008
G1 X143.480 Y53.549 E17.15966
G1 X141.829 Y52.917 E17.24786
G1 X141.800 Y52.906 E17.24941
G1 X140.275 Y52.130 E17.33478
G1 X138.766 Y51.157 E17.42435
G1 X137.418 Y50.068 E17.51081
G1 X136.137 Y48.797 E17.60084
G1 X135.044 Y47.452 E17.68730
G1 X134.044 Y45.925 E17.77837
G1 X133.259 Y44.385 E17.86461
G1 X132.605 Y42.697 E17.95492
G1 X132.153 Y41.011 E18.04200
G1 X131.878 Y39.291 E18.12891
G1 X131.778 Y37.494 E18.21870
G1 X131.776 Y37.462 E18.22030
G1 X131.866 Y35.740 E18.30632
G1 X131.869 Y35.701 E18.30828
G1 X132.137 Y34.010 E18.39369
G0 F9000 X137.761 Y30.378
G1 F1800 X138.010 Y30.745 E18.41582
G1 X138.340 Y31.089 E18.43960
G1 X138.722 Y31.370 E18.46326
G1 X139.145 Y31.583 E18.48689
G1 X139.600 Y31.724 E18.51065
G1 X140.075 Y31.784 E18.53454
G1 X140.579 Y31.757 E18.55972
G1 X141.010 Y31.664 E18.58172
G1 X141.452 Y31.487 E18.60547
G1 X141.857 Y31.237 E18.62922
G1 X142.216 Y30.920 E18.65311
G1 X142.527 Y30.524 E18.67823
G1 X142.746 Y30.135 E18.70050
G1 X142.907 Y29.657 E18.72567
G1 X142.982 Y29.223 E18.74764
G1 X142.983 Y28.794 E18.76904
G1 X142.978 Y28.724 E18.77255
G1 X142.891 Y28.243 E18.79693
G1 X142.728 Y27.800 E18.82048
G1 X142.511 Y27.414 E18.84257
G1 X142.213 Y27.045 E18.86624
G1 X141.856 Y26.731 E18.88996
G1 X141.448 Y26.480 E18.91386
G1 X140.978 Y26.299 E18.93898
G1 X140.547 Y26.205 E18.96099
G1 X140.072 Y26.184 E18.98471
G1 X139.600 Y26.244 E19.00845
G1 X139.142 Y26.385 E19.03236
G1 X138.694 Y26.618 E19.05755
G1 X138.336 Y26.883 E19.07977
G1 X137.989 Y27.253 E19.10508
G1 X137.727 Y27.652 E19.12889
G1 X137.540 Y28.083 E19.15233
G1 X137.429 Y28.510 E19.17434
G1 X137.387 Y28.987 E19.19823
G1 X137.437 Y29.493 E19.22360
G1 X137.563 Y29.952 E19.24735
G1 X137.761 Y30.378 E19.27078
G0 F9000 X139.601 Y43.215
G1 F1800 X139.142 Y43.355 E19.29473
G1 X138.694 Y43.588 E19.31992
G1 X138.336 Y43.854 E19.34217
G1 X137.989 Y44.225 E19.36751
G1 X137.727 Y44.623 E19.39129
G1 X137.540 Y45.054 E19.41472
G1 X137.429 Y45.481 E19.43674
G1 X137.387 Y45.959 E19.46068
G1 X137.437 Y46.463 E19.48594
G1 X137.563 Y46.922 E19.50969
G1 X137.761 Y47.349 E19.53317
G1 X138.010 Y47.716 E19.55530
G1 X138.340 Y48.058 E19.57901
G1 X138.721 Y48.341 E19.60269
G1 X139.146 Y48.555 E19.62643
G1 X139.600 Y48.694 E19.65011
G1 X140.075 Y48.755 E19.67401
G1 X140.580 Y48.727 E19.69924
G1 X141.011 Y48.634 E19.72124
G1 X141.452 Y48.457 E19.74495
G1 X141.856 Y48.207 E19.76865
G1 X142.215 Y47.891 E19.79251
G1 X142.527 Y47.495 E19.81766
G1 X142.746 Y47.106 E19.83993
G1 X142.907 Y46.628 E19.86510
G1 X142.982 Y46.193 E19.88712
G1 X142.983 Y45.764 E19.90852
G1 X142.978 Y45.694 E19.91202
G1 X142.891 Y45.213 E19.93641
G1 X142.727 Y44.770 E19.95998
G1 X142.511 Y44.385 E19.98200
G1 X142.213 Y44.015 E20.00570
G1 X141.856 Y43.702 E20.02939
G1 X141.449 Y43.450 E20.05327
G1 X140.978 Y43.269 E20.07845
G1 X140.547 Y43.175 E20.10045
G1 X140.071 Y43.155 E20.12422
G1 X139.601 Y43.215 E20.14786
G0 F9000 X154.398 Y45.482
G1 F1800 X154.359 Y45.959 E20.17174
G1 X154.407 Y46.463 E20.19700
G1 X154.533 Y46.923 E20.22079
G1 X154.733 Y47.349 E20.24427
G1 X154.981 Y47.716 E20.26637
G1 X155.309 Y48.058 E20.29001
G1 X155.691 Y48.341 E20.31373
G1 X156.116 Y48.555 E20.33747
G1 X156.570 Y48.694 E20.36116
G1 X157.045 Y48.755 E20.38505
G1 X157.550 Y48.727 E20.41028
G1 X157.982 Y48.634 E20.43233
G1 X158.422 Y48.457 E20.45599
G1 X158.827 Y48.207 E20.47973
G1 X159.187 Y47.891 E20.50363
G1 X159.500 Y47.492 E20.52893
G1 X159.727 Y47.074 E20.55266
G1 X159.878 Y46.628 E20.57615
G1 X159.953 Y46.193 E20.59818
G1 X159.954 Y45.764 E20.61958
G1 X159.949 Y45.693 E20.62313
G1 X159.861 Y45.213 E20.64748
G1 X159.697 Y44.770 E20.67104
G1 X159.482 Y44.386 E20.69300
G1 X159.184 Y44.016 E20.71670
G1 X158.827 Y43.702 E20.74042
G1 X158.419 Y43.450 E20.76435
G1 X157.949 Y43.269 E20.78948
G1 X157.516 Y43.175 E20.81158
G1 X157.041 Y43.155 E20.83530
G1 X156.571 Y43.215 E20.85894
G1 X156.112 Y43.355 E20.88288
G1 X155.664 Y43.588 E20.90807
G1 X155.305 Y43.854 E20.93036
G1 X154.959 Y44.225 E20.95567
G1 X154.699 Y44.622 E20.97935
G1 X154.510 Y45.053 E21.00283
G1 X154.398 Y45.482 E21.02495
G0 F9000 X156.570 Y31.724
G1 F1800 X157.045 Y31.784 E21.04883
G1 X157.549 Y31.757 E21.07402
G1 X157.981 Y31.664 E21.09606
G1 X158.422 Y31.487 E21.11977
G1 X158.827 Y31.237 E21.14351
G1 X159.187 Y30.920 E21.16745
G1 X159.500 Y30.521 E21.19275
G1 X159.727 Y30.103 E21.21648
G1 X159.878 Y29.657 E21.23997
G1 X159.953 Y29.223 E21.26194
G1 X159.954 Y28.794 E21.28334
G1 X159.949 Y28.723 E21.28690
G1 X159.861 Y28.243 E21.31124
G1 X159.698 Y27.800 E21.33479
G1 X159.482 Y27.415 E21.35682
G1 X159.184 Y27.046 E21.38048
G1 X158.827 Y26.731 E21.40423
G1 X158.418 Y26.480 E21.42817
G1 X157.949 Y26.299 E21.45325
G1 X157.517 Y26.205 E21.47531
G1 X157.042 Y26.184 E21.49903
G1 X156.570 Y26.244 E21.52277
G1 X156.112 Y26.385 E21.54668
G1 X155.664 Y26.618 E21.57187
G1 X155.306 Y26.884 E21.59412
G1 X154.960 Y27.254 E21.61939
G1 X154.699 Y27.651 E21.64310
G1 X154.510 Y28.082 E21.66658
G1 X154.398 Y28.511 E21.68870
G1 X154.359 Y28.987 E21.71252
G1 X154.407 Y29.493 E21.73788
G1 X154.533 Y29.952 E21.76163
G1 X154.733 Y30.378 E21.78511
G1 X154.980 Y30.744 E21.80714
G1 X155.309 Y31.088 E21.83089
G1 X155.692 Y31.370 E21.85461
G1 X156.115 Y31.583 E21.87824
G1 X156.570 Y31.724 E21.90201
G0 F9000 X156.655 Y31.331
;TYPE:WALL-OUTER
G1 F1800 X157.060 Y31.383 E21.92238
G1 X157.496 Y31.359 E21.94416
G1 X157.864 Y31.280 E21.96294
G1 X158.241 Y31.128 E21.98322
G1 X158.588 Y30.914 E22.00356
G1 X158.895 Y30.644 E22.02396
G1 X159.165 Y30.300 E22.04577
G1 X159.359 Y29.942 E22.06609
G1 X159.489 Y29.558 E22.08632
G1 X159.553 Y29.188 E22.10505
G1 X159.554 Y28.807 E22.12406
G1 X159.552 Y28.773 E22.12576
G1 X159.474 Y28.349 E22.14726
G1 X159.333 Y27.968 E22.16753
G1 X159.149 Y27.640 E22.18630
G1 X158.894 Y27.323 E22.20659
G1 X158.588 Y27.054 E22.22692
G1 X158.240 Y26.840 E22.24730
G1 X157.834 Y26.683 E22.26902
G1 X157.466 Y26.603 E22.28781
G1 X157.059 Y26.585 E22.30813
G1 X156.655 Y26.637 E22.32845
G1 X156.264 Y26.757 E22.34886
G1 X155.877 Y26.958 E22.37062
G1 X155.573 Y27.183 E22.38948
G1 X155.275 Y27.502 E22.41126
G1 X155.052 Y27.842 E22.43155
G1 X154.889 Y28.213 E22.45177
G1 X154.794 Y28.578 E22.47058
G1 X154.760 Y28.985 E22.49096
G1 X154.802 Y29.420 E22.51276
G1 X154.910 Y29.813 E22.53310
G1 X155.082 Y30.180 E22.55332
G1 X155.293 Y30.492 E22.57211
G1 X155.574 Y30.787 E22.59243
G1 X155.902 Y31.028 E22.61274
G1 X156.265 Y31.211 E22.63302
G1 X156.655 Y31.331 E22.65338
G0 F9000 X156.616 Y31.628
G0 X157.980 Y31.663
G0 X159.499 Y30.519
G0 X162.387 Y27.426
G0 X162.631 Y27.251
G1 F1800 X163.658 Y28.820 E22.74693
G1 X164.453 Y30.383 E22.83442
G1 X165.128 Y32.120 E22.92739
G1 X165.596 Y33.868 E23.01767
G1 X165.871 Y35.601 E23.10521
G1 X165.971 Y37.420 E23.19610
G1 X165.974 Y37.469 E23.19855
G1 X165.884 Y39.225 E23.28627
G1 X165.881 Y39.277 E23.28887
G1 X165.605 Y41.013 E23.37657
G1 X165.142 Y42.766 E23.46702
G1 X164.477 Y44.510 E23.56014
G1 X163.685 Y46.066 E23.64725
G1 X162.700 Y47.595 E23.73799
G1 X162.673 Y47.636 E23.74044
G1 X161.572 Y48.995 E23.82770
G1 X160.248 Y50.328 E23.92143
G1 X158.890 Y51.428 E24.00862
G1 X157.329 Y52.450 E24.10171
G1 X155.762 Y53.247 E24.18942
G1 X154.025 Y53.922 E24.28239
G1 X152.277 Y54.390 E24.37267
G1 X150.544 Y54.665 E24.46021
G1 X148.724 Y54.765 E24.55115
G1 X148.672 Y54.768 E24.55374
G1 X146.920 Y54.678 E24.64127
G1 X146.868 Y54.675 E24.64387
G1 X145.132 Y54.399 E24.73156
G1 X143.379 Y53.936 E24.82202
G1 X141.634 Y53.271 E24.91519
G1 X140.078 Y52.479 E25.00229
G1 X138.549 Y51.493 E25.09306
G1 X137.150 Y50.366 E25.18269
G1 X135.816 Y49.042 E25.27646
G1 X134.717 Y47.684 E25.36361
G1 X133.695 Y46.123 E25.45670
G1 X132.897 Y44.556 E25.54443
G1 X132.223 Y42.818 E25.63743
G1 X131.755 Y41.071 E25.72766
G1 X131.480 Y39.338 E25.81520
G1 X131.379 Y37.518 E25.90614
G1 X131.376 Y37.466 E25.90874
G1 X131.467 Y35.714 E25.99627
G1 X131.470 Y35.662 E25.99887
G1 X131.746 Y33.923 E26.08671
G1 X132.209 Y32.173 E26.17702
G1 X132.873 Y30.429 E26.27012
G1 X133.666 Y28.872 E26.35730
G1 X134.651 Y27.344 E26.44800
G1 X134.678 Y27.303 E26.45045
G1 X135.778 Y25.944 E26.53767
G1 X137.103 Y24.610 E26.63148
G1 X138.457 Y23.514 E26.71839
G1 X140.026 Y22.487 E26.81194
