;Generated with Cura_SteamEngine 15.01
; Default start code
G28 ; Home extruder
G1 Z15 F2000
M107 ; Turn off fan
G90 ; Absolute positioning
M82 ; Extruder in absolute mode
M104 T0 S180
M190 S50
; Activate all used extruder
G92 E0 ; Reset extruder position
; Wait for all used extruders to reach temperature
M109 T0 S210 R210
;Layer count: 45
;LAYER:0
M107
G0 F9000 X136.515 Y135.091 Z0.300
;TYPE:SKIRT
G1 F1800 X137.887 Y133.973 E0.08830
G1 X138.183 Y133.734 E0.10728
G1 X139.770 Y132.703 E0.20169
G1 X139.962 Y132.581 E0.21304
G1 X141.783 Y131.653 E0.31501
G1 X143.775 Y130.883 E0.42156
G1 X145.819 Y130.334 E0.52715
G1 X147.857 Y130.011 E0.63009
G1 X149.771 Y129.907 E0.72572
G1 X150.002 Y129.895 E0.73726
G1 X151.873 Y129.993 E0.83074
G1 X152.099 Y130.004 E0.84203
G1 X154.135 Y130.327 E0.94487
G1 X155.566 Y130.705 E1.01871
G1 X156.221 Y130.882 E1.05256
G1 X158.144 Y131.619 E1.15531
G1 X160.012 Y132.567 E1.25982
G1 X161.598 Y133.593 E1.35406
G1 X161.804 Y133.724 E1.36624
G1 X163.452 Y135.059 E1.47205
G1 X164.908 Y136.515 E1.57478
G1 X166.010 Y137.866 E1.66176
G1 X166.267 Y138.186 E1.68223
G1 X167.296 Y139.770 E1.77647
G1 X167.418 Y139.962 E1.78782
G1 X168.346 Y141.783 E1.88979
G1 X169.116 Y143.775 E1.99633
G1 X169.665 Y145.819 E2.10192
G1 X169.988 Y147.857 E2.20487
G1 X170.092 Y149.756 E2.29975
G1 X170.107 Y149.956 E2.30976
G1 X169.997 Y152.058 E2.41477
G1 X169.673 Y154.132 E2.51950
G1 X169.294 Y155.566 E2.59350
G1 X169.117 Y156.221 E2.62735
G1 X168.380 Y158.144 E2.73009
G1 X167.432 Y160.012 E2.83460
G1 X166.392 Y161.620 E2.93014
G1 X166.275 Y161.804 E2.94102
G1 X164.940 Y163.452 E3.04683
G1 X163.484 Y164.908 E3.14956
G1 X162.133 Y166.010 E3.23654
G1 X161.813 Y166.267 E3.25702
G1 X160.231 Y167.296 E3.35117
G1 X160.037 Y167.419 E3.36263
G1 X158.215 Y168.347 E3.46464
G1 X156.224 Y169.116 E3.57112
G1 X154.180 Y169.665 E3.67671
G1 X152.142 Y169.988 E3.77966
G1 X150.244 Y170.092 E3.87449
G1 X150.044 Y170.107 E3.88450
G1 X147.941 Y169.997 E3.98956
G1 X145.867 Y169.673 E4.09429
G1 X144.433 Y169.294 E4.16829
G1 X143.778 Y169.117 E4.20214
G1 X141.855 Y168.379 E4.30490
G1 X139.988 Y167.432 E4.40934
G1 X138.401 Y166.406 E4.50362
G1 X138.196 Y166.276 E4.51573
G1 X136.939 Y165.259 E4.59640
G1 X136.543 Y164.936 E4.62189
G1 X135.091 Y163.484 E4.72434
G1 X133.973 Y162.112 E4.81264
G1 X133.734 Y161.816 E4.83162
G1 X132.703 Y160.231 E4.92595
G1 X132.580 Y160.037 E4.93741
G1 X131.652 Y158.215 E5.03942
G1 X130.883 Y156.224 E5.14591
G1 X130.334 Y154.180 E5.25150
G1 X130.011 Y152.142 E5.35444
G1 X129.907 Y150.229 E5.45002
G1 X129.895 Y149.998 E5.46156
G1 X129.993 Y148.126 E5.55508
G1 X130.004 Y147.900 E5.56637
G1 X130.327 Y145.864 E5.66922
G1 X130.705 Y144.433 E5.74306
G1 X130.882 Y143.778 E5.77691
G1 X131.620 Y141.855 E5.87967
G1 X132.567 Y139.988 E5.98412
G1 X133.593 Y138.401 E6.07840
G1 X133.724 Y138.196 E6.09053
G1 X134.745 Y136.933 E6.17156
G1 X135.063 Y136.543 E6.19666
G1 X136.515 Y135.091 E6.29911
G0 F9000 X136.784 Y135.388
G1 F1800 X138.139 Y134.284 E6.38631
G1 X138.419 Y134.058 E6.40426
G1 X139.986 Y133.039 E6.49752
G1 X140.161 Y132.928 E6.50785
G1 X141.946 Y132.018 E6.60781
G1 X143.899 Y131.264 E6.71226
G1 X145.902 Y130.726 E6.81573
G1 X147.899 Y130.410 E6.91660
G1 X149.792 Y130.306 E7.01119
G1 X150.002 Y130.296 E7.02167
G1 X151.852 Y130.392 E7.11410
G1 X152.057 Y130.403 E7.12434
G1 X154.053 Y130.719 E7.22516
G1 X155.463 Y131.091 E7.29791
G1 X156.097 Y131.262 E7.33067
G1 X157.981 Y131.985 E7.43135
G1 X159.812 Y132.914 E7.53378
G1 X161.383 Y133.930 E7.62712
G1 X161.570 Y134.049 E7.63818
G1 X163.184 Y135.357 E7.74183
G1 X164.611 Y136.783 E7.84247
G1 X165.699 Y138.118 E7.92839
G1 X165.943 Y138.421 E7.94780
G1 X166.960 Y139.986 E8.04092
G1 X167.071 Y140.161 E8.05126
G1 X167.981 Y141.946 E8.15122
G1 X168.735 Y143.899 E8.25566
G1 X169.273 Y145.902 E8.35913
G1 X169.589 Y147.899 E8.46000
G1 X169.688 Y149.716 E8.55079
G1 X169.706 Y149.961 E8.56304
G1 X169.599 Y152.017 E8.66576
G1 X169.281 Y154.050 E8.76842
G1 X168.908 Y155.463 E8.84133
G1 X168.737 Y156.097 E8.87409
G1 X168.014 Y157.981 E8.97477
G1 X167.085 Y159.812 E9.07720
G1 X166.056 Y161.403 E9.17173
G1 X165.950 Y161.570 E9.18160
G1 X164.642 Y163.184 E9.28524
G1 X163.216 Y164.611 E9.38589
G1 X161.881 Y165.699 E9.47181
G1 X161.578 Y165.943 E9.49122
G1 X160.014 Y166.959 E9.58427
G1 X159.839 Y167.071 E9.59463
G1 X158.052 Y167.981 E9.69468
G1 X156.100 Y168.735 E9.79908
G1 X154.097 Y169.273 E9.90255
G1 X152.100 Y169.589 E10.00342
G1 X150.277 Y169.688 E10.09450
G1 X150.039 Y169.706 E10.10641
G1 X147.982 Y169.599 E10.20918
G1 X145.949 Y169.281 E10.31184
G1 X144.536 Y168.908 E10.38475
G1 X143.902 Y168.737 E10.41751
G1 X142.017 Y168.013 E10.51825
G1 X140.188 Y167.085 E10.62057
G1 X138.616 Y166.068 E10.71398
G1 X138.616 Y166.069 E10.71403
G1 X138.430 Y165.950 E10.72505
G1 X137.191 Y164.948 E10.80454
G1 X136.811 Y164.639 E10.82898
G1 X135.388 Y163.215 E10.92941
G1 X134.284 Y161.860 E11.01661
G1 X134.058 Y161.581 E11.03453
G1 X133.040 Y160.014 E11.12775
G1 X132.928 Y159.839 E11.13812
G1 X132.018 Y158.052 E11.23817
G1 X131.264 Y156.100 E11.34256
G1 X130.726 Y154.097 E11.44604
G1 X130.410 Y152.100 E11.54691
G1 X130.306 Y150.208 E11.64144
G1 X130.296 Y149.999 E11.65188
G1 X130.392 Y148.147 E11.74440
G1 X130.403 Y147.942 E11.75464
G1 X130.719 Y145.946 E11.85546
G1 X131.091 Y144.536 E11.92822
G1 X131.262 Y143.902 E11.96098
G1 X131.986 Y142.017 E12.06172
G1 X132.914 Y140.188 E12.16404
G1 X133.931 Y138.616 E12.25745
G1 X133.930 Y138.616 E12.25750
G1 X134.049 Y138.430 E12.26852
G1 X135.056 Y137.185 E12.34840
G1 X135.360 Y136.811 E12.37245
G1 X136.784 Y135.388 E12.47289
G1 F2400 E8.47289
G0 F9000 X139.332 Y138.213
;TYPE:WALL-INNER
G1 F2400 E12.47289
G1 F1800 X140.532 Y137.236 E12.55009
G1 X140.657 Y137.135 E12.55810
G1 X142.039 Y136.237 E12.64033
G1 X143.498 Y135.493 E12.72204
G1 X145.086 Y134.879 E12.80698
G1 X146.687 Y134.449 E12.88968
G1 X148.305 Y134.193 E12.97141
G1 X149.994 Y134.101 E13.05580
G1 X151.656 Y134.187 E13.13883
G1 X153.274 Y134.443 E13.22055
G1 X154.484 Y134.763 E13.28300
G1 X154.916 Y134.879 E13.30531
G1 X156.438 Y135.463 E13.38664
G1 X157.911 Y136.210 E13.46904
G1 X159.341 Y137.135 E13.55401
G1 X160.641 Y138.187 E13.63744
G1 X161.786 Y139.332 E13.71823
G1 X162.745 Y140.508 E13.79393
G1 X162.859 Y140.650 E13.80302
G1 X163.765 Y142.044 E13.88596
G1 X164.506 Y143.498 E13.96738
G1 X165.120 Y145.086 E14.05232
G1 X165.550 Y146.687 E14.13503
G1 X165.806 Y148.305 E14.21675
G1 X165.898 Y150.000 E14.30144
G1 X165.815 Y151.617 E14.38222
G1 X165.556 Y153.273 E14.46584
G1 X165.237 Y154.481 E14.52818
G1 X165.120 Y154.916 E14.55065
G1 X164.536 Y156.438 E14.63198
G1 X163.789 Y157.911 E14.71438
G1 X162.864 Y159.341 E14.79935
G1 X161.812 Y160.641 E14.88278
G1 X160.667 Y161.786 E14.96357
G1 X159.488 Y162.747 E15.03945
G1 X159.349 Y162.859 E15.04836
G1 X157.961 Y163.762 E15.13097
G1 X156.501 Y164.506 E15.21272
G1 X154.913 Y165.120 E15.29766
G1 X153.312 Y165.550 E15.38037
G1 X151.694 Y165.806 E15.46209
G1 X150.000 Y165.898 E15.54673
G1 X149.990 Y165.899 E15.54723
G1 X148.380 Y165.815 E15.62767
G1 X146.726 Y165.556 E15.71119
G1 X145.515 Y165.236 E15.77368
G1 X145.083 Y165.120 E15.79600
G1 X143.565 Y164.537 E15.87712
G1 X142.085 Y163.786 E15.95992
G1 X140.658 Y162.864 E16.04469
G1 X139.585 Y161.997 E16.11351
G1 X139.360 Y161.814 E16.12798
G1 X138.213 Y160.667 E16.20890
G1 X137.234 Y159.465 E16.28625
G1 X137.134 Y159.341 E16.29419
G1 X136.234 Y157.956 E16.37660
G1 X135.493 Y156.501 E16.45806
G1 X134.879 Y154.913 E16.54300
G1 X134.449 Y153.312 E16.62571
G1 X134.193 Y151.694 E16.70743
G1 X134.101 Y150.006 E16.79177
G1 X134.187 Y148.343 E16.87485
G1 X134.443 Y146.725 E16.95658
G1 X134.762 Y145.518 E17.01886
G1 X134.879 Y145.083 E17.04134
G1 X135.462 Y143.565 E17.12246
G1 X136.213 Y142.085 E17.20526
G1 X137.135 Y140.658 E17.29002
G1 X138.005 Y139.581 E17.35910
G1 X138.185 Y139.360 E17.37332
G1 X139.332 Y138.213 E17.45424
G0 F9000 X140.071 Y139.486
G1 F1800 X139.822 Y139.671 E17.46972
G1 X139.615 Y139.891 E17.48479
G1 X139.446 Y140.141 E17.49985
G1 X139.319 Y140.423 E17.51528
G1 X139.244 Y140.714 E17.53027
G1 X139.217 Y141.025 E17.54584
G1 X139.245 Y141.330 E17.56112
G1 X139.322 Y141.626 E17.57638
G1 X139.450 Y141.903 E17.59161
G1 X139.617 Y142.150 E17.60648
G1 X139.828 Y142.373 E17.62180
G1 X140.080 Y142.557 E17.63736
G1 X140.353 Y142.693 E17.65258
G1 X140.639 Y142.781 E17.66751
G1 X140.941 Y142.819 E17.68270
G1 X141.253 Y142.807 E17.69827
G1 X141.555 Y142.741 E17.71370
G1 X141.835 Y142.625 E17.72882
G1 X142.095 Y142.466 E17.74402
G1 X142.325 Y142.262 E17.75936
G1 X142.514 Y142.025 E17.77448
G1 X142.661 Y141.763 E17.78947
G1 X142.764 Y141.473 E17.80482
G1 X142.813 Y141.183 E17.81950
G1 X142.819 Y141.017 E17.82778
G1 X142.813 Y140.849 E17.83617
G1 X142.762 Y140.558 E17.85091
G1 X142.659 Y140.272 E17.86608
G1 X142.510 Y140.007 E17.88124
G1 X142.317 Y139.768 E17.89657
G1 X142.086 Y139.566 E17.91188
G1 X141.829 Y139.410 E17.92688
G1 X141.548 Y139.296 E17.94201
G1 X141.249 Y139.232 E17.95726
G1 X140.937 Y139.218 E17.97284
G1 X140.631 Y139.259 E17.98825
G1 X140.342 Y139.350 E18.00336
G1 X140.071 Y139.486 E18.01849
G0 F9000 X141.547 Y139.297
G0 X142.657 Y140.272
G0 X142.661 Y141.762
G0 X143.104 Y142.618
G1 F1800 X142.163 Y143.624 E18.08721
G1 X141.377 Y144.739 E18.15527
G1 X140.735 Y145.975 E18.22476
G1 X140.273 Y147.274 E18.29354
G1 X139.992 Y148.624 E18.36234
G1 X139.899 Y150.000 E18.43114
G1 X139.992 Y151.375 E18.49990
G1 X140.273 Y152.725 E18.56870
G1 X140.734 Y154.023 E18.63742
G1 X141.199 Y154.923 E18.68796
G1 X141.377 Y155.260 E18.70697
G1 X142.153 Y156.360 E18.77413
G1 X143.104 Y157.381 E18.84374
G1 X144.174 Y158.252 E18.91258
G1 X145.352 Y158.968 E18.98135
G1 X146.616 Y159.518 E19.05012
G1 X147.945 Y159.890 E19.11898
G1 X149.310 Y160.077 E19.18771
G1 X150.689 Y160.077 E19.25651
G1 X152.054 Y159.890 E19.32525
G1 X153.383 Y159.518 E19.39410
G1 X154.646 Y158.968 E19.46283
G1 X155.823 Y158.254 E19.53151
G1 X156.895 Y157.381 E19.60048
G1 X157.836 Y156.375 E19.66920
G1 X158.622 Y155.260 E19.73726
G1 X159.264 Y154.024 E19.80675
G1 X159.726 Y152.725 E19.87553
G1 X160.007 Y151.375 E19.94433
G1 X160.101 Y150.000 E20.01309
G1 X160.007 Y148.624 E20.08190
G1 X159.726 Y147.274 E20.15069
G1 X159.265 Y145.976 E20.21941
G1 X158.800 Y145.076 E20.26995
G1 X158.622 Y144.739 E20.28897
G1 X157.846 Y143.639 E20.35613
G1 X156.895 Y142.618 E20.42574
G1 X155.825 Y141.747 E20.49457
G1 X154.647 Y141.031 E20.56335
G1 X153.383 Y140.481 E20.63212
G1 X152.054 Y140.109 E20.70097
G1 X150.689 Y139.922 E20.76971
G1 X149.310 Y139.922 E20.83851
G1 X147.945 Y140.109 E20.90724
G1 X146.616 Y140.481 E20.97610
G1 X145.353 Y141.031 E21.04482
G1 X144.176 Y141.745 E21.11350
G1 X143.104 Y142.618 E21.18248
G0 F9000 X148.340 Y138.366
G1 F1800 X148.579 Y138.617 E21.19977
G1 X148.892 Y138.842 E21.21900
G1 X149.215 Y139.002 E21.23698
G1 X149.547 Y139.104 E21.25431
G1 X149.911 Y139.150 E21.27262
G1 X150.292 Y139.131 E21.29165
G1 X150.633 Y139.057 E21.30906
G1 X150.985 Y138.911 E21.32807
G1 X151.279 Y138.730 E21.34529
G1 X151.554 Y138.489 E21.36354
G1 X151.785 Y138.201 E21.38195
G1 X151.968 Y137.864 E21.40109
G1 X152.085 Y137.522 E21.41912
G1 X152.142 Y137.196 E21.43563
G1 X152.151 Y136.986 E21.44612
G1 X152.138 Y136.778 E21.45651
G1 X152.076 Y136.438 E21.47376
G1 X151.961 Y136.113 E21.49096
G1 X151.783 Y135.795 E21.50914
G1 X151.552 Y135.508 E21.52752
G1 X151.262 Y135.258 E21.54662
G1 X150.968 Y135.077 E21.56385
G1 X150.629 Y134.941 E21.58207
G1 X150.272 Y134.865 E21.60028
G1 X149.906 Y134.849 E21.61856
G1 X149.525 Y134.902 E21.63775
G1 X149.176 Y135.012 E21.65600
G1 X148.852 Y135.181 E21.67423
G1 X148.559 Y135.401 E21.69251
G1 X148.312 Y135.667 E21.71062
G1 X148.110 Y135.971 E21.72883
G1 X147.965 Y136.303 E21.74691
G1 X147.879 Y136.635 E21.76402
G1 X147.846 Y137.003 E21.78245
G1 X147.884 Y137.387 E21.80170
G1 X147.979 Y137.737 E21.81980
G1 X148.133 Y138.069 E21.83805
G1 X148.340 Y138.366 E21.85612
G0 F9000 X149.912 Y139.148
G0 X157.203 Y140.715
G1 F1800 X157.178 Y141.025 E21.87163
G1 X157.205 Y141.328 E21.88681
G1 X157.282 Y141.626 E21.90216
G1 X157.410 Y141.904 E21.91743
G1 X157.582 Y142.156 E21.93265
G1 X157.794 Y142.376 E21.94790
G1 X158.041 Y142.557 E21.96317
G1 X158.312 Y142.693 E21.97830
G1 X158.601 Y142.781 E21.99337
G1 X158.902 Y142.819 E22.00851
G1 X159.213 Y142.807 E22.02404
G1 X159.515 Y142.741 E22.03946
G1 X159.797 Y142.625 E22.05467
G1 X160.053 Y142.466 E22.06971
G1 X160.283 Y142.263 E22.08501
G1 X160.475 Y142.025 E22.10027
G1 X160.622 Y141.762 E22.11530
G1 X160.724 Y141.473 E22.13059
G1 X160.773 Y141.186 E22.14512
G1 X160.781 Y141.017 E22.15356
G1 X160.773 Y140.847 E22.16205
G1 X160.722 Y140.558 E22.17669
G1 X160.619 Y140.273 E22.19181
G1 X160.471 Y140.005 E22.20708
G1 X160.270 Y139.763 E22.22278
G1 X160.047 Y139.567 E22.23759
G1 X159.790 Y139.410 E22.25261
G1 X159.508 Y139.296 E22.26779
G1 X159.209 Y139.232 E22.28304
G1 X158.898 Y139.218 E22.29857
G1 X158.593 Y139.259 E22.31393
G1 X158.302 Y139.350 E22.32914
G1 X158.032 Y139.487 E22.34424
G1 X157.783 Y139.671 E22.35969
G1 X157.576 Y139.889 E22.37469
G1 X157.406 Y140.141 E22.38985
G1 X157.279 Y140.423 E22.40528
G1 X157.203 Y140.715 E22.42034
G0 F9000 X157.583 Y142.155
G0 X161.852 Y148.181
G1 F1800 X161.559 Y148.401 E22.43862
G1 X161.312 Y148.667 E22.45673
G1 X161.110 Y148.971 E22.47494
G1 X160.965 Y149.303 E22.49301
G1 X160.879 Y149.635 E22.51012
G1 X160.846 Y150.003 E22.52855
G1 X160.884 Y150.387 E22.54781
G1 X160.979 Y150.737 E22.56590
G1 X161.133 Y151.069 E22.58416
G1 X161.340 Y151.366 E22.60222
G1 X161.579 Y151.617 E22.61951
G1 X161.892 Y151.842 E22.63874
G1 X162.215 Y152.002 E22.65673
G1 X162.547 Y152.104 E22.67405
G1 X162.911 Y152.150 E22.69236
G1 X163.292 Y152.131 E22.71139
G1 X163.633 Y152.057 E22.72880
G1 X163.985 Y151.911 E22.74781
G1 X164.279 Y151.730 E22.76503
G1 X164.554 Y151.489 E22.78328
G1 X164.785 Y151.201 E22.80170
G1 X164.968 Y150.864 E22.82083
G1 X165.085 Y150.522 E22.83886
G1 X165.142 Y150.196 E22.85537
G1 X165.151 Y149.986 E22.86586
G1 X165.138 Y149.778 E22.87626
G1 X165.076 Y149.438 E22.89350
G1 X164.961 Y149.113 E22.91070
G1 X164.783 Y148.795 E22.92888
G1 X164.552 Y148.508 E22.94726
G1 X164.262 Y148.258 E22.96636
G1 X163.968 Y148.077 E22.98359
G1 X163.629 Y147.941 E23.00181
G1 X163.272 Y147.865 E23.02002
G1 X162.906 Y147.849 E23.03830
G1 X162.525 Y147.902 E23.05749
G1 X162.176 Y148.012 E23.07574
G1 X161.852 Y148.181 E23.09398
G0 F9000 X160.879 Y149.636
G0 X159.508 Y157.256
G1 F1800 X159.208 Y157.191 E23.10929
G1 X158.897 Y157.179 E23.12482
G1 X158.594 Y157.220 E23.14007
G1 X158.302 Y157.310 E23.15532
G1 X158.030 Y157.449 E23.17056
G1 X157.785 Y157.631 E23.18578
G1 X157.575 Y157.852 E23.20099
G1 X157.406 Y158.102 E23.21605
G1 X157.279 Y158.384 E23.23148
G1 X157.203 Y158.676 E23.24653
G1 X157.178 Y158.986 E23.26205
G1 X157.205 Y159.289 E23.27722
G1 X157.282 Y159.587 E23.29258
G1 X157.410 Y159.864 E23.30780
G1 X157.578 Y160.113 E23.32279
G1 X157.794 Y160.337 E23.33831
G1 X158.042 Y160.518 E23.35363
G1 X158.312 Y160.653 E23.36869
G1 X158.599 Y160.742 E23.38368
G1 X158.904 Y160.781 E23.39902
G1 X159.214 Y160.767 E23.41450
G1 X159.515 Y160.701 E23.42988
G1 X159.796 Y160.585 E23.44504
G1 X160.054 Y160.426 E23.46016
G1 X160.274 Y160.233 E23.47476
G1 X160.475 Y159.986 E23.49065
G1 X160.622 Y159.721 E23.50577
G1 X160.724 Y159.434 E23.52097
G1 X160.773 Y159.147 E23.53549
G1 X160.781 Y158.978 E23.54393
G1 X160.773 Y158.808 E23.55242
G1 X160.722 Y158.518 E23.56711
G1 X160.619 Y158.232 E23.58228
G1 X160.470 Y157.965 E23.59753
G1 X160.270 Y157.722 E23.61324
G1 X160.047 Y157.528 E23.62798
G1 X159.792 Y157.371 E23.64292
G1 X159.508 Y157.256 E23.65821
G0 F9000 X158.031 Y157.449
G0 X151.783 Y161.795
G1 F1800 X151.552 Y161.508 E23.67659
G1 X151.262 Y161.258 E23.69569
G1 X150.968 Y161.077 E23.71292
G1 X150.629 Y160.941 E23.73114
G1 X150.272 Y160.865 E23.74935
G1 X149.906 Y160.849 E23.76763
G1 X149.525 Y160.902 E23.78682
G1 X149.176 Y161.012 E23.80507
G1 X148.852 Y161.181 E23.82330
G1 X148.559 Y161.401 E23.84158
G1 X148.312 Y161.667 E23.85969
G1 X148.110 Y161.971 E23.87790
