;Generated with Cura_SteamEngine 15.01
; Default start code
G28 ; Home extruder
G1 Z15 F2000
M107 ; Turn off fan
G90 ; Absolute positioning
M82 ; Extruder in absolute mode
M104 T0 S180
M190 S50
; Activate all used extruder
G92 E0 ; Reset extruder position
; Wait for all used extruders to reach temperature
M109 T0 S210 R210
;Layer count: 330
;LAYER:0
M107
G0 F9000 X133.400 Y134.748 Z0.300
G0 X133.400 Y135.828
;TYPE:SKIRT
G1 F1800 X133.400 Y134.748 E0.05388
G1 X135.553 Y133.675 E0.17390
G1 X135.955 Y133.273 E0.20226
G1 X136.357 Y133.072 E0.22468
G1 X136.957 Y132.474 E0.26694
G1 X137.353 Y132.276 E0.28903
G1 X137.559 Y132.071 E0.30353
G1 X137.957 Y131.872 E0.32573
G1 X138.159 Y131.671 E0.33995
G1 X138.555 Y131.473 E0.36204
G1 X139.181 Y130.849 E0.40613
G1 X140.450 Y130.427 E0.47285
G1 X142.197 Y129.552 E0.57033
G1 X144.099 Y129.077 E0.66814
G1 X144.862 Y128.824 E0.70824
G1 X146.744 Y128.509 E0.80344
G1 X154.424 Y128.509 E1.18660
G1 X156.111 Y128.846 E1.27243
G1 X157.251 Y129.227 E1.33239
G1 X162.144 Y131.673 E1.60531
G1 X162.549 Y132.077 E1.63385
G1 X162.944 Y132.275 E1.65589
G1 X163.543 Y132.873 E1.69812
G1 X163.944 Y133.073 E1.72048
G1 X167.900 Y137.029 E1.99959
G1 X167.900 Y137.231 E2.00967
G1 X168.500 Y137.832 E2.05204
G1 X168.500 Y138.031 E2.06197
G1 X168.900 Y138.432 E2.09023
G1 X168.900 Y138.628 E2.10000
G1 X169.100 Y138.828 E2.11412
G1 X169.100 Y139.031 E2.12424
G1 X169.500 Y139.432 E2.15250
G1 X169.500 Y139.628 E2.16228
G1 X169.700 Y139.828 E2.17639
G1 X169.700 Y140.028 E2.18637
G1 X169.900 Y140.228 E2.20048
G1 X169.900 Y140.428 E2.21046
G1 X170.100 Y140.628 E2.22457
G1 X170.100 Y140.828 E2.23455
G1 X170.300 Y141.028 E2.24866
G1 X170.300 Y141.228 E2.25864
G1 X170.500 Y141.428 E2.27275
G1 X170.500 Y141.628 E2.28272
G1 X170.581 Y141.709 E2.28844
G1 X171.300 Y141.709 E2.32431
G1 X171.300 Y144.628 E2.46994
G1 X171.500 Y144.828 E2.48405
G1 X171.500 Y146.828 E2.58383
G1 X171.700 Y147.028 E2.59794
G1 X171.700 Y152.790 E2.88541
G1 X171.500 Y152.990 E2.89952
G1 X171.500 Y154.990 E2.99930
G1 X171.300 Y155.190 E3.01341
G1 X171.300 Y158.109 E3.15904
G1 X170.500 Y158.109 E3.19895
G1 X170.500 Y158.190 E3.20300
G1 X170.300 Y158.390 E3.21711
G1 X170.300 Y158.590 E3.22708
G1 X170.100 Y158.790 E3.24120
G1 X170.100 Y158.990 E3.25117
G1 X169.900 Y159.190 E3.26529
G1 X169.900 Y159.390 E3.27526
G1 X169.700 Y159.590 E3.28937
G1 X169.700 Y159.790 E3.29935
G1 X169.500 Y159.990 E3.31346
G1 X169.500 Y160.186 E3.32324
G1 X169.100 Y160.587 E3.35150
G1 X169.100 Y160.790 E3.36163
G1 X168.900 Y160.990 E3.37574
G1 X168.900 Y161.186 E3.38552
G1 X168.500 Y161.587 E3.41377
G1 X168.500 Y161.786 E3.42370
G1 X168.100 Y162.187 E3.45196
G1 X168.100 Y162.386 E3.46189
G1 X167.700 Y162.787 E3.49015
G1 X167.700 Y162.989 E3.50022
G1 X163.944 Y166.745 E3.76523
G1 X163.543 Y166.945 E3.78759
G1 X162.944 Y167.543 E3.82981
G1 X162.549 Y167.741 E3.85186
G1 X162.144 Y168.145 E3.88040
G1 X157.252 Y170.590 E4.15324
G1 X156.113 Y170.972 E4.21318
G1 X154.769 Y171.241 E4.28156
G1 X153.153 Y171.509 E4.36329
G1 X147.678 Y171.509 E4.63644
G1 X146.361 Y171.246 E4.70344
G1 X144.862 Y170.994 E4.77927
G1 X144.102 Y170.742 E4.81922
G1 X142.197 Y170.266 E4.91718
G1 X140.450 Y169.391 E5.01466
G1 X139.181 Y168.969 E5.08138
G1 X138.555 Y168.345 E5.12548
G1 X138.159 Y168.147 E5.14757
G1 X137.957 Y167.946 E5.16178
G1 X137.559 Y167.747 E5.18398
G1 X137.353 Y167.542 E5.19848
G1 X136.957 Y167.344 E5.22057
G1 X136.358 Y166.747 E5.26276
G1 X135.956 Y166.546 E5.28519
G1 X135.553 Y166.143 E5.31362
G1 X133.400 Y165.070 E5.43363
G1 X133.400 Y163.990 E5.48752
G1 X131.800 Y162.389 E5.60044
G1 X131.800 Y162.187 E5.61052
G1 X131.400 Y161.786 E5.63877
G1 X131.400 Y161.587 E5.64870
G1 X131.000 Y161.186 E5.67696
G1 X131.000 Y160.987 E5.68689
G1 X130.600 Y160.586 E5.71515
G1 X130.600 Y160.390 E5.72492
G1 X130.400 Y160.190 E5.73904
G1 X130.400 Y159.990 E5.74901
G1 X130.200 Y159.790 E5.76312
G1 X130.200 Y159.590 E5.77310
G1 X130.000 Y159.390 E5.78721
G1 X130.000 Y159.190 E5.79719
G1 X129.800 Y158.990 E5.81130
G1 X129.800 Y158.787 E5.82143
G1 X129.400 Y158.386 E5.84969
G1 X129.400 Y157.790 E5.87942
G1 X129.200 Y157.590 E5.89353
G1 X129.200 Y156.990 E5.92347
G1 X129.000 Y156.790 E5.93758
G1 X129.000 Y156.390 E5.95754
G1 X128.800 Y156.190 E5.97165
G1 X128.800 Y155.590 E6.00158
G1 X128.600 Y155.390 E6.01569
G1 X128.600 Y154.790 E6.04563
G1 X128.400 Y154.590 E6.05974
G1 X128.400 Y145.228 E6.52681
G1 X128.600 Y145.028 E6.54092
G1 X128.600 Y144.428 E6.57085
G1 X128.800 Y144.228 E6.58497
G1 X128.800 Y143.628 E6.61490
G1 X129.000 Y143.428 E6.62901
G1 X129.000 Y143.028 E6.64897
G1 X129.200 Y142.828 E6.66308
G1 X129.200 Y142.228 E6.69301
G1 X129.400 Y142.028 E6.70712
G1 X129.400 Y141.432 E6.73686
G1 X129.800 Y141.031 E6.76511
G1 X129.800 Y140.828 E6.77524
G1 X130.000 Y140.628 E6.78935
G1 X130.000 Y140.428 E6.79933
G1 X130.200 Y140.228 E6.81344
G1 X130.200 Y140.028 E6.82342
G1 X130.400 Y139.828 E6.83753
G1 X130.400 Y139.628 E6.84751
G1 X130.600 Y139.428 E6.86162
G1 X130.600 Y139.232 E6.87140
G1 X131.000 Y138.831 E6.89966
G1 X131.000 Y138.632 E6.90958
G1 X131.400 Y138.231 E6.93784
G1 X131.400 Y138.032 E6.94777
G1 X131.800 Y137.631 E6.97603
G1 X131.800 Y137.429 E6.98611
G1 X133.400 Y135.828 E7.09903
G0 F9000 X133.800 Y135.994
G1 F1800 X133.800 Y134.996 E7.14882
G1 X135.789 Y134.004 E7.25971
G1 X136.191 Y133.602 E7.28807
G1 X136.594 Y133.401 E7.31054
G1 X137.194 Y132.803 E7.35280
G1 X137.590 Y132.604 E7.37491
G1 X137.795 Y132.400 E7.38934
G1 X138.193 Y132.201 E7.41154
G1 X138.395 Y132.000 E7.42576
G1 X138.791 Y131.802 E7.44785
G1 X139.396 Y131.198 E7.49050
G1 X140.611 Y130.795 E7.55436
G1 X142.337 Y129.930 E7.65068
G1 X144.215 Y129.460 E7.74726
G1 X144.958 Y129.214 E7.78631
G1 X146.778 Y128.909 E7.87838
G1 X154.385 Y128.909 E8.25789
G1 X156.008 Y129.233 E8.34046
G1 X157.098 Y129.598 E8.39781
G1 X161.908 Y132.002 E8.66609
G1 X162.313 Y132.406 E8.69462
G1 X162.708 Y132.604 E8.71667
G1 X163.308 Y133.203 E8.75897
G1 X163.707 Y133.402 E8.78121
G1 X167.500 Y137.195 E9.04883
G1 X167.500 Y137.396 E9.05886
G1 X168.100 Y137.997 E9.10122
G1 X168.100 Y138.197 E9.11120
G1 X168.500 Y138.598 E9.13946
G1 X168.500 Y138.794 E9.14924
G1 X168.700 Y138.994 E9.16335
G1 X168.700 Y139.197 E9.17348
G1 X169.100 Y139.598 E9.20173
G1 X169.100 Y139.794 E9.21151
G1 X169.300 Y139.994 E9.22562
G1 X169.300 Y140.194 E9.23560
G1 X169.500 Y140.394 E9.24971
G1 X169.500 Y140.594 E9.25969
G1 X169.700 Y140.794 E9.27380
G1 X169.700 Y140.994 E9.28378
G1 X169.900 Y141.194 E9.29789
G1 X169.900 Y141.394 E9.30787
G1 X170.100 Y141.594 E9.32198
G1 X170.100 Y141.794 E9.33196
G1 X170.300 Y141.994 E9.34607
G1 X170.300 Y142.109 E9.35181
G1 X170.900 Y142.109 E9.38174
G1 X170.900 Y144.794 E9.51570
G1 X171.100 Y144.994 E9.52981
G1 X171.100 Y146.994 E9.62959
G1 X171.300 Y147.194 E9.64370
G1 X171.300 Y152.624 E9.91460
G1 X171.100 Y152.824 E9.92871
G1 X171.100 Y154.824 E10.02849
G1 X170.900 Y155.024 E10.04261
G1 X170.900 Y157.709 E10.17656
G1 X170.215 Y157.709 E10.21074
G1 X170.100 Y157.824 E10.21885
G1 X170.100 Y158.024 E10.22883
G1 X169.900 Y158.224 E10.24294
G1 X169.900 Y158.424 E10.25292
G1 X169.700 Y158.624 E10.26703
G1 X169.700 Y158.824 E10.27701
G1 X169.500 Y159.024 E10.29112
G1 X169.500 Y159.224 E10.30109
G1 X169.300 Y159.424 E10.31521
G1 X169.300 Y159.624 E10.32518
G1 X169.100 Y159.824 E10.33930
G1 X169.100 Y160.020 E10.34907
G1 X168.700 Y160.421 E10.37733
G1 X168.700 Y160.624 E10.38746
G1 X168.500 Y160.824 E10.40157
G1 X168.500 Y161.020 E10.41135
G1 X168.100 Y161.421 E10.43961
G1 X168.100 Y161.620 E10.44953
G1 X167.700 Y162.021 E10.47779
G1 X167.700 Y162.220 E10.48772
G1 X167.300 Y162.621 E10.51598
G1 X167.300 Y162.823 E10.52605
G1 X163.707 Y166.416 E10.77956
G1 X163.308 Y166.615 E10.80180
G1 X162.708 Y167.214 E10.84410
G1 X162.313 Y167.412 E10.86615
G1 X161.908 Y167.816 E10.89469
G1 X157.098 Y170.220 E11.16296
G1 X156.010 Y170.584 E11.22020
G1 X154.697 Y170.847 E11.28701
G1 X153.120 Y171.109 E11.36676
G1 X147.717 Y171.109 E11.63632
G1 X146.409 Y170.848 E11.70286
G1 X144.959 Y170.605 E11.77621
G1 X144.207 Y170.356 E11.81573
G1 X142.337 Y169.888 E11.91190
G1 X140.611 Y169.023 E12.00822
G1 X139.396 Y168.620 E12.07209
G1 X138.791 Y168.016 E12.11474
G1 X138.395 Y167.818 E12.13683
G1 X138.193 Y167.617 E12.15104
G1 X137.795 Y167.418 E12.17324
G1 X137.590 Y167.214 E12.18767
G1 X137.194 Y167.015 E12.20978
G1 X136.594 Y166.417 E12.25204
G1 X136.193 Y166.217 E12.27440
G1 X135.790 Y165.815 E12.30280
G1 X133.800 Y164.822 E12.41375
G1 X133.800 Y163.824 E12.46355
G1 X132.200 Y162.223 E12.57647
G1 X132.200 Y162.021 E12.58655
G1 X131.800 Y161.620 E12.61480
G1 X131.800 Y161.421 E12.62473
G1 X131.400 Y161.020 E12.65299
G1 X131.400 Y160.821 E12.66292
G1 X131.000 Y160.420 E12.69118
G1 X131.000 Y160.224 E12.70095
G1 X130.800 Y160.024 E12.71506
G1 X130.800 Y159.824 E12.72504
G1 X130.600 Y159.624 E12.73915
G1 X130.600 Y159.424 E12.74913
G1 X130.400 Y159.224 E12.76324
G1 X130.400 Y159.024 E12.77322
G1 X130.200 Y158.824 E12.78733
G1 X130.200 Y158.621 E12.79746
G1 X129.800 Y158.220 E12.82572
G1 X129.800 Y157.624 E12.85545
G1 X129.600 Y157.424 E12.86956
G1 X129.600 Y156.824 E12.89950
G1 X129.400 Y156.624 E12.91361
G1 X129.400 Y156.224 E12.93356
G1 X129.200 Y156.024 E12.94768
G1 X129.200 Y155.424 E12.97761
G1 X129.000 Y155.224 E12.99172
G1 X129.000 Y154.624 E13.02165
G1 X128.800 Y154.424 E13.03577
G1 X128.800 Y145.394 E13.48627
G1 X129.000 Y145.194 E13.50039
G1 X129.000 Y144.594 E13.53032
G1 X129.200 Y144.394 E13.54443
G1 X129.200 Y143.794 E13.57436
G1 X129.400 Y143.594 E13.58848
G1 X129.400 Y143.194 E13.60843
G1 X129.600 Y142.994 E13.62254
G1 X129.600 Y142.394 E13.65248
G1 X129.800 Y142.194 E13.66659
G1 X129.800 Y141.598 E13.69632
G1 X130.200 Y141.197 E13.72458
G1 X130.200 Y140.994 E13.73471
G1 X130.400 Y140.794 E13.74882
G1 X130.400 Y140.594 E13.75880
G1 X130.600 Y140.394 E13.77291
G1 X130.600 Y140.194 E13.78289
G1 X130.800 Y139.994 E13.79700
G1 X130.800 Y139.794 E13.80698
G1 X131.000 Y139.594 E13.82109
G1 X131.000 Y139.398 E13.83086
G1 X131.400 Y138.997 E13.85912
G1 X131.400 Y138.798 E13.86905
G1 X131.800 Y138.397 E13.89731
G1 X131.800 Y138.198 E13.90724
G1 X132.200 Y137.797 E13.93549
G1 X132.200 Y137.595 E13.94557
G1 X133.800 Y135.994 E14.05850
G1 F2400 E10.05850
G0 F9000 X147.548 Y147.647
;TYPE:WALL-INNER
G1 F2400 E14.05850
G1 F1800 X147.973 Y147.273 E14.08674
G1 X148.470 Y146.966 E14.11588
G1 X148.998 Y146.753 E14.14429
G1 X149.571 Y146.630 E14.17353
G1 X150.141 Y146.605 E14.20199
G1 X150.708 Y146.676 E14.23050
G1 X151.268 Y146.847 E14.25971
G1 X151.778 Y147.103 E14.28818
G1 X152.238 Y147.445 E14.31678
G1 X152.644 Y147.866 E14.34596
G1 X152.967 Y148.344 E14.37474
G1 X153.201 Y148.864 E14.40319
G1 X153.347 Y149.427 E14.43221
G1 X153.397 Y149.999 E14.46085
G1 X153.347 Y150.574 E14.48965
G1 X153.204 Y151.127 E14.51814
G1 X152.971 Y151.647 E14.54657
G1 X152.644 Y152.133 E14.57580
G1 X152.248 Y152.546 E14.60434
G1 X151.783 Y152.892 E14.63326
G1 X151.267 Y153.151 E14.66206
G1 X150.718 Y153.320 E14.69072
G1 X150.150 Y153.393 E14.71929
G1 X149.570 Y153.370 E14.74825
G1 X149.006 Y153.248 E14.77704
G1 X148.470 Y153.033 E14.80585
G1 X147.984 Y152.734 E14.83432
G1 X147.549 Y152.352 E14.86320
G1 X147.187 Y151.904 E14.89194
G1 X146.904 Y151.398 E14.92086
G1 X146.712 Y150.854 E14.94964
G1 X146.612 Y150.274 E14.97901
G1 X146.600 Y149.998 E14.99279
G1 X146.611 Y149.725 E15.00642
G1 X146.710 Y149.152 E15.03543
G1 X146.899 Y148.611 E15.06402
G1 X147.183 Y148.099 E15.09323
G1 X147.548 Y147.647 E15.12222
G0 F9000 X147.258 Y147.370
;TYPE:WALL-OUTER
G1 F1800 X147.738 Y146.947 E15.15414
G1 X148.287 Y146.608 E15.18633
G1 X148.879 Y146.369 E15.21818
G1 X149.515 Y146.232 E15.25064
G1 X150.162 Y146.205 E15.28294
G1 X150.795 Y146.284 E15.31477
G1 X151.411 Y146.472 E15.34690
G1 X151.989 Y146.763 E15.37919
G1 X152.507 Y147.146 E15.41133
G1 X152.953 Y147.611 E15.44347
G1 X153.320 Y148.152 E15.47609
G1 X153.579 Y148.730 E15.50768
G1 X153.744 Y149.362 E15.54027
G1 X153.800 Y149.999 E15.57217
G1 X153.744 Y150.637 E15.60413
G1 X153.582 Y151.263 E15.63639
G1 X153.322 Y151.841 E15.66801
G1 X152.955 Y152.387 E15.70083
G1 X152.515 Y152.847 E15.73259
G1 X151.995 Y153.232 E15.76487
G1 X151.417 Y153.524 E15.79717
G1 X150.801 Y153.713 E15.82932
G1 X150.167 Y153.794 E15.86121
G1 X149.521 Y153.769 E15.89346
G1 X148.891 Y153.633 E15.92562
G1 X148.288 Y153.391 E15.95803
G1 X147.743 Y153.056 E15.98995
G1 X147.262 Y152.633 E16.02190
G1 X146.854 Y152.128 E16.05429
G1 X146.538 Y151.563 E16.08659
G1 X146.324 Y150.955 E16.11875
G1 X146.215 Y150.321 E16.15084
G1 X146.200 Y149.998 E16.16697
G1 X146.214 Y149.679 E16.18290
G1 X146.321 Y149.054 E16.21454
G1 X146.535 Y148.443 E16.24684
G1 X146.848 Y147.877 E16.27911
G1 X147.258 Y147.370 E16.31164
G0 F9000 X147.522 Y147.805
;TYPE:SKIN
G1 F1800 X152.199 Y152.481 E16.64159
G0 F9000 X152.476 Y152.193
G1 F1800 X147.807 Y147.524 E16.97101
G0 F9000 X148.122 Y147.274
G1 F1800 X152.721 Y151.873 E17.29550
G0 F9000 X152.937 Y151.523
G1 F1800 X148.472 Y147.058 E17.61053
G0 F9000 X148.870 Y146.890
G1 F1800 X153.113 Y151.133 E17.90989
G0 F9000 X153.234 Y150.688
G1 F1800 X149.313 Y146.767 E18.18654
G0 F9000 X149.811 Y146.700
G1 F1800 X153.300 Y150.188 E18.43267
G0 F9000 X153.282 Y149.605
G1 F1800 X150.395 Y146.718 E18.63637
G0 F9000 X151.132 Y146.889
G1 F1800 X153.119 Y148.877 E18.77660
G0 F9000 X151.873 Y152.722
G1 F1800 X147.269 Y148.118 E19.10143
G0 F9000 X147.064 Y148.478
G1 F1800 X151.518 Y152.933 E19.41572
G0 F9000 X151.129 Y153.109
G1 F1800 X146.892 Y148.872 E19.71466
G0 F9000 X146.763 Y149.309
G1 F1800 X150.695 Y153.241 E19.99209
G0 F9000 X150.194 Y153.305
G1 F1800 X146.687 Y149.799 E20.23949
G0 F9000 X146.712 Y150.389
G1 F1800 X149.613 Y153.290 E20.44417
G0 F9000 X148.858 Y153.101
G1 F1800 X146.898 Y151.141 E20.58246
G0 F9000 X145.701 Y151.893
;TYPE:SUPPORT
G1 F1800 X145.722 Y151.948 E20.58540
G1 X146.105 Y152.634 E20.62460
G1 X146.607 Y153.255 E20.66443
G1 X147.207 Y153.781 E20.70424
G1 X147.887 Y154.199 E20.74406
G1 X148.626 Y154.497 E20.78382
G1 X149.407 Y154.665 E20.82367
G1 X150.204 Y154.697 E20.86347
G1 X150.992 Y154.596 E20.90310
G1 X151.755 Y154.361 E20.94293
G1 X152.469 Y154.001 E20.98283
G1 X153.112 Y153.524 E21.02277
G1 X153.659 Y152.952 E21.06226
G1 X154.111 Y152.282 E21.10258
G1 X154.435 Y151.558 E21.14215
G1 X154.634 Y150.791 E21.18168
G1 X154.704 Y149.999 E21.22135
G1 X154.634 Y149.205 E21.26112
G1 X154.433 Y148.433 E21.30092
G1 X154.122 Y147.742 E21.33872
G1 X154.093 Y147.689 E21.34173
G1 X153.655 Y147.042 E21.38071
G1 X153.103 Y146.469 E21.42041
G1 X152.460 Y145.992 E21.46035
G1 X151.748 Y145.634 E21.50011
G1 X150.989 Y145.401 E21.53972
G1 X150.193 Y145.302 E21.57974
G1 X149.399 Y145.336 E21.61939
G1 X148.620 Y145.504 E21.65915
G1 X147.876 Y145.804 E21.69917
G1 X147.203 Y146.219 E21.73862
G1 X146.604 Y146.748 E21.77849
G1 X146.099 Y147.371 E21.81850
G1 X145.711 Y148.072 E21.85847
G1 X145.447 Y148.827 E21.89837
G1 X145.316 Y149.589 E21.93695
G1 X145.299 Y149.996 E21.95727
G1 X145.319 Y150.414 E21.97815
G1 X145.451 Y151.188 E22.01732
G1 X145.701 Y151.893 E22.05464
G0 F9000 X132.863 Y155.422
G0 X132.800 Y155.499
G1 F1800 X132.600 Y155.299 E22.06875
G1 X132.600 Y154.899 E22.08871
G1 X132.400 Y154.699 E22.10282
G1 X132.400 Y154.099 E22.13275
G1 X132.200 Y153.899 E22.14686
G1 X132.200 Y153.299 E22.17680
G1 X132.000 Y153.099 E22.19091
G1 X132.000 Y146.719 E22.50921
G1 X132.200 Y146.519 E22.52332
G1 X132.200 Y145.919 E22.55325
G1 X132.400 Y145.719 E22.56736
G1 X132.400 Y145.119 E22.59730
G1 X132.600 Y144.919 E22.61141
G1 X132.600 Y144.519 E22.63136
G1 X132.800 Y144.319 E22.64548
G1 X132.800 Y143.719 E22.67541
G1 X133.000 Y143.519 E22.68952
G1 X133.000 Y142.921 E22.71936
G1 X133.400 Y142.520 E22.74761
G1 X133.400 Y142.319 E22.75764
G1 X133.600 Y142.119 E22.77175
G1 X133.600 Y141.919 E22.78173
G1 X133.800 Y141.719 E22.79584
G1 X133.800 Y141.519 E22.80582
G1 X134.000 Y141.319 E22.81993
G1 X134.000 Y141.119 E22.82991
G1 X134.200 Y140.919 E22.84402
G1 X134.200 Y140.721 E22.85390
G1 X134.600 Y140.320 E22.88215
G1 X134.600 Y140.121 E22.89208
