;Generated with Cura_SteamEngine 15.01
; Default start code
G28 ; Home extruder
G1 Z15 F2000
M107 ; Turn off fan
G90 ; Absolute positioning
M82 ; Extruder in absolute mode
M104 T0 S180
M190 S50
; Activate all used extruder
G92 E0 ; Reset extruder position
; Wait for all used extruders to reach temperature
M109 T0 S210 R210
;Layer count: 15
;LAYER:0
M107
G0 F9000 X124.259 Y82.605 Z0.300
;TYPE:SKIRT
G1 F1800 X124.641 Y82.077 E0.03251
G1 X126.596 Y79.607 E0.18967
G1 X127.176 Y79.011 E0.23116
G1 X129.055 Y77.083 E0.36547
G1 X131.758 Y74.827 E0.54113
G1 X134.681 Y72.862 E0.71684
G1 X137.457 Y71.384 E0.87375
G1 X137.790 Y71.207 E0.89256
G1 X140.725 Y70.013 E1.05064
G1 X141.118 Y69.860 E1.07168
G1 X141.848 Y69.648 E1.10961
G1 X144.434 Y68.895 E1.24398
G1 X147.526 Y68.333 E1.40077
G1 X147.893 Y68.265 E1.41939
G1 X151.032 Y68.022 E1.57646
G1 X151.404 Y67.993 E1.59508
G1 X154.554 Y68.073 E1.75228
G1 X154.932 Y68.084 E1.77115
G1 X158.050 Y68.487 E1.92800
G1 X158.426 Y68.537 E1.94693
G1 X161.514 Y69.266 E2.10522
G1 X161.939 Y69.376 E2.12712
G1 X162.885 Y69.704 E2.17708
G1 X165.175 Y70.501 E2.29805
G1 X168.025 Y71.835 E2.45504
G1 X168.368 Y71.996 E2.47394
G1 X171.060 Y73.612 E2.63059
G1 X171.385 Y73.807 E2.64950
G1 X174.200 Y75.921 E2.82513
G1 X175.383 Y77.015 E2.90552
G1 X176.785 Y78.313 E3.00084
G1 X177.513 Y79.142 E3.05588
G1 X179.110 Y80.957 E3.17649
G1 X180.928 Y83.517 E3.33314
G1 X181.149 Y83.826 E3.35210
G1 X182.699 Y86.564 E3.50906
G1 X182.885 Y86.894 E3.52796
G1 X184.138 Y89.764 E3.68420
G1 X184.292 Y90.114 E3.70328
G1 X184.788 Y91.665 E3.78452
G1 X185.366 Y93.474 E3.87926
G1 X186.007 Y96.547 E4.03588
G1 X186.086 Y96.920 E4.05490
G1 X186.409 Y100.047 E4.21173
G1 X186.444 Y100.382 E4.22854
G1 X186.490 Y102.185 E4.31852
G1 X186.444 Y103.987 E4.40845
G1 X186.125 Y107.074 E4.56328
G1 X186.086 Y107.450 E4.58214
G1 X185.413 Y110.669 E4.74621
G1 X184.794 Y112.687 E4.85152
G1 X184.294 Y114.251 E4.93344
G1 X183.034 Y117.136 E5.09050
G1 X182.882 Y117.482 E5.10935
G1 X181.336 Y120.213 E5.26592
G1 X181.151 Y120.541 E5.28471
G1 X179.242 Y123.227 E5.44911
G1 X177.523 Y125.217 E5.58030
G1 X176.785 Y126.058 E5.63613
G1 X175.383 Y127.355 E5.73141
G1 X174.200 Y128.450 E5.81183
G1 X171.685 Y130.338 E5.96873
G1 X171.382 Y130.565 E5.98762
G1 X168.688 Y132.182 E6.14437
G1 X168.364 Y132.376 E6.16321
G1 X165.526 Y133.704 E6.31954
G1 X165.179 Y133.868 E6.33869
G1 X161.849 Y135.027 E6.51460
G1 X158.789 Y135.749 E6.67145
G1 X158.421 Y135.835 E6.69031
G1 X155.303 Y136.239 E6.84716
G1 X155.303 Y136.238 E6.84721
G1 X154.932 Y136.288 E6.86589
G1 X151.794 Y136.368 E7.02250
G1 X151.413 Y136.378 E7.04151
G1 X148.272 Y136.136 E7.19868
G1 X147.894 Y136.106 E7.21760
G1 X144.655 Y135.516 E7.38185
G1 X141.861 Y134.726 E7.52671
G1 X141.052 Y134.490 E7.56875
G1 X138.138 Y133.306 E7.72568
G1 X137.787 Y133.163 E7.74458
G1 X135.014 Y131.687 E7.90131
G1 X134.681 Y131.509 E7.92015
G1 X132.072 Y129.754 E8.07702
G1 X131.759 Y129.543 E8.09585
G1 X129.145 Y127.362 E8.26569
G1 X127.181 Y125.364 E8.40547
G1 X126.597 Y124.765 E8.44721
G1 X124.553 Y122.183 E8.61150
G1 X124.410 Y122.001 E8.62305
G1 X122.729 Y119.357 E8.77936
G1 X122.728 Y119.357 E8.77941
G1 X122.523 Y119.035 E8.79846
G1 X121.116 Y116.220 E8.95546
G1 X120.948 Y115.885 E8.97416
G1 X119.808 Y112.860 E9.13544
G1 X119.706 Y112.593 E9.14970
G1 X118.904 Y109.546 E9.30689
G1 X118.808 Y109.187 E9.32543
G1 X118.324 Y106.076 E9.48251
G1 X118.266 Y105.703 E9.50134
G1 X118.085 Y102.185 E9.67708
G1 X118.266 Y98.669 E9.85273
G1 X118.749 Y95.562 E10.00960
G1 X118.808 Y95.188 E10.02849
G1 X119.624 Y92.086 E10.18852
G1 X119.773 Y91.603 E10.21373
G1 X120.947 Y88.488 E10.37981
G1 X122.353 Y85.673 E10.53680
G1 X122.523 Y85.335 E10.55567
G1 X124.259 Y82.605 E10.71708
G1 F2400 E6.71708
G0 F9000 X127.402 Y84.744
;TYPE:WALL-INNER
G1 F2400 E10.71708
G1 F1800 X129.453 Y82.119 E10.88327
G1 X131.638 Y79.878 E11.03943
G1 X134.041 Y77.872 E11.19559
G1 X136.638 Y76.125 E11.35175
G1 X139.404 Y74.653 E11.50807
G1 X142.132 Y73.543 E11.65500
G1 X145.310 Y72.598 E11.82042
G1 X148.207 Y72.071 E11.96732
G1 X148.390 Y72.037 E11.97661
G1 X151.325 Y71.811 E12.12347
G1 X151.505 Y71.797 E12.13247
G1 X154.451 Y71.872 E12.27950
G1 X154.637 Y71.877 E12.28878
G1 X157.556 Y72.255 E12.43563
G1 X157.740 Y72.279 E12.44488
G1 X160.594 Y72.953 E12.59119
G1 X160.837 Y73.016 E12.60371
G1 X163.749 Y74.028 E12.75752
G1 X166.409 Y75.273 E12.90404
G1 X166.580 Y75.355 E12.91350
G1 X169.257 Y76.962 E13.06927
G1 X171.761 Y78.842 E13.22549
G1 X174.059 Y80.968 E13.38168
G1 X176.126 Y83.319 E13.53785
G1 X177.939 Y85.871 E13.69403
G1 X179.481 Y88.594 E13.85015
G1 X180.661 Y91.296 E13.99725
G1 X181.688 Y94.451 E14.16278
G1 X182.326 Y97.503 E14.31834
G1 X182.649 Y100.628 E14.47508
G1 X182.689 Y102.185 E14.55278
G1 X182.649 Y103.742 E14.63049
G1 X182.326 Y106.868 E14.78728
G1 X181.731 Y109.715 E14.93238
G1 X181.168 Y111.548 E15.02805
G1 X180.732 Y112.913 E15.09954
G1 X179.555 Y115.608 E15.24625
G1 X179.482 Y115.775 E15.25535
G1 X177.939 Y118.500 E15.41158
G1 X176.246 Y120.882 E15.55738
G1 X174.659 Y122.720 E15.67853
G1 X174.054 Y123.408 E15.72423
G1 X171.767 Y125.525 E15.87971
G1 X169.258 Y127.408 E16.03622
G1 X166.574 Y129.019 E16.19239
G1 X163.906 Y130.267 E16.33934
G1 X163.741 Y130.345 E16.34845
G1 X160.783 Y131.373 E16.50468
G1 X157.738 Y132.092 E16.66077
G1 X154.815 Y132.470 E16.80782
G1 X154.634 Y132.494 E16.81693
G1 X151.688 Y132.569 E16.96395
G1 X151.501 Y132.574 E16.97328
G1 X148.570 Y132.348 E17.11995
G1 X148.386 Y132.333 E17.12916
G1 X145.512 Y131.810 E17.27490
G1 X142.911 Y131.074 E17.40976
G1 X142.303 Y130.897 E17.44135
G1 X139.572 Y129.787 E17.58842
G1 X136.638 Y128.246 E17.75376
G1 X134.041 Y126.498 E17.90994
G1 X131.726 Y124.567 E18.06034
G1 X129.896 Y122.705 E18.19059
G1 X129.449 Y122.246 E18.22256
G1 X127.534 Y119.827 E18.37648
G1 X125.931 Y117.312 E18.52527
G1 X125.832 Y117.157 E18.53445
G1 X124.515 Y114.521 E18.68146
G1 X124.433 Y114.358 E18.69056
G1 X123.363 Y111.518 E18.84197
G1 X123.328 Y111.425 E18.84693
G1 X122.579 Y108.578 E18.99380
G1 X122.532 Y108.400 E19.00299
G1 X122.050 Y105.308 E19.15911
G1 X121.890 Y102.185 E19.31512
G1 X122.050 Y99.063 E19.47108
G1 X122.533 Y95.964 E19.62756
G1 X123.282 Y93.117 E19.77443
G1 X124.432 Y90.015 E19.93948
G1 X125.751 Y87.375 E20.08672
G1 X125.832 Y87.213 E20.09575
G1 X127.402 Y84.744 E20.24173
G0 F9000 X131.178 Y83.832
G1 F1800 X131.330 Y84.162 E20.25985
G1 X131.537 Y84.460 E20.27796
G1 X131.777 Y84.711 E20.29528
G1 X132.088 Y84.936 E20.31443
G1 X132.413 Y85.096 E20.33250
G1 X132.745 Y85.198 E20.34983
G1 X133.108 Y85.244 E20.36809
G1 X133.147 Y85.242 E20.37004
G1 X132.470 Y85.980 E20.42000
G1 X130.752 Y88.344 E20.56580
G1 X129.315 Y90.890 E20.71165
G1 X128.177 Y93.582 E20.85746
G1 X127.354 Y96.387 E21.00330
G1 X126.855 Y99.266 E21.14908
G1 X126.776 Y100.638 E21.21764
G1 X126.553 Y100.445 E21.23236
G1 X126.258 Y100.263 E21.24965
G1 X125.919 Y100.127 E21.26787
G1 X125.562 Y100.051 E21.28608
G1 X125.195 Y100.035 E21.30441
G1 X124.814 Y100.088 E21.32360
G1 X124.466 Y100.197 E21.34179
G1 X124.140 Y100.366 E21.36011
G1 X123.849 Y100.587 E21.37834
G1 X123.601 Y100.853 E21.39649
G1 X123.400 Y101.157 E21.41467
G1 X123.256 Y101.487 E21.43263
G1 X123.168 Y101.820 E21.44982
G1 X123.137 Y102.188 E21.46824
G1 X123.173 Y102.573 E21.48753
G1 X123.270 Y102.924 E21.50570
G1 X123.422 Y103.254 E21.52383
G1 X123.629 Y103.552 E21.54193
G1 X123.869 Y103.803 E21.55926
G1 X124.180 Y104.028 E21.57841
G1 X124.505 Y104.189 E21.59650
G1 X124.836 Y104.289 E21.61375
G1 X125.199 Y104.336 E21.63201
G1 X125.583 Y104.317 E21.65119
G1 X125.924 Y104.241 E21.66862
G1 X126.275 Y104.096 E21.68757
G1 X126.569 Y103.916 E21.70477
G1 X126.777 Y103.733 E21.71859
G1 X126.855 Y105.104 E21.78710
G1 X127.354 Y107.984 E21.93293
G1 X128.177 Y110.789 E22.07877
G1 X129.315 Y113.481 E22.22458
G1 X130.752 Y116.026 E22.37039
G1 X132.470 Y118.391 E22.51623
G1 X133.147 Y119.129 E22.56619
G1 X133.102 Y119.127 E22.56844
G1 X132.723 Y119.180 E22.58753
G1 X132.374 Y119.289 E22.60577
G1 X132.048 Y119.458 E22.62409
G1 X131.758 Y119.679 E22.64228
G1 X131.509 Y119.944 E22.66042
G1 X131.308 Y120.250 E22.67869
G1 X131.164 Y120.579 E22.69661
G1 X131.076 Y120.912 E22.71379
G1 X131.045 Y121.280 E22.73222
G1 X131.081 Y121.665 E22.75151
G1 X131.178 Y122.016 E22.76967
G1 X131.330 Y122.346 E22.78780
G1 X131.537 Y122.644 E22.80590
G1 X131.777 Y122.895 E22.82323
G1 X132.089 Y123.120 E22.84242
G1 X132.414 Y123.280 E22.86049
G1 X132.744 Y123.380 E22.87770
G1 X133.107 Y123.428 E22.89596
G1 X133.491 Y123.409 E22.91514
G1 X133.832 Y123.333 E22.93257
G1 X134.183 Y123.188 E22.95152
G1 X134.477 Y123.008 E22.96872
G1 X134.751 Y122.767 E22.98693
G1 X134.982 Y122.480 E23.00531
G1 X135.166 Y122.143 E23.02446
G1 X135.283 Y121.800 E23.04254
G1 X135.340 Y121.471 E23.05920
G1 X135.346 Y121.324 E23.06654
G1 X136.656 Y122.459 E23.15301
G1 X139.069 Y124.109 E23.29885
G1 X141.654 Y125.473 E23.44467
G1 X144.378 Y126.534 E23.59052
G1 X147.205 Y127.276 E23.73634
G1 X150.099 Y127.693 E23.88221
G1 X150.733 Y127.711 E23.91385
G1 X150.601 Y127.853 E23.92352
G1 X150.400 Y128.157 E23.94171
G1 X150.256 Y128.487 E23.95967
G1 X150.168 Y128.820 E23.97685
G1 X150.137 Y129.188 E23.99528
G1 X150.173 Y129.573 E24.01457
G1 X150.270 Y129.924 E24.03274
G1 X150.422 Y130.254 E24.05086
G1 X150.629 Y130.552 E24.06897
G1 X150.869 Y130.803 E24.08629
G1 X151.180 Y131.028 E24.10544
G1 X151.505 Y131.189 E24.12354
G1 X151.836 Y131.289 E24.14079
G1 X152.199 Y131.336 E24.15905
G1 X152.583 Y131.317 E24.17823
G1 X152.924 Y131.241 E24.19566
G1 X153.275 Y131.096 E24.21461
G1 X153.569 Y130.916 E24.23181
G1 X153.843 Y130.675 E24.25001
G1 X154.074 Y130.387 E24.26843
G1 X154.255 Y130.054 E24.28734
G1 X154.372 Y129.728 E24.30462
G1 X154.431 Y129.380 E24.32223
G1 X154.440 Y129.173 E24.33257
G1 X154.428 Y128.966 E24.34291
G1 X154.365 Y128.623 E24.36031
G1 X154.249 Y128.298 E24.37752
G1 X154.072 Y127.980 E24.39568
G1 X153.850 Y127.705 E24.41331
G1 X155.933 Y127.526 E24.51762
G1 X158.797 Y126.945 E24.66341
G1 X161.577 Y126.042 E24.80924
G1 X164.236 Y124.828 E24.95507
G1 X166.739 Y123.318 E25.10091
G1 X169.053 Y121.533 E25.24671
G1 X169.236 Y121.355 E25.25945
G1 X169.264 Y121.664 E25.27493
G1 X169.361 Y122.016 E25.29315
G1 X169.515 Y122.347 E25.31136
G1 X169.721 Y122.644 E25.32939
G1 X169.961 Y122.895 E25.34672
G1 X170.273 Y123.120 E25.36591
G1 X170.597 Y123.280 E25.38394
G1 X170.926 Y123.380 E25.40109
G1 X171.291 Y123.428 E25.41946
G1 X171.675 Y123.409 E25.43864
G1 X172.016 Y123.333 E25.45607
G1 X172.367 Y123.188 E25.47502
G1 X172.661 Y123.008 E25.49222
G1 X172.935 Y122.767 E25.51042
G1 X173.166 Y122.479 E25.52884
G1 X173.347 Y122.146 E25.54775
G1 X173.464 Y121.820 E25.56503
G1 X173.523 Y121.472 E25.58264
G1 X173.532 Y121.265 E25.59298
G1 X173.520 Y121.058 E25.60332
G1 X173.457 Y120.715 E25.62072
G1 X173.341 Y120.390 E25.63794
G1 X173.164 Y120.072 E25.65609
G1 X172.933 Y119.786 E25.67443
G1 X172.645 Y119.537 E25.69343
G1 X172.350 Y119.355 E25.71072
G1 X172.011 Y119.219 E25.72894
G1 X171.654 Y119.143 E25.74715
G1 X171.447 Y119.134 E25.75749
G1 X173.000 Y117.233 E25.87996
G1 X174.581 Y114.775 E26.02576
G1 X175.649 Y112.602 E26.14656
G1 X175.875 Y112.138 E26.17231
G1 X176.853 Y109.398 E26.31746
G1 X177.515 Y106.550 E26.46333
G1 X177.834 Y103.766 E26.60313
G1 X178.180 Y104.028 E26.62479
G1 X178.505 Y104.189 E26.64288
G1 X178.836 Y104.289 E26.66013
G1 X179.199 Y104.336 E26.67839
G1 X179.583 Y104.317 E26.69758
G1 X179.924 Y104.241 E26.71501
G1 X180.275 Y104.096 E26.73395
G1 X180.569 Y103.916 E26.75115
G1 X180.843 Y103.675 E26.76936
G1 X181.074 Y103.387 E26.78778
G1 X181.255 Y103.054 E26.80668
G1 X181.372 Y102.728 E26.82396
G1 X181.431 Y102.380 E26.84157
G1 X181.440 Y102.173 E26.85191
G1 X181.428 Y101.966 E26.86226
G1 X181.365 Y101.623 E26.87965
G1 X181.249 Y101.298 E26.89687
G1 X181.072 Y100.980 E26.91503
G1 X180.841 Y100.694 E26.93337
G1 X180.553 Y100.445 E26.95236
G1 X180.258 Y100.263 E26.96966
G1 X179.919 Y100.127 E26.98788
G1 X179.562 Y100.051 E27.00609
G1 X179.195 Y100.035 E27.02442
G1 X178.814 Y100.088 E27.04361
G1 X178.466 Y100.197 E27.06180
G1 X178.140 Y100.366 E27.08012
G1 X177.834 Y100.603 E27.09943
G1 X177.515 Y97.820 E27.23918
G1 X176.853 Y94.973 E27.38501
G1 X175.947 Y92.434 E27.51950
G1 X175.856 Y92.188 E27.53259
G1 X174.581 Y89.596 E27.67670
G1 X173.000 Y87.138 E27.82251
G1 X171.446 Y85.236 E27.94505
G1 X171.675 Y85.225 E27.95649
G1 X172.016 Y85.149 E27.97392
G1 X172.366 Y85.004 E27.99282
G1 X172.661 Y84.825 E28.01003
G1 X172.935 Y84.582 E28.02830
G1 X173.166 Y84.295 E28.04668
G1 X173.347 Y83.962 E28.06559
G1 X173.464 Y83.636 E28.08287
G1 X173.523 Y83.288 E28.10048
G1 X173.532 Y83.081 E28.11082
G1 X173.520 Y82.874 E28.12116
G1 X173.457 Y82.531 E28.13856
G1 X173.341 Y82.206 E28.15578
G1 X173.164 Y81.888 E28.17393
G1 X172.933 Y81.602 E28.19228
G1 X172.645 Y81.353 E28.21127
G1 X172.350 Y81.171 E28.22856
G1 X172.011 Y81.035 E28.24679
G1 X171.654 Y80.959 E28.26500
G1 X171.287 Y80.943 E28.28332
G1 X170.906 Y80.996 E28.30251
G1 X170.557 Y81.106 E28.32077
G1 X170.232 Y81.275 E28.33905
G1 X169.942 Y81.495 E28.35721
G1 X169.693 Y81.761 E28.37538
G1 X169.493 Y82.064 E28.39350
G1 X169.347 Y82.395 E28.41155
G1 X169.259 Y82.730 E28.42883
G1 X169.236 Y83.014 E28.44304
G1 X169.054 Y82.838 E28.45567
G1 X166.739 Y81.052 E28.60155
G1 X164.236 Y79.542 E28.74738
G1 X161.577 Y78.329 E28.89319
G1 X158.797 Y77.426 E29.03902
G1 X155.933 Y76.845 E29.18482
G1 X153.851 Y76.666 E29.28907
G1 X154.074 Y76.387 E29.30689
G1 X154.255 Y76.054 E29.32580
G1 X154.372 Y75.728 E29.34308
G1 X154.431 Y75.380 E29.36069
G1 X154.440 Y75.173 E29.37103
G1 X154.428 Y74.966 E29.38137
G1 X154.365 Y74.623 E29.39877
G1 X154.249 Y74.298 E29.41599
G1 X154.072 Y73.980 E29.43414
G1 X153.841 Y73.694 E29.45249
G1 X153.553 Y73.445 E29.47148
G1 X153.258 Y73.263 E29.48877
G1 X152.919 Y73.127 E29.50700
G1 X152.562 Y73.051 E29.52521
G1 X152.195 Y73.035 E29.54353
G1 X151.814 Y73.088 E29.56272
G1 X151.466 Y73.197 E29.58092
G1 X151.140 Y73.366 E29.59924
G1 X150.849 Y73.587 E29.61747
G1 X150.601 Y73.853 E29.63561
G1 X150.400 Y74.157 E29.65379
G1 X150.256 Y74.487 E29.67176
G1 X150.168 Y74.820 E29.68894
G1 X150.137 Y75.188 E29.70736
G1 X150.173 Y75.573 E29.72666
G1 X150.270 Y75.924 E29.74482
G1 X150.422 Y76.254 E29.76295
G1 X150.629 Y76.552 E29.78105
G1 X150.732 Y76.660 E29.78850
G1 X150.099 Y76.678 E29.82009
G1 X147.205 Y77.094 E29.96596
G1 X144.378 Y77.837 E30.11179
G1 X141.654 Y78.897 E30.25761
G1 X139.069 Y80.262 E30.40346
G1 X136.656 Y81.912 E30.54930
G1 X135.346 Y83.047 E30.63577
G1 X135.336 Y82.874 E30.64442
G1 X135.274 Y82.532 E30.66176
G1 X135.159 Y82.206 E30.67900
G1 X134.979 Y81.887 E30.69728
G1 X134.749 Y81.602 E30.71555
G1 X134.461 Y81.353 E30.73454
G1 X134.166 Y81.171 E30.75184
G1 X133.827 Y81.035 E30.77006
G1 X133.470 Y80.959 E30.78827
G1 X133.102 Y80.943 E30.80665
G1 X132.723 Y80.996 E30.82574
G1 X132.373 Y81.106 E30.84404
G1 X132.048 Y81.275 E30.86232
G1 X131.758 Y81.495 E30.88048
G1 X131.509 Y81.761 E30.89865
G1 X131.308 Y82.065 E30.91684
G1 X131.164 Y82.395 E30.93480
G1 X131.076 Y82.728 E30.95198
G1 X131.045 Y83.096 E30.97041
G1 X131.081 Y83.481 E30.98970
G1 X131.178 Y83.832 E31.00787
G0 F9000 X131.555 Y83.694
;TYPE:WALL-OUTER
G1 F1800 X131.679 Y83.963 E31.02265
G1 X131.848 Y84.206 E31.03741
G1 X132.041 Y84.408 E31.05135
G1 X132.295 Y84.592 E31.06700
G1 X132.561 Y84.723 E31.08179
G1 X132.829 Y84.805 E31.09577
G1 X133.123 Y84.843 E31.11056
G1 X133.438 Y84.827 E31.12630
G1 X133.711 Y84.766 E31.14025
G1 X134.000 Y84.647 E31.15585
G1 X134.238 Y84.502 E31.16975
G1 X134.461 Y84.305 E31.18460
G1 X134.648 Y84.073 E31.19946
G1 X134.799 Y83.797 E31.21516
G1 X134.894 Y83.517 E31.22991
G1 X134.941 Y83.246 E31.24363
G1 X134.947 Y83.083 E31.25177
G1 X134.938 Y82.921 E31.25986
G1 X134.886 Y82.635 E31.27437
G1 X134.793 Y82.372 E31.28828
G1 X134.647 Y82.112 E31.30316
G1 X134.460 Y81.881 E31.31799
G1 X134.224 Y81.676 E31.33358
G1 X133.985 Y81.530 E31.34756
G1 X133.710 Y81.419 E31.36235
G1 X133.419 Y81.357 E31.37720
G1 X133.121 Y81.344 E31.39208
G1 X132.811 Y81.387 E31.40769
