;Generated with Cura_SteamEngine 15.01
; Default start code
G28 ; Home extruder
G1 Z15 F2000
M107 ; Turn off fan
G90 ; Absolute positioning
M82 ; Extruder in absolute mode
M104 T0 S180
M190 S50
; Activate all used extruder
G92 E0 ; Reset extruder position
; Wait for all used extruders to reach temperature
M109 T0 S210 R210
;Layer count: 157
;LAYER:0
M107
G0 F9000 X129.951 Y114.800 Z0.300
;TYPE:SKIRT
G1 F1800 X141.017 Y114.800 E0.55208
G1 X141.017 Y109.400 E0.82149
G1 X158.717 Y109.400 E1.70455
G1 X158.717 Y114.800 E1.97396
G1 X170.045 Y114.800 E2.53911
G1 X170.045 Y121.267 E2.86175
G1 X170.048 Y126.200 E3.10786
G1 X165.700 Y126.200 E3.32478
G1 X165.700 Y173.800 E5.69956
G1 X170.045 Y173.800 E5.91633
G1 X170.045 Y180.267 E6.23897
G1 X170.048 Y185.200 E6.48508
G1 X158.717 Y185.200 E7.05038
G1 X158.717 Y190.800 E7.32977
G1 X141.017 Y190.800 E8.21283
G1 X141.017 Y185.200 E8.49221
G1 X129.954 Y185.200 E9.04415
G1 X129.954 Y178.733 E9.36679
G1 X129.951 Y173.800 E9.61289
G1 X134.300 Y173.800 E9.82987
G1 X134.300 Y126.200 E12.20464
G1 X129.954 Y126.200 E12.42146
G1 X129.954 Y119.733 E12.74410
G1 X129.951 Y114.800 E12.99021
G1 F2400 E8.99021
G0 F9000 X133.753 Y118.600
;TYPE:WALL-INNER
G1 F2400 E12.99021
G1 F1800 X166.245 Y118.600 E14.61124
G1 X166.246 Y122.400 E14.80083
G1 X161.900 Y122.400 E15.01765
G1 X161.900 Y177.600 E17.77159
G1 X166.245 Y177.600 E17.98836
G1 X166.246 Y181.400 E18.17794
G1 X133.754 Y181.400 E19.79898
G1 X133.753 Y177.600 E19.98856
G1 X138.100 Y177.600 E20.20543
G1 X138.100 Y122.400 E22.95937
G1 X133.754 Y122.400 E23.17619
G1 X133.753 Y118.600 E23.36578
G0 F9000 X133.353 Y118.200
;TYPE:WALL-OUTER
G1 F1800 X166.645 Y118.200 E25.02672
G1 X166.646 Y122.800 E25.25622
G1 X162.300 Y122.800 E25.47304
G1 X162.300 Y177.200 E28.18707
G1 X166.645 Y177.200 E28.40384
G1 X166.646 Y181.800 E28.63333
G1 X133.354 Y181.800 E30.29428
G1 X133.353 Y177.200 E30.52377
G1 X137.700 Y177.200 E30.74065
G1 X137.700 Y122.800 E33.45467
G1 X133.354 Y122.800 E33.67150
G1 X133.353 Y118.200 E33.90099
G0 F9000 X133.831 Y118.841
;TYPE:SKIN
G1 F1800 X137.310 Y122.320 E34.14645
G0 F9000 X136.745 Y122.320
G1 F1800 X133.831 Y119.407 E34.35202
G0 F9000 X133.831 Y119.972
G1 F1800 X136.179 Y122.320 E34.51768
G0 F9000 X135.613 Y122.320
G1 F1800 X133.832 Y120.539 E34.64334
G0 F9000 X133.832 Y121.104
G1 F1800 X135.048 Y122.320 E34.72914
G0 F9000 X134.482 Y122.320
G1 F1800 X133.832 Y121.670 E34.77500
G0 F9000 X133.832 Y122.236
G1 F1800 X133.916 Y122.320 E34.78092
G0 F9000 X134.236 Y118.680
G1 F1800 X137.876 Y122.320 E35.03774
G0 F9000 X138.179 Y122.622
G1 F1800 X161.819 Y146.263 E36.70571
G0 F9000 X161.819 Y146.829
G1 F1800 X138.179 Y123.188 E38.37367
G0 F9000 X138.179 Y123.754
G1 F1800 X161.819 Y147.394 E40.04160
G0 F9000 X161.819 Y147.960
G1 F1800 X138.179 Y124.319 E41.70957
G0 F9000 X138.179 Y124.885
G1 F1800 X161.819 Y148.526 E43.37753
G0 F9000 X161.819 Y149.092
G1 F1800 X138.179 Y125.451 E45.04550
G0 F9000 X138.179 Y126.017
G1 F1800 X161.819 Y149.657 E46.71343
G0 F9000 X161.819 Y150.223
G1 F1800 X138.179 Y126.582 E48.38139
G0 F9000 X138.179 Y127.148
G1 F1800 X161.819 Y150.789 E50.04936
G0 F9000 X161.819 Y151.354
G1 F1800 X138.179 Y127.714 E51.71729
G0 F9000 X138.179 Y128.279
G1 F1800 X161.819 Y151.920 E53.38525
G0 F9000 X161.819 Y152.486
G1 F1800 X138.179 Y128.845 E55.05322
G0 F9000 X138.179 Y129.411
G1 F1800 X161.819 Y153.051 E56.72115
G0 F9000 X161.819 Y153.617
G1 F1800 X138.179 Y129.976 E58.38911
G0 F9000 X138.179 Y130.542
G1 F1800 X161.819 Y154.183 E60.05708
G0 F9000 X161.819 Y154.748
G1 F1800 X138.179 Y131.108 E61.72501
G0 F9000 X138.179 Y131.673
G1 F1800 X161.819 Y155.314 E63.39297
G0 F9000 X161.819 Y155.880
G1 F1800 X138.179 Y132.239 E65.06094
G0 F9000 X138.179 Y132.805
G1 F1800 X161.819 Y156.445 E66.72887
G0 F9000 X161.819 Y157.011
G1 F1800 X138.179 Y133.370 E68.39683
G0 F9000 X138.179 Y133.936
G1 F1800 X161.819 Y157.577 E70.06480
G0 F9000 X161.819 Y158.143
G1 F1800 X138.179 Y134.502 E71.73276
G0 F9000 X138.179 Y135.068
G1 F1800 X161.819 Y158.708 E73.40069
G0 F9000 X161.819 Y159.274
G1 F1800 X138.179 Y135.633 E75.06866
G0 F9000 X138.179 Y136.199
G1 F1800 X161.819 Y159.840 E76.73662
G0 F9000 X161.819 Y145.697
G1 F1800 X134.802 Y118.680 E78.64282
G0 F9000 X135.367 Y118.680
G1 F1800 X161.819 Y145.132 E80.50915
G0 F9000 X161.819 Y144.566
G1 F1800 X135.933 Y118.680 E82.33555
G0 F9000 X136.499 Y118.680
G1 F1800 X161.819 Y144.000 E84.12201
G0 F9000 X161.819 Y143.435
G1 F1800 X137.064 Y118.680 E85.86861
G0 F9000 X137.630 Y118.680
G1 F1800 X161.819 Y142.869 E87.57527
G0 F9000 X161.819 Y142.303
G1 F1800 X138.196 Y118.680 E89.24200
G0 F9000 X138.761 Y118.680
G1 F1800 X161.819 Y141.738 E90.86887
G0 F9000 X161.819 Y141.172
G1 F1800 X139.327 Y118.680 E92.45580
G0 F9000 X139.893 Y118.680
G1 F1800 X161.819 Y140.606 E94.00280
G0 F9000 X161.819 Y140.041
G1 F1800 X140.458 Y118.680 E95.50993
G0 F9000 X141.024 Y118.680
G1 F1800 X161.819 Y139.475 E96.97713
G0 F9000 X161.819 Y138.909
G1 F1800 X141.590 Y118.680 E98.40440
G0 F9000 X142.156 Y118.680
G1 F1800 X161.819 Y138.344 E99.79176
G0 F9000 X161.819 Y137.778
G1 F1800 X142.721 Y118.680 E101.13923
G0 F9000 X143.287 Y118.680
G1 F1800 X161.819 Y137.212 E102.44676
G0 F9000 X161.819 Y136.646
G1 F1800 X143.853 Y118.680 E103.71436
G0 F9000 X144.418 Y118.680
G1 F1800 X161.819 Y136.081 E104.94210
G0 F9000 X161.819 Y135.515
G1 F1800 X144.984 Y118.680 E106.12990
G0 F9000 X145.550 Y118.680
G1 F1800 X161.819 Y134.949 E107.27776
G0 F9000 X161.819 Y134.384
G1 F1800 X146.115 Y118.680 E108.38576
G0 F9000 X146.681 Y118.680
G1 F1800 X161.819 Y133.818 E109.45383
G0 F9000 X161.819 Y133.252
G1 F1800 X147.247 Y118.680 E110.48197
G0 F9000 X147.812 Y118.680
G1 F1800 X161.819 Y132.687 E111.47023
G0 F9000 X161.819 Y132.121
G1 F1800 X148.378 Y118.680 E112.41857
G0 F9000 X148.944 Y118.680
G1 F1800 X161.819 Y131.555 E113.32697
G0 F9000 X161.819 Y130.990
G1 F1800 X149.509 Y118.680 E114.19551
G0 F9000 X150.075 Y118.680
G1 F1800 X161.819 Y130.424 E115.02411
G0 F9000 X161.819 Y129.858
G1 F1800 X150.641 Y118.680 E115.81278
G0 F9000 X151.207 Y118.680
G1 F1800 X161.819 Y129.293 E116.56155
G0 F9000 X161.819 Y128.727
G1 F1800 X151.772 Y118.680 E117.27042
G0 F9000 X152.338 Y118.680
G1 F1800 X161.819 Y128.161 E117.93935
G0 F9000 X161.819 Y127.596
G1 F1800 X152.904 Y118.680 E118.56839
G0 F9000 X153.469 Y118.680
G1 F1800 X161.819 Y127.030 E119.15753
G0 F9000 X161.819 Y126.464
G1 F1800 X154.035 Y118.680 E119.70673
G0 F9000 X154.601 Y118.680
G1 F1800 X161.819 Y125.898 E120.21600
G0 F9000 X161.819 Y125.333
G1 F1800 X155.166 Y118.680 E120.68540
G0 F9000 X155.732 Y118.680
G1 F1800 X161.819 Y124.767 E121.11488
G0 F9000 X161.819 Y124.201
G1 F1800 X156.298 Y118.680 E121.50441
G0 F9000 X156.863 Y118.680
G1 F1800 X161.819 Y123.636 E121.85408
G0 F9000 X161.819 Y123.070
G1 F1800 X157.429 Y118.680 E122.16382
G0 F9000 X157.995 Y118.680
G1 F1800 X161.819 Y122.504 E122.43363
G0 F9000 X162.201 Y122.320
G1 F1800 X158.560 Y118.680 E122.69048
G0 F9000 X159.126 Y118.680
G1 F1800 X162.766 Y122.320 E122.94731
G0 F9000 X163.332 Y122.320
G1 F1800 X159.692 Y118.680 E123.20413
G0 F9000 X160.257 Y118.680
G1 F1800 X163.898 Y122.320 E123.46098
G0 F9000 X164.463 Y122.320
G1 F1800 X160.823 Y118.680 E123.71781
G0 F9000 X161.389 Y118.680
G1 F1800 X165.029 Y122.320 E123.97463
G0 F9000 X165.595 Y122.320
G1 F1800 X161.955 Y118.680 E124.23145
G0 F9000 X162.520 Y118.680
G1 F1800 X166.160 Y122.320 E124.48827
G0 F9000 X166.165 Y121.758
G1 F1800 X163.086 Y118.680 E124.70548
G0 F9000 X163.652 Y118.680
G1 F1800 X166.165 Y121.193 E124.88278
G0 F9000 X166.165 Y120.627
G1 F1800 X164.217 Y118.680 E125.02019
G0 F9000 X164.783 Y118.680
G1 F1800 X166.164 Y120.061 E125.11762
G0 F9000 X166.164 Y119.495
G1 F1800 X165.349 Y118.680 E125.17513
G0 F9000 X165.914 Y118.680
G1 F1800 X166.164 Y118.929 E125.19273
G0 F9000 X138.179 Y136.765
G1 F1800 X161.819 Y160.405 E126.86066
G0 F9000 X161.819 Y160.971
G1 F1800 X138.179 Y137.330 E128.52863
G0 F9000 X138.179 Y137.896
G1 F1800 X161.819 Y161.537 E130.19659
G0 F9000 X161.819 Y162.102
G1 F1800 X138.179 Y138.462 E131.86452
G0 F9000 X138.179 Y139.027
G1 F1800 X161.819 Y162.668 E133.53249
G0 F9000 X161.819 Y163.234
G1 F1800 X138.179 Y139.593 E135.20045
G0 F9000 X138.179 Y140.159
G1 F1800 X161.819 Y163.799 E136.86838
G0 F9000 X161.819 Y164.365
G1 F1800 X138.179 Y140.724 E138.53634
G0 F9000 X138.179 Y141.290
G1 F1800 X161.819 Y164.931 E140.20431
G0 F9000 X161.819 Y165.496
G1 F1800 X138.179 Y141.856 E141.87224
G0 F9000 X138.179 Y142.421
G1 F1800 X161.819 Y166.062 E143.54020
G0 F9000 X161.819 Y166.628
G1 F1800 X138.179 Y142.987 E145.20817
G0 F9000 X138.179 Y143.553
G1 F1800 X161.819 Y167.193 E146.87610
G0 F9000 X161.819 Y167.759
G1 F1800 X138.179 Y144.118 E148.54406
G0 F9000 X138.179 Y144.684
G1 F1800 X161.819 Y168.325 E150.21203
G0 F9000 X161.819 Y168.891
G1 F1800 X138.179 Y145.250 E151.87999
G0 F9000 X138.179 Y145.816
G1 F1800 X161.819 Y169.456 E153.54792
G0 F9000 X161.819 Y170.022
G1 F1800 X138.179 Y146.381 E155.21589
G0 F9000 X138.179 Y146.947
G1 F1800 X161.819 Y170.588 E156.88385
G0 F9000 X161.819 Y171.153
G1 F1800 X138.179 Y147.513 E158.55178
G0 F9000 X138.179 Y148.078
G1 F1800 X161.819 Y171.719 E160.21975
G0 F9000 X161.819 Y172.285
G1 F1800 X138.179 Y148.644 E161.88771
G0 F9000 X138.179 Y149.210
G1 F1800 X161.819 Y172.850 E163.55564
G0 F9000 X161.819 Y173.416
G1 F1800 X138.179 Y149.775 E165.22361
G0 F9000 X138.179 Y150.341
G1 F1800 X161.819 Y173.982 E166.89157
G0 F9000 X161.819 Y174.547
G1 F1800 X138.179 Y150.907 E168.55950
G0 F9000 X138.179 Y151.472
G1 F1800 X161.819 Y175.113 E170.22747
G0 F9000 X161.819 Y175.679
G1 F1800 X138.179 Y152.038 E171.89543
G0 F9000 X138.179 Y152.604
G1 F1800 X161.819 Y176.244 E173.56336
G0 F9000 X161.819 Y176.810
G1 F1800 X138.179 Y153.169 E175.23133
G0 F9000 X138.179 Y153.735
G1 F1800 X161.819 Y177.376 E176.89929
G0 F9000 X162.123 Y177.679
G1 F1800 X165.762 Y181.319 E177.15608
G0 F9000 X166.165 Y181.156
G1 F1800 X162.689 Y177.679 E177.40136
G0 F9000 X163.254 Y177.679
G1 F1800 X166.165 Y180.590 E177.60675
G0 F9000 X166.165 Y180.025
G1 F1800 X163.820 Y177.679 E177.77224
G0 F9000 X164.386 Y177.679
G1 F1800 X166.165 Y179.459 E177.89779
G0 F9000 X166.165 Y178.893
G1 F1800 X164.951 Y177.679 E177.98345
G0 F9000 X165.517 Y177.679
G1 F1800 X166.165 Y178.328 E178.02920
G0 F9000 X166.165 Y177.762
G1 F1800 X166.083 Y177.679 E178.03502
G0 F9000 X165.197 Y181.319
G1 F1800 X138.179 Y154.301 E179.94129
G0 F9000 X138.179 Y154.866
G1 F1800 X164.631 Y181.319 E181.80765
G0 F9000 X164.065 Y181.319
G1 F1800 X138.179 Y155.432 E183.63409
G0 F9000 X138.179 Y155.998
G1 F1800 X163.500 Y181.319 E185.42062
G0 F9000 X162.934 Y181.319
G1 F1800 X138.179 Y156.564 E187.16722
G0 F9000 X138.179 Y157.129
G1 F1800 X162.368 Y181.319 E188.87392
G0 F9000 X161.803 Y181.319
G1 F1800 X138.179 Y157.695 E190.54072
G0 F9000 X138.179 Y158.261
G1 F1800 X161.237 Y181.319 E192.16759
G0 F9000 X160.671 Y181.319
G1 F1800 X138.179 Y158.826 E193.75455
G0 F9000 X138.179 Y159.392
G1 F1800 X160.105 Y181.319 E195.30159
G0 F9000 X159.540 Y181.319
G1 F1800 X138.179 Y159.958 E196.80872
G0 F9000 X138.179 Y160.523
G1 F1800 X158.974 Y181.319 E198.27596
G0 F9000 X158.408 Y181.319
G1 F1800 X138.179 Y161.089 E199.70326
G0 F9000 X138.179 Y161.655
G1 F1800 X157.843 Y181.319 E201.09066
G0 F9000 X157.277 Y181.319
G1 F1800 X138.179 Y162.220 E202.43816
G0 F9000 X138.179 Y162.786
G1 F1800 X156.711 Y181.319 E203.74573
G0 F9000 X156.146 Y181.319
G1 F1800 X138.179 Y163.352 E205.01340
G0 F9000 X138.179 Y163.917
G1 F1800 X155.580 Y181.319 E206.24117
G0 F9000 X155.014 Y181.319
G1 F1800 X138.179 Y164.483 E207.42900
G0 F9000 X138.179 Y165.049
G1 F1800 X154.449 Y181.319 E208.57694
G0 F9000 X153.883 Y181.319
G1 F1800 X138.179 Y165.615 E209.68494
G0 F9000 X138.179 Y166.180
G1 F1800 X153.317 Y181.319 E210.75304
G0 F9000 X152.752 Y181.319
G1 F1800 X138.179 Y166.746 E211.78125
G0 F9000 X138.179 Y167.312
G1 F1800 X152.186 Y181.319 E212.76952
G0 F9000 X151.620 Y181.319
G1 F1800 X138.179 Y167.877 E213.71789
G0 F9000 X138.179 Y168.443
G1 F1800 X151.054 Y181.319 E214.62632
G0 F9000 X150.489 Y181.319
G1 F1800 X138.179 Y169.009 E215.49486
G0 F9000 X138.179 Y169.574
G1 F1800 X149.923 Y181.319 E216.32350
G0 F9000 X149.357 Y181.319
G1 F1800 X138.179 Y170.140 E217.11220
G0 F9000 X138.179 Y170.706
G1 F1800 X148.792 Y181.319 E217.86101
G0 F9000 X148.226 Y181.319
G1 F1800 X138.179 Y171.271 E218.56991
G0 F9000 X138.179 Y171.837
G1 F1800 X147.660 Y181.319 E219.23888
G0 F9000 X147.095 Y181.319
G1 F1800 X138.179 Y172.403 E219.86795
G0 F9000 X138.179 Y172.968
G1 F1800 X146.529 Y181.319 E220.45713
G0 F9000 X145.963 Y181.319
G1 F1800 X138.179 Y173.534 E221.00637
G0 F9000 X138.179 Y174.100
G1 F1800 X145.398 Y181.319 E221.51571
G0 F9000 X144.832 Y181.319
G1 F1800 X138.179 Y174.665 E221.98515
G0 F9000 X138.179 Y175.231
G1 F1800 X144.266 Y181.319 E222.41465
G0 F9000 X143.701 Y181.319
G1 F1800 X138.179 Y175.797 E222.80426
G0 F9000 X138.179 Y176.363
G1 F1800 X143.135 Y181.319 E223.15393
G0 F9000 X142.569 Y181.319
G1 F1800 X138.179 Y176.928 E223.46370
G0 F9000 X138.179 Y177.494
G1 F1800 X142.004 Y181.319 E223.73358
G0 F9000 X141.438 Y181.319
G1 F1800 X137.798 Y177.678 E223.99044
G0 F9000 X137.232 Y177.678
G1 F1800 X140.872 Y181.319 E224.24729
G0 F9000 X140.306 Y181.319
G1 F1800 X136.666 Y177.678 E224.50415
G0 F9000 X136.101 Y177.678
G1 F1800 X139.741 Y181.319 E224.76101
G0 F9000 X139.175 Y181.319
G1 F1800 X135.535 Y177.678 E225.01786
G0 F9000 X134.969 Y177.678
G1 F1800 X138.609 Y181.319 E225.27472
G0 F9000 X138.044 Y181.319
G1 F1800 X134.404 Y177.678 E225.53158
G0 F9000 X133.838 Y177.678
G1 F1800 X137.478 Y181.319 E225.78843
G0 F9000 X136.912 Y181.319
G1 F1800 X133.832 Y178.238 E226.00578
G0 F9000 X133.832 Y178.804
G1 F1800 X136.347 Y181.319 E226.18323
G0 F9000 X135.781 Y181.319
G1 F1800 X133.832 Y179.370 E226.32074
G0 F9000 X133.833 Y179.936
G1 F1800 X135.215 Y181.319 E226.41828
G0 F9000 X134.650 Y181.319
G1 F1800 X133.833 Y180.502 E226.47593
G0 F9000 X133.833 Y181.068
G1 F1800 X134.084 Y181.319 E226.49364
G1 F2400 E222.49364
G0 F9000 X144.217 Y117.300
;TYPE:SUPPORT
G1 F2400 E226.49364
G1 F1800 X144.217 Y112.600 E226.72812
G1 X155.517 Y112.600 E227.29188
G1 X155.517 Y117.300 E227.52636
G1 X144.217 Y117.300 E228.09012
G0 F9000 X146.630 Y117.200
G0 X146.630 Y117.420
G1 F1800 X146.630 Y112.480 E228.33658
G0 F9000 X146.630 Y112.700
G0 X144.317 Y114.638
G0 X144.096 Y114.638
G1 F1800 X155.636 Y114.638 E228.91231
G0 F9000 X155.417 Y114.638
G0 X151.962 Y112.700
G0 X151.962 Y112.480
G1 F1800 X151.962 Y117.420 E229.15877
G1 F2400 E225.15877
G0 F9000 X155.517 Y182.700
G1 F2400 E229.15877
G1 F1800 X155.517 Y187.600 E229.40323
G1 X144.217 Y187.600 E229.96699
G1 X144.217 Y182.700 E230.21145
G1 X155.517 Y182.700 E230.77521
G0 F9000 X155.636 Y183.954
G1 F1800 X144.096 Y183.954 E231.35095
G0 F9000 X144.317 Y183.954
G0 X146.630 Y182.800
G0 X146.630 Y182.580
G1 F1800 X146.630 Y187.720 E231.60738
G0 F9000 X146.630 Y187.500
G0 X151.962 Y187.500
G0 X151.962 Y187.720
G1 F1800 X151.962 Y182.580 E231.86382
;LAYER:1
M106 S63
G0 F9000 X151.962 Y181.500 Z0.500
G0 X161.900 Y177.600
;TYPE:WALL-INNER
G1 F1920 X166.819 Y177.600 E232.02742
G1 X166.820 Y181.400 E232.15381
G1 X133.180 Y181.400 E233.27268
G1 X133.179 Y177.600 E233.39907
G1 X138.100 Y177.600 E233.56275
G1 X138.100 Y122.400 E235.39870
G1 X133.180 Y122.400 E235.56234
G1 X133.179 Y118.600 E235.68873
G1 X166.819 Y118.600 E236.80760
G1 X166.820 Y122.400 E236.93399
G1 X161.900 Y122.400 E237.09763
G1 X161.900 Y177.600 E238.93359
G0 F9000 X162.300 Y177.200
;TYPE:WALL-OUTER
G1 F1740 X167.219 Y177.200 E239.09720
G1 X167.220 Y181.800 E239.25019
G1 X132.780 Y181.800 E240.39567
G1 X132.779 Y177.200 E240.54867
G1 X137.700 Y177.200 E240.71234
G1 X137.700 Y122.800 E242.52170
G1 X132.780 Y122.800 E242.68534
G1 X132.779 Y118.200 E242.83833
G1 X167.219 Y118.200 E243.98381
G1 X167.220 Y122.800 E244.13681
G1 X162.300 Y122.800 E244.30045
G1 X162.300 Y177.200 E246.10980
G0 F9000 X161.819 Y177.309
;TYPE:SKIN
G1 F1740 X157.809 Y181.319 E246.29842
G0 F9000 X158.374 Y181.319
G1 F1740 X162.015 Y177.678 E246.46968
