;Generated with Cura_SteamEngine 15.01
; Default start code
G28 ; Home extruder
G1 Z15 F2000
M107 ; Turn off fan
G90 ; Absolute positioning
M82 ; Extruder in absolute mode
M104 T0 S180
M190 S50
; Activate all used extruder
G92 E0 ; Reset extruder position
; Wait for all used extruders to reach temperature
M109 T0 S210 R210
;Layer count: 75
;LAYER:0
M107
G0 F9000 X95.935 Y38.219 Z0.300
;TYPE:SKIRT
G1 F1800 X204.335 Y38.219 E5.40810
G1 X204.335 Y94.619 E8.22191
G1 X95.935 Y94.619 E13.63000
G1 X95.935 Y38.219 E16.44381
G1 F2400 E12.44381
G0 F9000 X99.735 Y42.019
;TYPE:WALL-INNER
G1 F2400 E16.44381
G1 F1800 X200.535 Y42.019 E21.47274
G1 X200.535 Y90.819 E23.90739
G1 X99.735 Y90.819 E28.93632
G1 X99.735 Y42.019 E31.37096
G0 F9000 X134.275 Y63.563
G1 F1800 X133.847 Y64.257 E31.41164
G1 X133.543 Y65.013 E31.45229
G1 X133.372 Y65.809 E31.49291
G1 X133.337 Y66.623 E31.53356
G1 X133.441 Y67.431 E31.57420
G1 X133.679 Y68.209 E31.61479
G1 X134.046 Y68.937 E31.65547
G1 X134.531 Y69.592 E31.69613
G1 X135.119 Y70.155 E31.73674
G1 X135.793 Y70.612 E31.77737
G1 X136.535 Y70.947 E31.81798
G1 X137.324 Y71.153 E31.85867
G1 X138.135 Y71.221 E31.89927
G1 X138.947 Y71.153 E31.93992
G1 X139.736 Y70.947 E31.98061
G1 X140.478 Y70.612 E32.02122
G1 X141.152 Y70.155 E32.06185
G1 X141.740 Y69.592 E32.10246
G1 X142.225 Y68.937 E32.14312
G1 X142.591 Y68.209 E32.18378
G1 X142.830 Y67.431 E32.22438
G1 X142.934 Y66.622 E32.26507
G1 X142.898 Y65.808 E32.30572
G1 X142.727 Y65.013 E32.34629
G1 X142.424 Y64.257 E32.38693
G1 X141.996 Y63.563 E32.42761
G1 X141.458 Y62.952 E32.46822
G1 X140.824 Y62.440 E32.50888
G1 X140.113 Y62.043 E32.54951
G1 X139.346 Y61.771 E32.59011
G1 X138.543 Y61.634 E32.63075
G1 X137.728 Y61.634 E32.67141
G1 X136.925 Y61.771 E32.71205
G1 X136.157 Y62.043 E32.75270
G1 X135.446 Y62.440 E32.79332
G1 X134.812 Y62.952 E32.83398
G1 X134.275 Y63.563 E32.87456
G0 F9000 X136.158 Y62.044
G0 X138.542 Y61.635
G0 X140.823 Y62.441
G0 X142.423 Y64.258
G0 X145.372 Y65.809
G1 F1800 X145.337 Y66.623 E32.91521
G1 X145.441 Y67.431 E32.95586
G1 X145.679 Y68.209 E32.99645
G1 X146.046 Y68.937 E33.03712
G1 X146.529 Y69.589 E33.07760
G1 X147.118 Y70.155 E33.11835
G1 X147.793 Y70.612 E33.15902
G1 X148.535 Y70.947 E33.19964
G1 X149.324 Y71.153 E33.24032
G1 X150.135 Y71.221 E33.28093
G1 X150.947 Y71.153 E33.32158
G1 X151.736 Y70.947 E33.36226
G1 X152.478 Y70.612 E33.40288
G1 X153.152 Y70.155 E33.44350
G1 X153.740 Y69.592 E33.48412
G1 X154.225 Y68.937 E33.52478
G1 X154.591 Y68.209 E33.56543
G1 X154.830 Y67.431 E33.60604
G1 X154.934 Y66.622 E33.64673
G1 X154.898 Y65.808 E33.68738
G1 X154.727 Y65.013 E33.72795
G1 X154.424 Y64.257 E33.76858
G1 X153.996 Y63.563 E33.80926
G1 X153.457 Y62.952 E33.84991
G1 X152.839 Y62.453 E33.88954
G1 X152.115 Y62.044 E33.93102
G1 X151.346 Y61.771 E33.97174
G1 X150.543 Y61.634 E34.01238
G1 X149.728 Y61.634 E34.05304
G1 X148.925 Y61.771 E34.09368
G1 X148.157 Y62.043 E34.13433
G1 X147.446 Y62.440 E34.17495
G1 X146.822 Y62.945 E34.21500
G1 X146.284 Y63.554 E34.25554
G1 X145.848 Y64.256 E34.29677
G1 X145.543 Y65.013 E34.33749
G1 X145.372 Y65.809 E34.37811
G0 F9000 X145.849 Y64.256
G0 X148.535 Y58.947
G1 F1800 X149.324 Y59.153 E34.41879
G1 X150.135 Y59.221 E34.45939
G1 X150.947 Y59.153 E34.50005
G1 X151.736 Y58.947 E34.54073
G1 X152.478 Y58.612 E34.58134
G1 X153.152 Y58.155 E34.62197
G1 X153.740 Y57.592 E34.66259
G1 X154.225 Y56.937 E34.70325
G1 X154.591 Y56.209 E34.74390
G1 X154.830 Y55.431 E34.78450
G1 X154.934 Y54.622 E34.82520
G1 X154.898 Y53.808 E34.86585
G1 X154.727 Y53.013 E34.90642
G1 X154.424 Y52.257 E34.94705
G1 X153.996 Y51.563 E34.98773
G1 X153.458 Y50.952 E35.02835
G1 X152.824 Y50.440 E35.06900
G1 X152.113 Y50.043 E35.10963
G1 X151.346 Y49.771 E35.15023
G1 X150.543 Y49.634 E35.19087
G1 X149.728 Y49.634 E35.23153
G1 X148.925 Y49.771 E35.27217
G1 X148.157 Y50.043 E35.31282
G1 X147.446 Y50.440 E35.35345
G1 X146.812 Y50.952 E35.39410
G1 X146.275 Y51.563 E35.43469
G1 X145.847 Y52.257 E35.47536
G1 X145.543 Y53.013 E35.51602
G1 X145.372 Y53.809 E35.55664
G1 X145.337 Y54.623 E35.59728
G1 X145.441 Y55.431 E35.63793
G1 X145.679 Y56.209 E35.67852
G1 X146.046 Y56.937 E35.71919
G1 X146.531 Y57.592 E35.75985
G1 X147.119 Y58.155 E35.80047
G1 X147.793 Y58.612 E35.84109
G1 X148.535 Y58.947 E35.88171
G0 F9000 X157.847 Y64.257
G1 F1800 X157.543 Y65.013 E35.92236
G1 X157.372 Y65.809 E35.96298
G1 X157.337 Y66.623 E36.00363
G1 X157.441 Y67.431 E36.04427
G1 X157.679 Y68.209 E36.08486
G1 X158.046 Y68.937 E36.12554
G1 X158.531 Y69.592 E36.16620
G1 X159.119 Y70.155 E36.20681
G1 X159.793 Y70.612 E36.24744
G1 X160.535 Y70.947 E36.28806
G1 X161.324 Y71.153 E36.32874
G1 X162.135 Y71.221 E36.36934
G1 X162.947 Y71.153 E36.41000
G1 X163.736 Y70.947 E36.45068
G1 X164.478 Y70.612 E36.49129
G1 X165.152 Y70.155 E36.53192
G1 X165.740 Y69.592 E36.57254
G1 X166.225 Y68.937 E36.61320
G1 X166.591 Y68.209 E36.65385
G1 X166.830 Y67.431 E36.69445
G1 X166.934 Y66.622 E36.73515
G1 X166.898 Y65.808 E36.77580
G1 X166.727 Y65.013 E36.81637
G1 X166.424 Y64.257 E36.85700
G1 X165.996 Y63.563 E36.89768
G1 X165.458 Y62.952 E36.93830
G1 X164.824 Y62.440 E36.97895
G1 X164.113 Y62.043 E37.01958
G1 X163.346 Y61.771 E37.06018
G1 X162.543 Y61.634 E37.10082
G1 X161.728 Y61.634 E37.14148
G1 X160.925 Y61.771 E37.18212
G1 X160.157 Y62.043 E37.22277
G1 X159.446 Y62.440 E37.26340
G1 X158.812 Y62.952 E37.30405
G1 X158.275 Y63.563 E37.34464
G1 X157.847 Y64.257 E37.38531
G0 F9000 X152.113 Y74.043
G1 F1800 X151.346 Y73.771 E37.42592
G1 X150.543 Y73.634 E37.46656
G1 X149.728 Y73.634 E37.50722
G1 X148.925 Y73.771 E37.54786
G1 X148.157 Y74.043 E37.58850
G1 X147.446 Y74.440 E37.62913
G1 X146.812 Y74.952 E37.66979
G1 X146.275 Y75.563 E37.71037
G1 X145.847 Y76.257 E37.75105
G1 X145.543 Y77.013 E37.79170
G1 X145.372 Y77.809 E37.83232
G1 X145.337 Y78.623 E37.87297
G1 X145.441 Y79.431 E37.91361
G1 X145.679 Y80.209 E37.95420
G1 X146.046 Y80.937 E37.99488
G1 X146.531 Y81.592 E38.03554
G1 X147.119 Y82.155 E38.07615
G1 X147.793 Y82.612 E38.11678
G1 X148.535 Y82.947 E38.15740
G1 X149.324 Y83.153 E38.19808
G1 X150.135 Y83.221 E38.23868
G1 X150.947 Y83.153 E38.27933
G1 X151.736 Y82.947 E38.32002
G1 X152.478 Y82.612 E38.36063
G1 X153.152 Y82.155 E38.40126
G1 X153.740 Y81.592 E38.44187
G1 X154.225 Y80.937 E38.48254
G1 X154.591 Y80.209 E38.52319
G1 X154.830 Y79.431 E38.56379
G1 X154.934 Y78.622 E38.60449
G1 X154.898 Y77.808 E38.64514
G1 X154.727 Y77.013 E38.68571
G1 X154.424 Y76.257 E38.72634
G1 X153.996 Y75.563 E38.76702
G1 X153.458 Y74.952 E38.80763
G1 X152.824 Y74.440 E38.84829
G1 X152.113 Y74.043 E38.88892
G0 F9000 X151.948 Y74.409
;TYPE:WALL-OUTER
G1 F1800 X151.245 Y74.160 E38.92613
G1 X150.509 Y74.034 E38.96338
G1 X149.762 Y74.034 E39.00065
G1 X149.026 Y74.160 E39.03790
G1 X148.322 Y74.409 E39.07516
G1 X147.671 Y74.773 E39.11237
G1 X147.090 Y75.242 E39.14962
G1 X146.598 Y75.802 E39.18681
G1 X146.206 Y76.438 E39.22408
G1 X145.927 Y77.130 E39.26131
G1 X145.770 Y77.860 E39.29856
G1 X145.738 Y78.606 E39.33581
G1 X145.834 Y79.346 E39.37304
G1 X146.052 Y80.060 E39.41028
G1 X146.388 Y80.726 E39.44750
G1 X146.832 Y81.327 E39.48478
G1 X147.371 Y81.843 E39.52200
G1 X147.989 Y82.261 E39.55923
G1 X148.669 Y82.568 E39.59645
G1 X149.392 Y82.757 E39.63373
G1 X150.135 Y82.820 E39.67093
G1 X150.879 Y82.757 E39.70819
G1 X151.602 Y82.568 E39.74547
G1 X152.282 Y82.261 E39.78269
G1 X152.900 Y81.843 E39.81991
G1 X153.439 Y81.327 E39.85714
G1 X153.883 Y80.726 E39.89442
G1 X154.218 Y80.060 E39.93161
G1 X154.437 Y79.346 E39.96887
G1 X154.533 Y78.605 E40.00615
G1 X154.500 Y77.859 E40.04340
G1 X154.343 Y77.130 E40.08061
G1 X154.065 Y76.438 E40.11781
G1 X153.673 Y75.802 E40.15509
G1 X153.180 Y75.242 E40.19231
G1 X152.599 Y74.773 E40.22956
G1 X151.948 Y74.409 E40.26677
G0 F9000 X152.093 Y74.148
G0 X150.954 Y71.047
G0 X150.879 Y70.757
G1 F1800 X151.602 Y70.568 E40.30405
G1 X152.282 Y70.261 E40.34128
G1 X152.900 Y69.843 E40.37850
G1 X153.439 Y69.327 E40.41573
G1 X153.883 Y68.726 E40.45300
G1 X154.218 Y68.060 E40.49020
G1 X154.437 Y67.346 E40.52746
G1 X154.533 Y66.605 E40.56474
G1 X154.500 Y65.859 E40.60199
G1 X154.343 Y65.130 E40.63919
G1 X154.065 Y64.438 E40.67640
G1 X153.673 Y63.802 E40.71367
G1 X153.180 Y63.242 E40.75090
G1 X152.614 Y62.785 E40.78719
G1 X151.948 Y62.409 E40.82535
G1 X151.245 Y62.160 E40.86255
G1 X150.509 Y62.034 E40.89981
G1 X149.762 Y62.034 E40.93707
G1 X149.026 Y62.160 E40.97433
G1 X148.322 Y62.409 E41.01158
G1 X147.671 Y62.773 E41.04879
G1 X147.099 Y63.235 E41.08548
G1 X146.606 Y63.793 E41.12262
G1 X146.206 Y64.437 E41.16045
G1 X145.927 Y65.130 E41.19772
G1 X145.770 Y65.860 E41.23497
G1 X145.738 Y66.606 E41.27222
G1 X145.834 Y67.346 E41.30945
G1 X146.052 Y68.060 E41.34670
G1 X146.388 Y68.726 E41.38391
G1 X146.830 Y69.324 E41.42101
G1 X147.371 Y69.843 E41.45841
G1 X147.989 Y70.261 E41.49564
G1 X148.669 Y70.568 E41.53286
G1 X149.392 Y70.757 E41.57014
G1 X150.135 Y70.820 E41.60734
G1 X150.879 Y70.757 E41.64459
G0 F9000 X150.954 Y71.047
G0 X151.735 Y70.946
G0 X157.765 Y68.148
G0 X158.052 Y68.060
G1 F1800 X158.388 Y68.726 E41.68181
G1 X158.832 Y69.327 E41.71909
G1 X159.371 Y69.843 E41.75631
G1 X159.989 Y70.261 E41.79354
G1 X160.669 Y70.568 E41.83076
G1 X161.392 Y70.757 E41.86804
G1 X162.135 Y70.820 E41.90524
G1 X162.879 Y70.757 E41.94250
G1 X163.602 Y70.568 E41.97978
G1 X164.282 Y70.261 E42.01700
G1 X164.900 Y69.843 E42.05422
G1 X165.439 Y69.327 E42.09145
G1 X165.883 Y68.726 E42.12873
G1 X166.218 Y68.060 E42.16592
G1 X166.437 Y67.346 E42.20318
G1 X166.533 Y66.605 E42.24046
G1 X166.500 Y65.859 E42.27771
G1 X166.343 Y65.130 E42.31492
G1 X166.065 Y64.438 E42.35212
G1 X165.673 Y63.802 E42.38940
G1 X165.180 Y63.242 E42.42662
G1 X164.599 Y62.773 E42.46387
G1 X163.948 Y62.409 E42.50108
G1 X163.245 Y62.160 E42.53829
G1 X162.509 Y62.034 E42.57554
G1 X161.762 Y62.034 E42.61281
G1 X161.026 Y62.160 E42.65006
G1 X160.322 Y62.409 E42.68732
G1 X159.671 Y62.773 E42.72453
G1 X159.090 Y63.242 E42.76178
G1 X158.598 Y63.802 E42.79897
G1 X158.206 Y64.438 E42.83624
G1 X157.927 Y65.130 E42.87347
G1 X157.770 Y65.860 E42.91072
G1 X157.738 Y66.606 E42.94797
G1 X157.834 Y67.346 E42.98520
G1 X158.052 Y68.060 E43.02245
G0 F9000 X157.765 Y68.148
G0 X152.449 Y58.510
G0 X152.282 Y58.261
G1 F1800 X152.900 Y57.843 E43.05967
G1 X153.439 Y57.327 E43.09690
G1 X153.883 Y56.726 E43.13417
G1 X154.218 Y56.060 E43.17137
G1 X154.437 Y55.346 E43.20863
G1 X154.533 Y54.605 E43.24591
G1 X154.500 Y53.859 E43.28316
G1 X154.343 Y53.130 E43.32036
G1 X154.065 Y52.438 E43.35757
G1 X153.673 Y51.802 E43.39484
G1 X153.180 Y51.242 E43.43207
G1 X152.599 Y50.773 E43.46932
G1 X151.948 Y50.409 E43.50653
G1 X151.245 Y50.160 E43.54374
G1 X150.509 Y50.034 E43.58099
G1 X149.762 Y50.034 E43.61826
G1 X149.026 Y50.160 E43.65551
G1 X148.322 Y50.409 E43.69277
G1 X147.671 Y50.773 E43.72998
G1 X147.090 Y51.242 E43.76723
G1 X146.598 Y51.802 E43.80442
G1 X146.206 Y52.438 E43.84169
G1 X145.927 Y53.130 E43.87891
G1 X145.770 Y53.860 E43.91617
G1 X145.738 Y54.606 E43.95342
G1 X145.834 Y55.346 E43.99065
G1 X146.052 Y56.060 E44.02789
G1 X146.388 Y56.726 E44.06511
G1 X146.832 Y57.327 E44.10239
G1 X147.371 Y57.843 E44.13961
G1 X147.989 Y58.261 E44.17684
G1 X148.669 Y58.568 E44.21406
G1 X149.392 Y58.757 E44.25134
G1 X150.135 Y58.820 E44.28854
G1 X150.879 Y58.757 E44.32579
G1 X151.602 Y58.568 E44.36308
G1 X152.282 Y58.261 E44.40030
G0 F9000 X152.449 Y58.510
G0 X142.343 Y64.325
G0 X142.065 Y64.438
G1 F1800 X141.673 Y63.802 E44.43757
G1 X141.180 Y63.242 E44.47480
G1 X140.599 Y62.773 E44.51205
G1 X139.948 Y62.409 E44.54926
G1 X139.245 Y62.160 E44.58647
G1 X138.509 Y62.034 E44.62372
G1 X137.762 Y62.034 E44.66099
G1 X137.026 Y62.160 E44.69824
G1 X136.322 Y62.409 E44.73550
G1 X135.671 Y62.773 E44.77271
G1 X135.090 Y63.242 E44.80996
G1 X134.598 Y63.802 E44.84715
G1 X134.206 Y64.438 E44.88442
G1 X133.927 Y65.130 E44.92164
G1 X133.770 Y65.860 E44.95890
G1 X133.738 Y66.606 E44.99615
G1 X133.834 Y67.346 E45.03338
G1 X134.052 Y68.060 E45.07062
G1 X134.388 Y68.726 E45.10784
G1 X134.832 Y69.327 E45.14512
G1 X135.371 Y69.843 E45.18234
G1 X135.989 Y70.261 E45.21957
G1 X136.669 Y70.568 E45.25679
G1 X137.392 Y70.757 E45.29407
G1 X138.135 Y70.820 E45.33127
G1 X138.879 Y70.757 E45.36853
G1 X139.602 Y70.568 E45.40581
G1 X140.282 Y70.261 E45.44303
G1 X140.900 Y69.843 E45.48025
G1 X141.439 Y69.327 E45.51748
G1 X141.883 Y68.726 E45.55476
G1 X142.218 Y68.060 E45.59195
G1 X142.437 Y67.346 E45.62921
G1 X142.533 Y66.605 E45.66649
G1 X142.500 Y65.859 E45.70374
G1 X142.343 Y65.130 E45.74095
G1 X142.065 Y64.438 E45.77815
G0 F9000 X142.343 Y64.325
G0 X141.457 Y62.953
G0 X139.345 Y61.773
G0 X99.635 Y41.829
G0 X99.335 Y41.619
G1 F1800 X200.935 Y41.619 E50.84700
G1 X200.935 Y91.219 E53.32155
G1 X99.335 Y91.219 E58.39040
G1 X99.335 Y41.619 E60.86495
G0 F9000 X99.814 Y42.397
;TYPE:SKIN
G1 F1800 X148.156 Y90.739 E64.27574
G0 F9000 X147.590 Y90.739
G1 F1800 X99.814 Y42.963 E67.64659
G0 F9000 X99.814 Y43.528
G1 F1800 X147.025 Y90.739 E70.97759
G0 F9000 X146.459 Y90.739
G1 F1800 X99.814 Y44.094 E74.26864
G0 F9000 X99.814 Y44.660
G1 F1800 X145.893 Y90.739 E77.51976
G0 F9000 X145.328 Y90.739
G1 F1800 X99.814 Y45.225 E80.73102
G0 F9000 X99.814 Y45.791
G1 F1800 X144.762 Y90.739 E83.90235
G0 F9000 X144.196 Y90.739
G1 F1800 X99.814 Y46.357 E87.03374
G0 F9000 X99.814 Y46.922
G1 F1800 X143.631 Y90.739 E90.12526
G0 F9000 X143.065 Y90.739
G1 F1800 X99.814 Y47.488 E93.17685
G0 F9000 X99.814 Y48.054
G1 F1800 X142.499 Y90.739 E96.18851
G0 F9000 X141.934 Y90.739
G1 F1800 X99.814 Y48.619 E99.16031
G0 F9000 X99.814 Y49.185
G1 F1800 X141.368 Y90.739 E102.09216
G0 F9000 X140.802 Y90.739
G1 F1800 X99.814 Y49.751 E104.98409
G0 F9000 X99.814 Y50.317
G1 F1800 X140.236 Y90.739 E107.83608
G0 F9000 X148.722 Y90.739
G1 F1800 X100.081 Y42.099 E111.26793
G0 F9000 X100.647 Y42.099
G1 F1800 X149.287 Y90.739 E114.69974
G0 F9000 X149.853 Y90.739
G1 F1800 X101.213 Y42.099 E118.13156
G0 F9000 X101.778 Y42.099
G1 F1800 X150.419 Y90.739 E121.56341
G0 F9000 X150.984 Y90.739
G1 F1800 X102.344 Y42.099 E124.99522
G0 F9000 X102.910 Y42.099
G1 F1800 X151.550 Y90.739 E128.42704
G0 F9000 X152.116 Y90.739
G1 F1800 X103.475 Y42.099 E131.85889
G0 F9000 X104.041 Y42.099
G1 F1800 X152.682 Y90.739 E135.29074
G0 F9000 X153.247 Y90.739
G1 F1800 X104.607 Y42.099 E138.72255
G0 F9000 X105.172 Y42.099
G1 F1800 X153.813 Y90.739 E142.15440
G0 F9000 X154.379 Y90.739
G1 F1800 X105.738 Y42.099 E145.58625
G0 F9000 X106.304 Y42.099
G1 F1800 X154.944 Y90.739 E149.01807
G0 F9000 X155.510 Y90.739
G1 F1800 X106.869 Y42.099 E152.44992
G0 F9000 X107.435 Y42.099
G1 F1800 X133.634 Y68.298 E154.29840
G0 F9000 X133.367 Y67.465
G1 F1800 X108.001 Y42.099 E156.08811
G0 F9000 X108.567 Y42.099
G1 F1800 X133.279 Y66.811 E157.83167
G0 F9000 X133.272 Y66.238
G1 F1800 X109.132 Y42.099 E159.53484
G0 F9000 X109.698 Y42.099
G1 F1800 X133.310 Y65.711 E161.20080
G0 F9000 X133.410 Y65.245
G1 F1800 X110.264 Y42.099 E162.83387
G0 F9000 X110.829 Y42.099
G1 F1800 X133.539 Y64.808 E164.43615
G0 F9000 X133.701 Y64.404
G1 F1800 X111.395 Y42.099 E166.00993
G0 F9000 X111.961 Y42.099
G1 F1800 X133.892 Y64.030 E167.55728
G0 F9000 X134.108 Y63.680
G1 F1800 X112.526 Y42.099 E169.07997
G0 F9000 X113.092 Y42.099
G1 F1800 X134.350 Y63.356 E170.57980
G0 F9000 X134.614 Y63.055
G1 F1800 X113.658 Y42.099 E172.05836
G0 F9000 X114.223 Y42.099
G1 F1800 X134.900 Y62.775 E173.51720
G0 F9000 X135.214 Y62.523
G1 F1800 X114.789 Y42.099 E174.95826
G0 F9000 X115.355 Y42.099
G1 F1800 X135.548 Y62.291 E176.38295
G0 F9000 X135.910 Y62.088
G1 F1800 X115.920 Y42.099 E177.79331
G0 F9000 X116.486 Y42.099
G1 F1800 X136.295 Y61.907 E179.19091
G0 F9000 X136.713 Y61.760
G1 F1800 X117.052 Y42.099 E180.57810
G0 F9000 X117.618 Y42.099
G1 F1800 X137.166 Y61.647 E181.95732
G0 F9000 X137.650 Y61.565
G1 F1800 X118.183 Y42.099 E183.33078
G0 F9000 X118.749 Y42.099
G1 F1800 X138.204 Y61.554 E184.70344
G0 F9000 X138.814 Y61.598
G1 F1800 X119.315 Y42.099 E186.07920
G0 F9000 X119.880 Y42.099
G1 F1800 X139.534 Y61.752 E187.46586
G0 F9000 X141.457 Y62.953
G0 X142.726 Y65.014
G0 X142.828 Y67.431
G0 X141.739 Y69.591
G0 X139.755 Y71.024
