;Generated with Cura_SteamEngine 15.01
; Default start code
G28 ; Home extruder
G1 Z15 F2000
M107 ; Turn off fan
G90 ; Absolute positioning
M82 ; Extruder in absolute mode
M104 T0 S180
M190 S50
; Activate all used extruder
G92 E0 ; Reset extruder position
; Wait for all used extruders to reach temperature
M109 T0 S210 R210
;Layer count: 17
;LAYER:0
M107
G0 F9000 X134.502 Y34.601 Z0.300
;TYPE:SKIRT
G1 F1800 X234.184 Y34.601 E4.97316
G1 X235.416 Y33.376 E5.05983
G1 X235.733 Y33.062 E5.08209
G1 X238.429 Y31.139 E5.24731
G1 X238.429 Y31.138 E5.24736
G1 X238.793 Y30.878 E5.26967
G1 X241.771 Y29.411 E5.43530
G1 X242.172 Y29.214 E5.45759
G1 X245.715 Y28.139 E5.64230
G1 X249.493 Y27.622 E5.83255
G1 X252.817 Y27.717 E5.99845
G1 X253.264 Y27.732 E6.02076
G1 X255.611 Y28.188 E6.14004
G1 X256.952 Y28.448 E6.20819
G1 X260.069 Y29.598 E6.37395
G1 X260.487 Y29.754 E6.39621
G1 X263.365 Y31.387 E6.56129
G1 X263.754 Y31.608 E6.58361
G1 X266.337 Y33.689 E6.74910
G1 X266.684 Y33.969 E6.77134
G1 X269.147 Y36.721 E6.95560
G1 X269.710 Y37.582 E7.00692
G1 X271.195 Y39.910 E7.14469
G1 X271.539 Y40.695 E7.18744
G1 X272.701 Y43.399 E7.33428
G1 X273.250 Y45.611 E7.44798
G1 X273.607 Y47.051 E7.52200
G1 X273.880 Y50.410 E7.69013
G1 X273.913 Y50.793 E7.70931
G1 X273.669 Y53.794 E7.85953
G1 X273.607 Y54.553 E7.89752
G1 X273.250 Y55.988 E7.97129
G1 X272.701 Y58.201 E8.08505
G1 X271.617 Y60.725 E8.22209
G1 X271.217 Y61.658 E8.27274
G1 X269.193 Y64.831 E8.46050
G1 X266.947 Y67.339 E8.62847
G1 X266.686 Y67.631 E8.64801
G1 X264.100 Y69.714 E8.81367
G1 X263.754 Y69.993 E8.83585
G1 X260.482 Y71.851 E9.02357
G1 X257.382 Y72.995 E9.18842
G1 X256.958 Y73.153 E9.21100
G1 X255.611 Y73.414 E9.27945
G1 X255.611 Y73.413 E9.27950
G1 X253.259 Y73.870 E9.39904
G1 X249.944 Y73.967 E9.56449
G1 X249.944 Y73.966 E9.56454
G1 X249.503 Y73.981 E9.58656
G1 X246.216 Y73.541 E9.75201
G1 X245.774 Y73.481 E9.77426
G1 X242.538 Y72.498 E9.94299
G1 X242.168 Y72.385 E9.96229
G1 X239.195 Y70.921 E10.12763
G1 X239.195 Y70.920 E10.12767
G1 X238.797 Y70.725 E10.14979
G1 X236.094 Y68.797 E10.31543
G1 X235.731 Y68.538 E10.33768
G1 X234.183 Y67.001 E10.44651
G1 X134.502 Y67.001 E15.41961
G1 X134.502 Y34.601 E17.03606
G1 F2400 E13.03606
G0 F9000 X138.302 Y38.401
;TYPE:WALL-INNER
G1 F2400 E17.03606
G1 F1800 X235.750 Y38.401 E21.89776
G1 X238.196 Y35.972 E22.06974
G1 X240.749 Y34.150 E22.22622
G1 X243.571 Y32.761 E22.38314
G1 X246.531 Y31.862 E22.53747
G1 X249.693 Y31.429 E22.69670
G1 X252.700 Y31.516 E22.84678
G1 X252.839 Y31.520 E22.85372
G1 X255.925 Y32.120 E23.01056
G1 X258.747 Y33.161 E23.16063
G1 X258.874 Y33.208 E23.16738
G1 X261.612 Y34.761 E23.32443
G1 X264.057 Y36.732 E23.48111
G1 X266.125 Y39.041 E23.63575
G1 X266.516 Y39.640 E23.67144
G1 X267.831 Y41.704 E23.79353
G1 X268.053 Y42.210 E23.82110
G1 X269.088 Y44.616 E23.95177
G1 X269.845 Y47.664 E24.10846
G1 X270.094 Y50.735 E24.26217
G1 X270.100 Y50.801 E24.26548
G1 X269.845 Y53.936 E24.42240
G1 X269.088 Y56.986 E24.57918
G1 X267.848 Y59.873 E24.73594
G1 X266.154 Y62.528 E24.89306
G1 X264.116 Y64.804 E25.04548
G1 X264.057 Y64.870 E25.04990
G1 X261.612 Y66.840 E25.20655
G1 X258.876 Y68.393 E25.36351
G1 X256.053 Y69.435 E25.51363
G1 X255.925 Y69.482 E25.52044
G1 X252.841 Y70.080 E25.67716
G1 X249.833 Y70.168 E25.82730
G1 X249.696 Y70.172 E25.83414
G1 X246.724 Y69.775 E25.98373
G1 X246.583 Y69.756 E25.99083
G1 X243.646 Y68.863 E26.14398
G1 X243.570 Y68.840 E26.14794
G1 X240.749 Y67.451 E26.30481
G1 X238.196 Y65.629 E26.46129
G1 X235.750 Y63.201 E26.63324
G1 X138.302 Y63.201 E31.49494
G1 X138.302 Y38.401 E32.73222
G0 F9000 X141.639 Y48.724
G1 F1800 X141.297 Y48.849 E32.75038
G1 X140.983 Y49.029 E32.76844
G1 X140.710 Y49.249 E32.78593
G1 X140.462 Y49.538 E32.80493
G1 X140.273 Y49.849 E32.82309
G1 X140.141 Y50.188 E32.84124
G1 X140.068 Y50.527 E32.85854
G1 X140.051 Y50.894 E32.87687
G1 X140.104 Y51.273 E32.89596
G1 X140.213 Y51.621 E32.91415
G1 X140.380 Y51.945 E32.93234
G1 X140.600 Y52.237 E32.95058
G1 X140.867 Y52.487 E32.96883
G1 X141.171 Y52.689 E32.98703
G1 X141.503 Y52.834 E33.00511
G1 X141.837 Y52.921 E33.02233
G1 X142.204 Y52.953 E33.04071
G1 X142.586 Y52.917 E33.05985
G1 X142.937 Y52.822 E33.07799
G1 X143.265 Y52.671 E33.09601
G1 X143.557 Y52.474 E33.11358
G1 X143.830 Y52.206 E33.13267
G1 X144.044 Y51.911 E33.15085
G1 X144.203 Y51.587 E33.16885
G1 X144.305 Y51.255 E33.18618
G1 X144.353 Y50.889 E33.20460
G1 X144.332 Y50.508 E33.22363
G1 X144.253 Y50.153 E33.24178
G1 X144.114 Y49.815 E33.26001
G1 X143.919 Y49.505 E33.27828
G1 X143.675 Y49.234 E33.29648
G1 X143.389 Y49.008 E33.31466
G1 X143.072 Y48.835 E33.33268
G1 X142.746 Y48.719 E33.34994
G1 X142.395 Y48.658 E33.36772
G1 X142.191 Y48.650 E33.37790
G1 X141.988 Y48.661 E33.38804
G1 X141.639 Y48.724 E33.40574
G0 F9000 X146.301 Y49.452
G1 F1800 X146.137 Y50.217 E33.44477
G1 X146.104 Y50.996 E33.48367
G1 X146.203 Y51.769 E33.52255
G1 X146.431 Y52.516 E33.56152
G1 X146.780 Y53.208 E33.60018
G1 X147.247 Y53.841 E33.63943
G1 X147.811 Y54.381 E33.67838
G1 X148.457 Y54.819 E33.71732
G1 X149.169 Y55.140 E33.75629
G1 X149.924 Y55.336 E33.79520
G1 X150.702 Y55.403 E33.83416
G1 X151.480 Y55.336 E33.87312
G1 X152.235 Y55.140 E33.91203
G1 X152.947 Y54.819 E33.95100
G1 X153.593 Y54.381 E33.98994
G1 X154.157 Y53.841 E34.02889
G1 X154.621 Y53.214 E34.06781
G1 X154.956 Y52.550 E34.10491
G1 X155.200 Y51.772 E34.14559
G1 X155.300 Y50.996 E34.18463
G1 X155.267 Y50.217 E34.22353
G1 X155.103 Y49.453 E34.26251
G1 X154.812 Y48.729 E34.30144
G1 X154.425 Y48.101 E34.33824
G1 X153.894 Y47.487 E34.37874
G1 X153.280 Y46.989 E34.41818
G1 X152.598 Y46.607 E34.45718
G1 X151.862 Y46.347 E34.49612
G1 X151.104 Y46.217 E34.53449
G1 X150.678 Y46.200 E34.55576
G1 X150.257 Y46.224 E34.57680
G1 X149.542 Y46.347 E34.61300
G1 X148.806 Y46.607 E34.65194
G1 X148.124 Y46.989 E34.69094
G1 X147.510 Y47.487 E34.73038
G1 X147.002 Y48.064 E34.76873
G1 X146.601 Y48.715 E34.80688
G1 X146.301 Y49.452 E34.84658
G0 F9000 X149.671 Y44.189
G1 F1800 X150.003 Y44.334 E34.86465
G1 X150.337 Y44.421 E34.88187
G1 X150.704 Y44.453 E34.90025
G1 X151.086 Y44.417 E34.91939
G1 X151.437 Y44.322 E34.93753
G1 X151.765 Y44.171 E34.95555
G1 X152.057 Y43.974 E34.97312
G1 X152.330 Y43.706 E34.99221
G1 X152.544 Y43.411 E35.01039
G1 X152.703 Y43.087 E35.02840
G1 X152.805 Y42.755 E35.04573
G1 X152.853 Y42.391 E35.06404
G1 X152.836 Y42.025 E35.08232
G1 X152.754 Y41.653 E35.10133
G1 X152.614 Y41.315 E35.11958
G1 X152.419 Y41.004 E35.13789
G1 X152.175 Y40.735 E35.15601
G1 X151.890 Y40.508 E35.17419
G1 X151.572 Y40.335 E35.19225
G1 X151.246 Y40.219 E35.20951
G1 X150.895 Y40.158 E35.22729
G1 X150.691 Y40.150 E35.23747
G1 X150.488 Y40.161 E35.24761
G1 X150.139 Y40.224 E35.26531
G1 X149.799 Y40.348 E35.28336
G1 X149.496 Y40.519 E35.30072
G1 X149.217 Y40.741 E35.31851
G1 X148.963 Y41.035 E35.33789
G1 X148.780 Y41.331 E35.35526
G1 X148.644 Y41.671 E35.37352
G1 X148.568 Y42.027 E35.39169
G1 X148.551 Y42.394 E35.41001
G1 X148.604 Y42.773 E35.42911
G1 X148.713 Y43.121 E35.44730
G1 X148.880 Y43.445 E35.46549
G1 X149.100 Y43.737 E35.48373
G1 X149.367 Y43.987 E35.50197
G1 X149.671 Y44.189 E35.52018
G0 F9000 X157.462 Y49.538
G1 F1800 X157.273 Y49.849 E35.53834
G1 X157.141 Y50.188 E35.55649
G1 X157.068 Y50.527 E35.57379
G1 X157.051 Y50.894 E35.59212
G1 X157.104 Y51.273 E35.61121
G1 X157.213 Y51.621 E35.62941
G1 X157.380 Y51.945 E35.64759
G1 X157.600 Y52.237 E35.66583
G1 X157.867 Y52.487 E35.68408
G1 X158.171 Y52.689 E35.70229
G1 X158.503 Y52.834 E35.72036
G1 X158.837 Y52.921 E35.73758
G1 X159.204 Y52.953 E35.75596
G1 X159.586 Y52.917 E35.77510
G1 X159.937 Y52.822 E35.79325
G1 X160.265 Y52.671 E35.81126
G1 X160.557 Y52.474 E35.82883
G1 X160.830 Y52.206 E35.84792
G1 X161.044 Y51.911 E35.86610
G1 X161.203 Y51.587 E35.88411
G1 X161.305 Y51.255 E35.90144
G1 X161.353 Y50.889 E35.91985
G1 X161.332 Y50.508 E35.93889
G1 X161.253 Y50.153 E35.95703
G1 X161.114 Y49.815 E35.97527
G1 X160.919 Y49.505 E35.99354
G1 X160.675 Y49.234 E36.01173
G1 X160.389 Y49.008 E36.02992
G1 X160.072 Y48.835 E36.04793
G1 X159.746 Y48.719 E36.06520
G1 X159.395 Y48.658 E36.08297
G1 X159.191 Y48.650 E36.09316
G1 X158.988 Y48.661 E36.10330
G1 X158.639 Y48.724 E36.12099
G1 X158.297 Y48.849 E36.13916
G1 X157.983 Y49.029 E36.15722
G1 X157.710 Y49.249 E36.17471
G1 X157.462 Y49.538 E36.19371
G0 F9000 X151.889 Y57.508
G1 F1800 X151.572 Y57.335 E36.21172
G1 X151.246 Y57.219 E36.22899
G1 X150.895 Y57.158 E36.24676
G1 X150.691 Y57.150 E36.25695
G1 X150.488 Y57.161 E36.26709
G1 X150.139 Y57.224 E36.28478
G1 X149.797 Y57.349 E36.30295
G1 X149.483 Y57.529 E36.32101
G1 X149.210 Y57.749 E36.33850
G1 X148.962 Y58.038 E36.35750
G1 X148.773 Y58.349 E36.37565
G1 X148.641 Y58.688 E36.39380
G1 X148.568 Y59.027 E36.41110
G1 X148.551 Y59.394 E36.42943
G1 X148.604 Y59.773 E36.44852
G1 X148.713 Y60.121 E36.46672
G1 X148.880 Y60.445 E36.48490
G1 X149.099 Y60.736 E36.50307
G1 X149.358 Y60.981 E36.52086
G1 X149.671 Y61.189 E36.53961
G1 X150.003 Y61.334 E36.55768
G1 X150.337 Y61.421 E36.57490
G1 X150.704 Y61.453 E36.59328
G1 X151.086 Y61.417 E36.61242
G1 X151.435 Y61.322 E36.63047
G1 X151.758 Y61.175 E36.64818
G1 X152.057 Y60.974 E36.66615
G1 X152.330 Y60.706 E36.68524
G1 X152.544 Y60.411 E36.70342
G1 X152.703 Y60.087 E36.72142
G1 X152.805 Y59.755 E36.73875
G1 X152.853 Y59.389 E36.75717
G1 X152.832 Y59.008 E36.77620
G1 X152.753 Y58.653 E36.79435
G1 X152.614 Y58.315 E36.81258
G1 X152.419 Y58.005 E36.83085
G1 X152.175 Y57.734 E36.84905
G1 X151.889 Y57.508 E36.86723
G0 F9000 X183.551 Y56.895
G1 F1800 X183.607 Y57.288 E36.88704
G1 X183.720 Y57.636 E36.90529
G1 X183.887 Y57.954 E36.92321
G1 X184.086 Y58.223 E36.93990
G1 X184.350 Y58.476 E36.95815
G1 X184.657 Y58.683 E36.97662
G1 X185.015 Y58.837 E36.99606
G1 X185.337 Y58.921 E37.01267
G1 X185.706 Y58.954 E37.03115
G1 X186.096 Y58.914 E37.05071
G1 X186.419 Y58.830 E37.06736
G1 X186.751 Y58.680 E37.08553
G1 X187.058 Y58.473 E37.10401
G1 X187.340 Y58.194 E37.12380
G1 X187.551 Y57.896 E37.14201
G1 X187.707 Y57.574 E37.15987
G1 X187.805 Y57.255 E37.17651
G1 X187.853 Y56.887 E37.19503
G1 X187.830 Y56.493 E37.21472
G1 X187.748 Y56.138 E37.23290
G1 X187.606 Y55.800 E37.25119
G1 X187.408 Y55.493 E37.26941
G1 X187.163 Y55.224 E37.28757
G1 X186.881 Y55.004 E37.30541
G1 X186.589 Y54.840 E37.32212
G1 X186.245 Y54.718 E37.34033
G1 X185.880 Y54.655 E37.35881
G1 X185.484 Y54.661 E37.37857
G1 X185.126 Y54.729 E37.39675
G1 X184.783 Y54.856 E37.41499
G1 X184.468 Y55.040 E37.43319
G1 X184.188 Y55.273 E37.45137
G1 X183.952 Y55.552 E37.46960
G1 X183.767 Y55.865 E37.48774
G1 X183.638 Y56.200 E37.50565
G1 X183.568 Y56.527 E37.52233
G1 X183.551 Y56.895 E37.54071
G0 F9000 X185.337 Y46.921
G1 F1800 X185.706 Y46.954 E37.55919
G1 X186.096 Y46.914 E37.57875
G1 X186.419 Y46.830 E37.59540
G1 X186.751 Y46.680 E37.61358
G1 X187.058 Y46.473 E37.63205
G1 X187.340 Y46.194 E37.65184
G1 X187.551 Y45.896 E37.67006
G1 X187.707 Y45.574 E37.68791
G1 X187.805 Y45.255 E37.70456
G1 X187.853 Y44.887 E37.72307
G1 X187.830 Y44.493 E37.74276
G1 X187.748 Y44.138 E37.76094
G1 X187.606 Y43.800 E37.77923
G1 X187.408 Y43.493 E37.79746
G1 X187.163 Y43.224 E37.81561
G1 X186.881 Y43.004 E37.83345
G1 X186.589 Y42.840 E37.85016
G1 X186.245 Y42.718 E37.86837
G1 X185.895 Y42.658 E37.88609
G1 X185.681 Y42.650 E37.89677
G1 X185.470 Y42.664 E37.90732
G1 X185.126 Y42.729 E37.92479
G1 X184.783 Y42.856 E37.94303
G1 X184.468 Y43.040 E37.96124
G1 X184.188 Y43.273 E37.97941
G1 X183.952 Y43.552 E37.99764
G1 X183.767 Y43.865 E38.01578
G1 X183.638 Y44.200 E38.03369
G1 X183.568 Y44.527 E38.05037
G1 X183.551 Y44.895 E38.06875
G1 X183.607 Y45.288 E38.08856
G1 X183.720 Y45.636 E38.10681
G1 X183.887 Y45.954 E38.12473
G1 X184.086 Y46.223 E38.14142
G1 X184.350 Y46.476 E38.15967
G1 X184.657 Y46.683 E38.17814
G1 X185.015 Y46.837 E38.19758
G1 X185.337 Y46.921 E38.21418
G0 F9000 X213.551 Y44.895
G1 F1800 X213.607 Y45.288 E38.23399
G1 X213.720 Y45.636 E38.25224
G1 X213.887 Y45.954 E38.27016
G1 X214.086 Y46.223 E38.28686
G1 X214.350 Y46.476 E38.30510
G1 X214.657 Y46.683 E38.32357
G1 X215.015 Y46.837 E38.34302
G1 X215.337 Y46.921 E38.35962
G1 X215.706 Y46.954 E38.37810
G1 X216.096 Y46.914 E38.39766
G1 X216.419 Y46.830 E38.41431
G1 X216.751 Y46.680 E38.43249
G1 X217.058 Y46.473 E38.45096
G1 X217.340 Y46.194 E38.47075
G1 X217.551 Y45.896 E38.48897
G1 X217.707 Y45.574 E38.50682
G1 X217.805 Y45.255 E38.52347
G1 X217.853 Y44.887 E38.54198
G1 X217.830 Y44.493 E38.56167
G1 X217.748 Y44.138 E38.57985
G1 X217.606 Y43.800 E38.59814
G1 X217.408 Y43.493 E38.61637
G1 X217.163 Y43.224 E38.63452
G1 X216.881 Y43.004 E38.65236
G1 X216.589 Y42.840 E38.66907
G1 X216.245 Y42.718 E38.68728
G1 X215.895 Y42.658 E38.70500
G1 X215.681 Y42.650 E38.71568
G1 X215.470 Y42.664 E38.72623
G1 X215.126 Y42.729 E38.74370
G1 X214.783 Y42.856 E38.76194
G1 X214.468 Y43.040 E38.78014
G1 X214.188 Y43.273 E38.79832
G1 X213.952 Y43.552 E38.81655
G1 X213.767 Y43.865 E38.83469
G1 X213.638 Y44.200 E38.85260
G1 X213.568 Y44.527 E38.86928
G1 X213.551 Y44.895 E38.88766
G0 F9000 X215.484 Y54.661
G1 F1800 X215.126 Y54.729 E38.90584
G1 X214.783 Y54.856 E38.92409
G1 X214.468 Y55.040 E38.94229
G1 X214.188 Y55.273 E38.96046
G1 X213.952 Y55.552 E38.97869
G1 X213.767 Y55.865 E38.99683
G1 X213.638 Y56.200 E39.01474
G1 X213.568 Y56.527 E39.03142
G1 X213.551 Y56.895 E39.04980
G1 X213.607 Y57.288 E39.06961
G1 X213.720 Y57.636 E39.08786
G1 X213.887 Y57.954 E39.10578
G1 X214.086 Y58.223 E39.12248
G1 X214.350 Y58.476 E39.14072
G1 X214.657 Y58.683 E39.15919
G1 X215.015 Y58.837 E39.17863
G1 X215.337 Y58.921 E39.19524
G1 X215.706 Y58.954 E39.21372
G1 X216.096 Y58.914 E39.23328
G1 X216.419 Y58.830 E39.24993
G1 X216.751 Y58.680 E39.26811
G1 X217.058 Y58.473 E39.28658
G1 X217.340 Y58.194 E39.30637
G1 X217.551 Y57.896 E39.32459
G1 X217.707 Y57.574 E39.34244
G1 X217.805 Y57.255 E39.35909
G1 X217.853 Y56.887 E39.37760
G1 X217.830 Y56.493 E39.39729
G1 X217.748 Y56.138 E39.41547
G1 X217.606 Y55.800 E39.43376
G1 X217.408 Y55.493 E39.45198
G1 X217.163 Y55.224 E39.47014
G1 X216.881 Y55.004 E39.48798
G1 X216.589 Y54.840 E39.50469
G1 X216.245 Y54.718 E39.52290
G1 X215.880 Y54.655 E39.54138
G1 X215.484 Y54.661 E39.56114
G0 F9000 X237.522 Y58.274
G1 F1800 X237.418 Y59.082 E39.60178
G1 X237.444 Y59.671 E39.63119
G1 X237.454 Y59.896 E39.64243
G1 X237.625 Y60.692 E39.68305
G1 X237.928 Y61.448 E39.72368
G1 X238.356 Y62.141 E39.76432
G1 X238.755 Y62.595 E39.79447
G1 X238.895 Y62.753 E39.80501
G1 X239.528 Y63.265 E39.84562
G1 X240.239 Y63.662 E39.88625
G1 X241.006 Y63.933 E39.92683
G1 X241.810 Y64.071 E39.96753
G1 X242.624 Y64.071 E40.00814
G1 X243.427 Y63.933 E40.04879
G1 X244.195 Y63.662 E40.08942
G1 X244.906 Y63.265 E40.13005
G1 X245.540 Y62.752 E40.17074
G1 X246.077 Y62.141 E40.21132
G1 X246.504 Y61.449 E40.25189
G1 X246.809 Y60.692 E40.29261
G1 X246.980 Y59.895 E40.33327
G1 X247.015 Y59.082 E40.37387
G1 X246.911 Y58.274 E40.41452
G1 X246.673 Y57.496 E40.45511
G1 X246.306 Y56.768 E40.49578
G1 X245.822 Y56.113 E40.53641
G1 X245.233 Y55.549 E40.57710
G1 X244.559 Y55.093 E40.61770
G1 X243.816 Y54.758 E40.65836
G1 X243.283 Y54.619 E40.68584
G1 X243.029 Y54.553 E40.69893
G1 X242.217 Y54.484 E40.73959
G1 X241.405 Y54.552 E40.78024
G1 X240.617 Y54.758 E40.82088
G1 X239.875 Y55.093 E40.86149
G1 X239.200 Y55.550 E40.90216
G1 X238.612 Y56.113 E40.94277
G1 X238.127 Y56.768 E40.98344
G1 X237.761 Y57.496 E41.02409
G1 X237.522 Y58.274 E41.06469
G0 F9000 X238.613 Y56.114
G0 X240.618 Y54.759
G0 X243.284 Y54.620
G0 X246.607 Y53.307
G1 F1800 X247.096 Y53.973 E41.10591
G1 X247.685 Y54.537 E41.14660
G1 X248.360 Y54.993 E41.18724
G1 X249.102 Y55.329 E41.22788
G1 X249.890 Y55.533 E41.26849
G1 X250.702 Y55.603 E41.30915
G1 X251.514 Y55.533 E41.34981
G1 X252.302 Y55.329 E41.39042
G1 X253.044 Y54.993 E41.43105
G1 X253.719 Y54.537 E41.47169
G1 X254.275 Y54.005 E41.51009
G1 X254.790 Y53.321 E41.55280
G1 X255.143 Y52.621 E41.59191
G1 X255.396 Y51.815 E41.63406
G1 X255.500 Y51.004 E41.67485
G1 X255.465 Y50.191 E41.71545
G1 X255.294 Y49.395 E41.75607
G1 X254.990 Y48.639 E41.79672
G1 X254.581 Y47.975 E41.83563
G1 X254.026 Y47.335 E41.87789
