;Generated with Cura_SteamEngine 15.01
; Default start code
G28 ; Home extruder
G1 Z15 F2000
M107 ; Turn off fan
G90 ; Absolute positioning
M82 ; Extruder in absolute mode
M104 T0 S180
M190 S50
; Activate all used extruder
G92 E0 ; Reset extruder position
; Wait for all used extruders to reach temperature
M109 T0 S210 R210
;Layer count: 172
;LAYER:0
M107
G0 F9000 X133.709 Y91.316 Z0.300
G0 X133.514 Y91.696
;TYPE:SKIRT
G1 F1800 X133.709 Y91.316 E0.02131
G1 X135.649 Y88.727 E0.18271
G1 X137.997 Y86.498 E0.34423
G1 X139.091 Y85.766 E0.40990
G1 X140.685 Y84.697 E0.50566
G1 X143.640 Y83.372 E0.66723
G1 X146.312 Y82.681 E0.80492
G1 X146.772 Y82.561 E0.82863
G1 X150.000 Y82.289 E0.99025
G1 X152.807 Y82.526 E1.13079
G1 X153.236 Y82.564 E1.15228
G1 X156.358 Y83.371 E1.31315
G1 X157.119 Y83.712 E1.35476
G1 X159.315 Y84.698 E1.47485
G1 X160.515 Y85.502 E1.54692
G1 X160.515 Y85.503 E1.54697
G1 X162.002 Y86.498 E1.63623
G1 X164.046 Y88.438 E1.77682
G1 X164.353 Y88.731 E1.79800
G1 X166.035 Y90.976 E1.93795
G1 X166.291 Y91.317 E1.95922
G1 X167.573 Y93.817 E2.09939
G1 X167.769 Y94.197 E2.12072
G1 X168.644 Y96.970 E2.26579
G1 X168.643 Y96.970 E2.26584
G1 X168.743 Y97.285 E2.28233
G1 X169.184 Y100.491 E2.44378
G1 X169.151 Y101.553 E2.49679
G1 X169.081 Y103.728 E2.60536
G1 X168.437 Y106.898 E2.76674
G1 X167.420 Y109.525 E2.90728
G1 X167.266 Y109.922 E2.92853
G1 X166.200 Y111.709 E3.03234
G1 X166.200 Y217.700 E8.32025
G1 X133.800 Y217.700 E9.93669
G1 X133.800 Y111.710 E15.22456
G1 X132.731 Y109.919 E15.32862
G1 X131.716 Y107.295 E15.46898
G1 X131.717 Y107.295 E15.46903
G1 X131.563 Y106.902 E15.49009
G1 X131.003 Y104.143 E15.63054
G1 X130.918 Y103.731 E15.65153
G1 X130.815 Y100.493 E15.81316
G1 X131.256 Y97.286 E15.97466
G1 X132.121 Y94.543 E16.11815
G1 X132.232 Y94.194 E16.13642
G1 X133.514 Y91.696 E16.27650
G1 F2400 E12.27650
G0 F9000 X136.942 Y93.338
;TYPE:WALL-INNER
G1 F2400 E16.27650
G1 F1800 X138.498 Y91.261 E16.40598
G1 X140.376 Y89.479 E16.53514
G1 X142.537 Y88.031 E16.66492
G1 X144.901 Y86.971 E16.79417
G1 X147.413 Y86.321 E16.92362
G1 X150.000 Y86.102 E17.05315
G1 X152.479 Y86.312 E17.17727
G1 X152.591 Y86.322 E17.18288
G1 X155.095 Y86.970 E17.31192
G1 X157.469 Y88.034 E17.44171
G1 X159.619 Y89.475 E17.57084
G1 X161.425 Y91.189 E17.69506
G1 X161.500 Y91.261 E17.70025
G1 X163.057 Y93.338 E17.82975
G1 X164.243 Y95.651 E17.95943
G1 X165.023 Y98.122 E18.08871
G1 X165.376 Y100.689 E18.21798
G1 X165.353 Y101.432 E18.25507
G1 X165.293 Y103.288 E18.34771
G1 X164.778 Y105.823 E18.47677
G1 X163.837 Y108.253 E18.60677
G1 X162.563 Y110.387 E18.73077
G1 X162.400 Y110.662 E18.74672
G1 X162.400 Y213.900 E23.89728
G1 X137.600 Y213.900 E25.13456
G1 X137.600 Y110.662 E30.28512
G1 X136.160 Y108.249 E30.42532
G1 X135.260 Y105.924 E30.54970
G1 X135.223 Y105.829 E30.55478
G1 X134.727 Y103.386 E30.67915
G1 X134.706 Y103.285 E30.68430
G1 X134.623 Y100.689 E30.81388
G1 X134.976 Y98.122 E30.94315
G1 X135.742 Y95.692 E31.07027
G1 X135.757 Y95.648 E31.07259
G1 X136.942 Y93.338 E31.20211
G0 F9000 X139.361 Y93.017
G1 F1800 X139.400 Y93.405 E31.22157
G1 X139.496 Y93.757 E31.23977
G1 X139.650 Y94.088 E31.25798
G1 X139.856 Y94.384 E31.27598
G1 X140.093 Y94.631 E31.29305
G1 X140.390 Y94.849 E31.31143
G1 X140.735 Y95.018 E31.33060
G1 X141.060 Y95.117 E31.34755
G1 X141.425 Y95.165 E31.36592
G1 X141.815 Y95.144 E31.38540
G1 X142.168 Y95.063 E31.40347
G1 X142.487 Y94.934 E31.42064
G1 X142.815 Y94.727 E31.43999
G1 X143.087 Y94.482 E31.45825
G1 X143.311 Y94.194 E31.47646
G1 X143.483 Y93.879 E31.49436
G1 X143.596 Y93.557 E31.51139
G1 X143.657 Y93.208 E31.52906
G1 X143.665 Y92.998 E31.53955
G1 X143.653 Y92.791 E31.54989
G1 X143.589 Y92.445 E31.56745
G1 X143.462 Y92.102 E31.58569
G1 X143.279 Y91.786 E31.60391
G1 X143.048 Y91.507 E31.62198
G1 X142.774 Y91.271 E31.64002
G1 X142.479 Y91.090 E31.65729
G1 X142.120 Y90.951 E31.67650
G1 X141.787 Y90.880 E31.69348
G1 X141.419 Y90.864 E31.71186
G1 X141.038 Y90.917 E31.73105
G1 X140.712 Y91.017 E31.74806
G1 X140.383 Y91.183 E31.76645
G1 X140.076 Y91.416 E31.78568
G1 X139.837 Y91.664 E31.80286
G1 X139.623 Y91.991 E31.82236
G1 X139.479 Y92.321 E31.84032
G1 X139.394 Y92.649 E31.85723
G1 X139.361 Y93.017 E31.87566
G0 F9000 X141.418 Y107.834
G1 F1800 X141.037 Y107.889 E31.89486
G1 X140.712 Y107.988 E31.91181
G1 X140.383 Y108.154 E31.93020
G1 X140.076 Y108.386 E31.94940
G1 X139.836 Y108.636 E31.96669
G1 X139.623 Y108.962 E31.98611
G1 X139.479 Y109.291 E32.00403
G1 X139.394 Y109.621 E32.02103
G1 X139.361 Y109.988 E32.03942
G1 X139.400 Y110.376 E32.05887
G1 X139.496 Y110.727 E32.07703
G1 X139.650 Y111.058 E32.09524
G1 X139.857 Y111.356 E32.11334
G1 X140.093 Y111.601 E32.13031
G1 X140.389 Y111.820 E32.14868
G1 X140.735 Y111.989 E32.16789
G1 X141.081 Y112.095 E32.18595
G1 X141.425 Y112.135 E32.20323
G1 X141.814 Y112.114 E32.22266
G1 X142.167 Y112.034 E32.24072
G1 X142.487 Y111.905 E32.25793
G1 X142.816 Y111.697 E32.27735
G1 X143.087 Y111.451 E32.29561
G1 X143.311 Y111.166 E32.31370
G1 X143.483 Y110.848 E32.33173
G1 X143.596 Y110.527 E32.34871
G1 X143.657 Y110.178 E32.36639
G1 X143.665 Y109.969 E32.37682
G1 X143.653 Y109.761 E32.38722
G1 X143.589 Y109.415 E32.40477
G1 X143.462 Y109.072 E32.42302
G1 X143.279 Y108.757 E32.44119
G1 X143.048 Y108.477 E32.45930
G1 X142.774 Y108.242 E32.47731
G1 X142.479 Y108.061 E32.49458
G1 X142.121 Y107.923 E32.51372
G1 X141.788 Y107.850 E32.53073
G1 X141.418 Y107.834 E32.54921
G0 F9000 X156.363 Y109.622
G1 F1800 X156.333 Y109.989 E32.56758
G1 X156.370 Y110.375 E32.58692
G1 X156.466 Y110.728 E32.60517
G1 X156.622 Y111.059 E32.62343
G1 X156.828 Y111.356 E32.64146
G1 X157.063 Y111.599 E32.65833
G1 X157.359 Y111.820 E32.67676
G1 X157.706 Y111.989 E32.69601
G1 X158.031 Y112.089 E32.71298
G1 X158.394 Y112.135 E32.73123
G1 X158.761 Y112.119 E32.74956
G1 X159.137 Y112.035 E32.76878
G1 X159.458 Y111.905 E32.78606
G1 X159.785 Y111.697 E32.80539
G1 X160.057 Y111.452 E32.82366
G1 X160.282 Y111.166 E32.84181
G1 X160.454 Y110.848 E32.85985
G1 X160.568 Y110.526 E32.87689
G1 X160.627 Y110.179 E32.89445
G1 X160.636 Y109.969 E32.90494
G1 X160.623 Y109.763 E32.91523
G1 X160.567 Y109.438 E32.93169
G1 X160.432 Y109.072 E32.95115
G1 X160.251 Y108.757 E32.96928
G1 X160.018 Y108.477 E32.98745
G1 X159.744 Y108.242 E33.00546
G1 X159.454 Y108.063 E33.02246
G1 X159.116 Y107.927 E33.04064
G1 X158.759 Y107.850 E33.05886
G1 X158.389 Y107.834 E33.07733
G1 X158.007 Y107.889 E33.09659
G1 X157.683 Y107.988 E33.11349
G1 X157.353 Y108.154 E33.13192
G1 X157.047 Y108.387 E33.15111
G1 X156.807 Y108.636 E33.16836
G1 X156.595 Y108.961 E33.18772
G1 X156.449 Y109.290 E33.20568
G1 X156.363 Y109.622 E33.22279
G0 F9000 X158.393 Y95.165
G1 F1800 X158.762 Y95.149 E33.24122
G1 X159.138 Y95.063 E33.26046
G1 X159.458 Y94.934 E33.27767
G1 X159.785 Y94.727 E33.29698
G1 X160.057 Y94.482 E33.31524
G1 X160.282 Y94.194 E33.33348
G1 X160.454 Y93.879 E33.35138
G1 X160.568 Y93.556 E33.36847
G1 X160.627 Y93.209 E33.38603
G1 X160.636 Y92.998 E33.39657
G1 X160.623 Y92.793 E33.40682
G1 X160.567 Y92.468 E33.42327
G1 X160.432 Y92.103 E33.44268
G1 X160.251 Y91.786 E33.46090
G1 X160.018 Y91.507 E33.47903
G1 X159.744 Y91.271 E33.49707
G1 X159.454 Y91.092 E33.51407
G1 X159.115 Y90.956 E33.53230
G1 X158.758 Y90.880 E33.55051
G1 X158.390 Y90.864 E33.56888
G1 X158.008 Y90.917 E33.58813
G1 X157.683 Y91.017 E33.60509
G1 X157.355 Y91.182 E33.62341
G1 X157.047 Y91.417 E33.64274
G1 X156.808 Y91.664 E33.65988
G1 X156.595 Y91.990 E33.67931
G1 X156.449 Y92.320 E33.69731
G1 X156.363 Y92.650 E33.71433
G1 X156.333 Y93.018 E33.73275
G1 X156.370 Y93.404 E33.75209
G1 X156.466 Y93.758 E33.77039
G1 X156.622 Y94.088 E33.78860
G1 X156.827 Y94.384 E33.80657
G1 X157.063 Y94.630 E33.82357
G1 X157.360 Y94.849 E33.84198
G1 X157.706 Y95.018 E33.86120
G1 X158.030 Y95.117 E33.87810
G1 X158.393 Y95.165 E33.89637
G0 F9000 X156.371 Y110.374
G0 X157.359 Y111.818
G0 X156.272 Y134.365
G1 F1800 X155.906 Y134.349 E33.91464
G1 X155.528 Y134.400 E33.93367
G1 X155.179 Y134.510 E33.95193
G1 X154.855 Y134.678 E33.97014
G1 X154.563 Y134.897 E33.98835
G1 X154.319 Y135.157 E34.00614
G1 X154.111 Y135.468 E34.02480
G1 X153.966 Y135.800 E34.04288
G1 X153.879 Y136.135 E34.06014
G1 X153.847 Y136.502 E34.07852
G1 X153.883 Y136.883 E34.09762
G1 X153.978 Y137.234 E34.11576
G1 X154.125 Y137.556 E34.13342
G1 X154.327 Y137.854 E34.15138
G1 X154.593 Y138.127 E34.17039
G1 X154.889 Y138.340 E34.18859
G1 X155.213 Y138.501 E34.20664
G1 X155.546 Y138.604 E34.22403
G1 X155.911 Y138.650 E34.24238
G1 X156.291 Y138.631 E34.26136
G1 X156.647 Y138.551 E34.27957
G1 X156.985 Y138.412 E34.29780
G1 X157.295 Y138.218 E34.31605
G1 X157.567 Y137.973 E34.33431
G1 X157.794 Y137.685 E34.35260
G1 X157.966 Y137.369 E34.37055
G1 X158.081 Y137.043 E34.38780
G1 X158.142 Y136.696 E34.40538
G1 X158.151 Y136.489 E34.41571
G1 X158.139 Y136.283 E34.42601
G1 X158.076 Y135.938 E34.44351
G1 X157.951 Y135.594 E34.46177
G1 X157.772 Y135.282 E34.47971
G1 X157.552 Y135.008 E34.49724
G1 X157.263 Y134.759 E34.51627
G1 X156.951 Y134.570 E34.53447
G1 X156.612 Y134.438 E34.55262
G1 X156.272 Y134.365 E34.56997
G0 F9000 X146.142 Y136.298
G1 F1800 X146.076 Y135.938 E34.58823
G1 X145.952 Y135.597 E34.60633
G1 X145.782 Y135.294 E34.62367
G1 X145.552 Y135.008 E34.64198
G1 X145.263 Y134.759 E34.66101
G1 X144.953 Y134.571 E34.67910
G1 X144.629 Y134.441 E34.69651
G1 X144.272 Y134.365 E34.71472
G1 X143.906 Y134.349 E34.73300
G1 X143.528 Y134.400 E34.75203
G1 X143.179 Y134.510 E34.77029
G1 X142.855 Y134.678 E34.78850
G1 X142.562 Y134.898 E34.80678
G1 X142.314 Y135.165 E34.82496
G1 X142.111 Y135.468 E34.84315
G1 X141.966 Y135.800 E34.86123
G1 X141.879 Y136.135 E34.87849
G1 X141.847 Y136.502 E34.89687
G1 X141.883 Y136.883 E34.91597
G1 X141.978 Y137.235 E34.93416
G1 X142.130 Y137.563 E34.95219
G1 X142.327 Y137.854 E34.96972
G1 X142.593 Y138.127 E34.98874
G1 X142.889 Y138.340 E35.00693
G1 X143.213 Y138.501 E35.02498
G1 X143.546 Y138.604 E35.04237
G1 X143.909 Y138.650 E35.06063
G1 X144.274 Y138.634 E35.07886
G1 X144.647 Y138.552 E35.09791
G1 X144.985 Y138.412 E35.11616
G1 X145.295 Y138.218 E35.13441
G1 X145.565 Y137.975 E35.15253
G1 X145.784 Y137.702 E35.16999
G1 X145.966 Y137.369 E35.18892
G1 X146.081 Y137.043 E35.20617
G1 X146.144 Y136.681 E35.22450
G1 X146.142 Y136.298 E35.24361
G0 F9000 X144.272 Y164.365
G1 F1800 X143.906 Y164.349 E35.26189
G1 X143.528 Y164.400 E35.28092
G1 X143.179 Y164.510 E35.29917
G1 X142.855 Y164.678 E35.31738
G1 X142.562 Y164.898 E35.33566
G1 X142.314 Y165.165 E35.35384
G1 X142.111 Y165.468 E35.37204
G1 X141.966 Y165.800 E35.39011
G1 X141.879 Y166.135 E35.40738
G1 X141.847 Y166.502 E35.42576
G1 X141.883 Y166.883 E35.44485
G1 X141.978 Y167.235 E35.46304
G1 X142.130 Y167.563 E35.48107
G1 X142.327 Y167.854 E35.49861
G1 X142.593 Y168.127 E35.51762
G1 X142.889 Y168.340 E35.53582
G1 X143.213 Y168.501 E35.55387
G1 X143.546 Y168.604 E35.57126
G1 X143.909 Y168.650 E35.58951
G1 X144.274 Y168.634 E35.60774
G1 X144.647 Y168.552 E35.62679
G1 X144.985 Y168.412 E35.64504
G1 X145.295 Y168.218 E35.66329
G1 X145.567 Y167.973 E35.68155
G1 X145.794 Y167.685 E35.69985
G1 X145.966 Y167.369 E35.71780
G1 X146.081 Y167.043 E35.73504
G1 X146.144 Y166.681 E35.75338
G1 X146.142 Y166.298 E35.77248
G1 X146.076 Y165.938 E35.79074
G1 X145.952 Y165.597 E35.80885
G1 X145.783 Y165.295 E35.82611
G1 X145.552 Y165.008 E35.84449
G1 X145.263 Y164.759 E35.86352
G1 X144.953 Y164.571 E35.88161
G1 X144.629 Y164.441 E35.89903
G1 X144.272 Y164.365 E35.91724
G0 F9000 X153.879 Y166.135
G1 F1800 X153.847 Y166.502 E35.93562
G1 X153.883 Y166.883 E35.95471
G1 X153.978 Y167.234 E35.97285
G1 X154.125 Y167.556 E35.99051
G1 X154.327 Y167.854 E36.00847
G1 X154.593 Y168.127 E36.02749
G1 X154.889 Y168.340 E36.04568
G1 X155.213 Y168.501 E36.06373
G1 X155.546 Y168.604 E36.08112
G1 X155.911 Y168.650 E36.09948
G1 X156.291 Y168.631 E36.11846
G1 X156.647 Y168.551 E36.13666
G1 X156.985 Y168.412 E36.15490
G1 X157.295 Y168.218 E36.17314
G1 X157.567 Y167.973 E36.19140
G1 X157.794 Y167.685 E36.20970
G1 X157.966 Y167.369 E36.22765
G1 X158.081 Y167.043 E36.24489
G1 X158.142 Y166.696 E36.26247
G1 X158.151 Y166.489 E36.27281
G1 X158.139 Y166.283 E36.28310
G1 X158.076 Y165.938 E36.30060
G1 X157.951 Y165.594 E36.31886
G1 X157.772 Y165.282 E36.33681
G1 X157.552 Y165.008 E36.35434
G1 X157.263 Y164.759 E36.37337
G1 X156.951 Y164.570 E36.39157
G1 X156.612 Y164.438 E36.40972
G1 X156.272 Y164.365 E36.42707
G1 X155.906 Y164.349 E36.44534
G1 X155.528 Y164.400 E36.46437
G1 X155.179 Y164.510 E36.48263
G1 X154.855 Y164.678 E36.50084
G1 X154.563 Y164.897 E36.51905
G1 X154.319 Y165.157 E36.53684
G1 X154.111 Y165.468 E36.55550
G1 X153.966 Y165.800 E36.57358
G1 X153.879 Y166.135 E36.59084
G0 F9000 X150.272 Y190.865
G1 F1800 X149.906 Y190.849 E36.60912
G1 X149.528 Y190.900 E36.62815
G1 X149.179 Y191.010 E36.64641
G1 X148.855 Y191.178 E36.66462
G1 X148.562 Y191.398 E36.68290
G1 X148.314 Y191.665 E36.70108
G1 X148.111 Y191.968 E36.71927
G1 X147.966 Y192.300 E36.73735
G1 X147.879 Y192.635 E36.75461
G1 X147.847 Y193.002 E36.77299
G1 X147.883 Y193.383 E36.79209
G1 X147.978 Y193.735 E36.81028
G1 X148.130 Y194.063 E36.82831
G1 X148.327 Y194.354 E36.84584
G1 X148.593 Y194.627 E36.86486
G1 X148.889 Y194.840 E36.88305
G1 X149.213 Y195.001 E36.90110
G1 X149.546 Y195.104 E36.91849
G1 X149.911 Y195.150 E36.93685
G1 X150.291 Y195.131 E36.95583
G1 X150.647 Y195.051 E36.97403
G1 X150.985 Y194.912 E36.99227
G1 X151.295 Y194.718 E37.01051
G1 X151.567 Y194.473 E37.02877
G1 X151.794 Y194.185 E37.04707
G1 X151.966 Y193.869 E37.06502
G1 X152.081 Y193.543 E37.08226
G1 X152.142 Y193.196 E37.09984
G1 X152.151 Y192.989 E37.11018
G1 X152.139 Y192.783 E37.12047
G1 X152.076 Y192.438 E37.13797
G1 X151.951 Y192.094 E37.15623
G1 X151.772 Y191.782 E37.17418
G1 X151.552 Y191.508 E37.19171
G1 X151.263 Y191.259 E37.21074
G1 X150.951 Y191.070 E37.22894
G1 X150.612 Y190.938 E37.24709
G1 X150.272 Y190.865 E37.26444
G0 F9000 X151.771 Y191.783
G0 X152.080 Y193.542
G0 X150.984 Y194.911
G0 X149.805 Y196.901
G1 F1800 X149.030 Y197.000 E37.30342
G1 X148.284 Y197.229 E37.34235
G1 X147.586 Y197.580 E37.38133
G1 X146.959 Y198.045 E37.42027
G1 X146.419 Y198.609 E37.45923
G1 X145.981 Y199.255 E37.49817
G1 X145.660 Y199.967 E37.53713
G1 X145.463 Y200.722 E37.57606
G1 X145.398 Y201.500 E37.61501
G1 X145.463 Y202.277 E37.65391
G1 X145.660 Y203.032 E37.69284
G1 X145.981 Y203.744 E37.73180
G1 X146.419 Y204.390 E37.77074
G1 X146.959 Y204.954 E37.80970
G1 X147.586 Y205.419 E37.84864
G1 X148.284 Y205.770 E37.88762
G1 X149.030 Y205.999 E37.92655
G1 X149.805 Y206.098 E37.96553
G1 X150.585 Y206.064 E38.00448
G1 X151.347 Y205.900 E38.04337
G1 X152.071 Y205.609 E38.08230
G1 X152.736 Y205.199 E38.12127
G1 X153.179 Y204.810 E38.15069
G1 X153.353 Y204.645 E38.16265
G1 X153.813 Y204.076 E38.19915
G1 X154.193 Y203.395 E38.23806
G1 X154.453 Y202.659 E38.27700
G1 X154.583 Y201.903 E38.31527
G1 X154.601 Y201.476 E38.33660
G1 X154.576 Y201.053 E38.35774
G1 X154.453 Y200.340 E38.39383
G1 X154.193 Y199.604 E38.43278
G1 X153.813 Y198.922 E38.47173
G1 X153.314 Y198.309 E38.51116
G1 X152.736 Y197.800 E38.54959
G1 X152.071 Y197.390 E38.58856
G1 X151.347 Y197.099 E38.62749
G1 X150.585 Y196.935 E38.66638
G1 X149.805 Y196.901 E38.70533
G0 F9000 X147.586 Y197.581
G0 X143.451 Y200.594
G1 F1800 X143.272 Y200.282 E38.72327
G1 X143.052 Y200.008 E38.74081
G1 X142.763 Y199.759 E38.75984
G1 X142.451 Y199.570 E38.77804
G1 X142.112 Y199.438 E38.79619
G1 X141.772 Y199.365 E38.81354
G1 X141.407 Y199.349 E38.83176
G1 X141.083 Y199.392 E38.84807
G1 X140.686 Y199.507 E38.86869
G1 X140.355 Y199.678 E38.88728
G1 X140.062 Y199.898 E38.90556
G1 X139.814 Y200.165 E38.92374
G1 X139.611 Y200.468 E38.94193
G1 X139.466 Y200.800 E38.96001
G1 X139.379 Y201.135 E38.97727
G1 X139.347 Y201.502 E38.99565
G1 X139.383 Y201.883 E39.01475
G1 X139.478 Y202.235 E39.03294
G1 X139.630 Y202.563 E39.05097
G1 X139.827 Y202.854 E39.06850
G1 X140.093 Y203.127 E39.08752
G1 X140.389 Y203.340 E39.10571
G1 X140.713 Y203.501 E39.12376
G1 X141.046 Y203.604 E39.14115
G1 X141.411 Y203.650 E39.15951
G1 X141.791 Y203.631 E39.17849
G1 X142.147 Y203.551 E39.19669
