;Generated with Cura_SteamEngine 15.01
; Default start code
G28 ; Home extruder
G1 Z15 F2000
M107 ; Turn off fan
G90 ; Absolute positioning
M82 ; Extruder in absolute mode
M104 T0 S180
M190 S50
; Activate all used extruder
G92 E0 ; Reset extruder position
; Wait for all used extruders to reach temperature
M109 T0 S210 R210
;Layer count: 100
;LAYER:0
M107
G0 F9000 X60.461 Y64.399 Z0.300
;TYPE:SKIRT
G1 F1800 X64.399 Y60.461 E0.27785
G1 X68.727 Y56.956 E0.55570
G1 X73.081 Y54.129 E0.81469
G1 X73.394 Y53.925 E0.83333
G1 X78.053 Y51.551 E1.09421
G1 X78.444 Y51.362 E1.11587
G1 X83.261 Y49.514 E1.37327
G1 X83.554 Y49.401 E1.38894
G1 X88.564 Y48.058 E1.64771
G1 X88.933 Y47.958 E1.66679
G1 X94.065 Y47.145 E1.92602
G1 X94.065 Y47.146 E1.92607
G1 X94.437 Y47.086 E1.94487
G1 X100.000 Y46.796 E2.22278
G1 X105.561 Y47.086 E2.50060
G1 X110.690 Y47.899 E2.75968
G1 X111.063 Y47.958 E2.77852
G1 X116.079 Y49.302 E3.03760
G1 X116.444 Y49.401 E3.05646
G1 X121.284 Y51.258 E3.31510
G1 X121.638 Y51.394 E3.33402
G1 X126.270 Y53.753 E3.59335
G1 X126.606 Y53.926 E3.61221
G1 X130.960 Y56.753 E3.87120
G1 X131.276 Y56.959 E3.89002
G1 X135.600 Y60.461 E4.16762
G1 X139.538 Y64.399 E4.44547
G1 X143.043 Y68.727 E4.72332
G1 X145.865 Y73.074 E4.98188
G1 X146.074 Y73.394 E5.00095
G1 X148.428 Y78.015 E5.25968
G1 X148.603 Y78.355 E5.27876
G1 X150.575 Y83.495 E5.55342
G1 X151.941 Y88.564 E5.81534
G1 X152.041 Y88.933 E5.83441
G1 X152.854 Y94.065 E6.09364
G1 X152.853 Y94.065 E6.09369
G1 X152.913 Y94.436 E6.11244
G1 X153.204 Y100.000 E6.39041
G1 X152.913 Y105.561 E6.66823
G1 X152.100 Y110.690 E6.92731
G1 X152.041 Y111.063 E6.94615
G1 X150.697 Y116.079 E7.20523
G1 X150.598 Y116.444 E7.22409
G1 X148.740 Y121.287 E7.48288
G1 X148.605 Y121.638 E7.50164
G1 X146.246 Y126.270 E7.76098
G1 X146.073 Y126.606 E7.77983
G1 X143.246 Y130.960 E8.03883
G1 X143.040 Y131.276 E8.05765
G1 X139.538 Y135.600 E8.33525
G1 X135.600 Y139.538 E8.61310
G1 X131.272 Y143.042 E8.89092
G1 X126.919 Y145.870 E9.14989
G1 X126.606 Y146.074 E9.16853
G1 X121.975 Y148.433 E9.42782
G1 X121.644 Y148.603 E9.44639
G1 X116.791 Y150.465 E9.70572
G1 X116.439 Y150.600 E9.72452
G1 X111.435 Y151.941 E9.98298
G1 X111.066 Y152.041 E10.00206
G1 X105.934 Y152.854 E10.26129
G1 X105.934 Y152.853 E10.26134
G1 X105.563 Y152.913 E10.28009
G1 X100.000 Y153.204 E10.55800
G1 X94.438 Y152.913 E10.83587
G1 X89.309 Y152.100 E11.09495
G1 X88.936 Y152.041 E11.11380
G1 X83.768 Y150.656 E11.38073
G1 X78.421 Y148.629 E11.66601
G1 X73.732 Y146.247 E11.92840
G1 X73.394 Y146.073 E11.94737
G1 X69.040 Y143.246 E12.20636
G1 X68.723 Y143.040 E12.22522
G1 X64.399 Y139.538 E12.50283
G1 X60.461 Y135.600 E12.78067
G1 X56.957 Y131.272 E13.05849
G1 X54.129 Y126.919 E13.31747
G1 X53.925 Y126.606 E13.33611
G1 X51.566 Y121.975 E13.59540
G1 X51.396 Y121.644 E13.61397
G1 X49.534 Y116.791 E13.87329
G1 X49.399 Y116.439 E13.89210
G1 X48.056 Y111.426 E14.15102
G1 X47.958 Y111.066 E14.16963
G1 X47.145 Y105.934 E14.42886
G1 X47.146 Y105.934 E14.42891
G1 X47.086 Y105.562 E14.44771
G1 X46.796 Y100.000 E14.72558
G1 X47.086 Y94.438 E15.00345
G1 X47.899 Y89.309 E15.26253
G1 X47.958 Y88.936 E15.28137
G1 X49.302 Y83.920 E15.54044
G1 X49.401 Y83.555 E15.55931
G1 X51.341 Y78.498 E15.82953
G1 X53.751 Y73.734 E16.09589
G1 X53.926 Y73.394 E16.11497
G1 X56.753 Y69.040 E16.37396
G1 X56.959 Y68.723 E16.39283
G1 X60.461 Y64.399 E16.67043
G1 F2400 E12.67043
G0 F9000 X63.291 Y66.942
;TYPE:WALL-INNER
G1 F2400 E16.67043
G1 F1800 X66.942 Y63.291 E16.92803
G1 X70.964 Y60.035 E17.18619
G1 X75.151 Y57.316 E17.43527
G1 X75.297 Y57.220 E17.44398
G1 X79.748 Y54.953 E17.69319
G1 X79.953 Y54.853 E17.70457
G1 X84.623 Y53.062 E17.95410
G1 X89.557 Y51.726 E18.20912
G1 X94.841 Y50.870 E18.47618
G1 X100.000 Y50.601 E18.73391
G1 X105.158 Y50.870 E18.99160
G1 X110.270 Y51.680 E19.24982
G1 X115.092 Y52.972 E19.49887
G1 X115.264 Y53.018 E19.50776
G1 X120.089 Y54.870 E19.76560
G1 X124.539 Y57.136 E20.01474
G1 X124.701 Y57.219 E20.02382
G1 X128.886 Y59.937 E20.27278
G1 X129.032 Y60.032 E20.28147
G1 X133.057 Y63.291 E20.53985
G1 X136.708 Y66.942 E20.79745
G1 X139.964 Y70.964 E21.05562
G1 X142.683 Y75.151 E21.30469
G1 X142.779 Y75.297 E21.31341
G1 X145.047 Y79.749 E21.56268
G1 X145.129 Y79.911 E21.57174
G1 X146.958 Y84.675 E21.82633
G1 X148.318 Y89.722 E22.08710
G1 X149.129 Y94.842 E22.34573
G1 X149.399 Y100.000 E22.60341
G1 X149.129 Y105.157 E22.86105
G1 X148.319 Y110.270 E23.11932
G1 X147.028 Y115.090 E23.36827
G1 X146.981 Y115.264 E23.37726
G1 X145.129 Y120.089 E23.63510
G1 X142.863 Y124.539 E23.88424
G1 X142.780 Y124.701 E23.89332
G1 X140.063 Y128.885 E24.14221
G1 X139.967 Y129.032 E24.15097
G1 X136.708 Y133.057 E24.40935
G1 X133.057 Y136.708 E24.66695
G1 X129.035 Y139.964 E24.92512
G1 X124.849 Y142.683 E25.17415
G1 X124.703 Y142.779 E25.18286
G1 X120.250 Y145.047 E25.43218
G1 X120.088 Y145.129 E25.44124
G1 X115.269 Y146.979 E25.69877
G1 X110.442 Y148.273 E25.94809
G1 X105.157 Y149.129 E26.21520
G1 X100.000 Y149.399 E26.47283
G1 X94.842 Y149.129 E26.73052
G1 X89.729 Y148.319 E26.98879
G1 X84.934 Y147.034 E27.23645
G1 X79.961 Y145.149 E27.50178
G1 X75.459 Y142.862 E27.75371
G1 X75.299 Y142.780 E27.76268
G1 X71.113 Y140.062 E28.01168
G1 X70.967 Y139.967 E28.02037
G1 X66.942 Y136.708 E28.27875
G1 X63.291 Y133.057 E28.53635
G1 X60.035 Y129.035 E28.79452
G1 X57.316 Y124.849 E29.04355
G1 X57.220 Y124.703 E29.05226
G1 X54.952 Y120.250 E29.30158
G1 X54.870 Y120.088 E29.31064
G1 X53.020 Y115.269 E29.56817
G1 X51.726 Y110.442 E29.81749
G1 X50.870 Y105.158 E30.08455
G1 X50.601 Y100.000 E30.34223
G1 X50.870 Y94.841 E30.59996
G1 X51.680 Y89.729 E30.85818
G1 X52.971 Y84.909 E31.10713
G1 X53.018 Y84.735 E31.11612
G1 X54.820 Y80.039 E31.36706
G1 X57.136 Y75.461 E31.62303
G1 X57.219 Y75.299 E31.63211
G1 X59.936 Y71.114 E31.88104
G1 X60.032 Y70.967 E31.88980
G1 X63.291 Y66.942 E32.14818
G0 F9000 X95.589 Y97.444
G1 F1800 X95.589 Y102.545 E32.40267
G1 X99.672 Y104.904 E32.63793
G1 X100.026 Y105.084 E32.65774
G1 X104.066 Y102.743 E32.89069
G1 X104.410 Y102.539 E32.91064
G1 X104.410 Y97.454 E33.16433
G1 X100.326 Y95.095 E33.39963
G1 X100.161 Y94.995 E33.40926
G1 X99.814 Y95.014 E33.42660
G1 X95.919 Y97.263 E33.65099
G1 X95.589 Y97.444 E33.66976
G0 F9000 X96.124 Y97.606
;TYPE:WALL-OUTER
G1 F1800 X95.989 Y97.681 E33.67747
G1 X95.989 Y102.314 E33.90861
G1 X99.868 Y104.555 E34.13211
G1 X100.009 Y104.628 E34.14003
G1 X103.869 Y102.396 E34.36248
G1 X104.010 Y102.312 E34.37067
G1 X104.010 Y97.685 E34.60151
G1 X100.130 Y95.444 E34.82506
G1 X100.059 Y95.401 E34.82920
G1 X99.931 Y95.408 E34.83559
G1 X96.124 Y97.606 E35.05491
G0 F9000 X95.981 Y97.343
G0 X57.042 Y75.424
G0 X56.780 Y75.278
G1 F1800 X56.870 Y75.103 E35.06473
G1 X59.714 Y70.724 E35.32523
G1 X62.993 Y66.674 E35.58520
G1 X66.674 Y62.993 E35.84492
G1 X70.724 Y59.714 E36.10489
G1 X75.103 Y56.870 E36.36540
G1 X79.563 Y54.598 E36.61511
G1 X79.791 Y54.488 E36.62774
G1 X84.615 Y52.636 E36.88554
G1 X89.641 Y51.289 E37.14514
G1 X94.795 Y50.472 E37.40548
G1 X100.000 Y50.201 E37.66551
G1 X105.204 Y50.472 E37.92549
G1 X110.358 Y51.289 E38.18584
G1 X115.384 Y52.636 E38.44544
G1 X120.259 Y54.507 E38.70595
G1 X124.897 Y56.870 E38.96564
G1 X129.275 Y59.714 E39.22610
G1 X133.325 Y62.993 E39.48608
G1 X137.006 Y66.674 E39.74579
G1 X140.285 Y70.724 E40.00577
G1 X143.129 Y75.103 E40.26627
G1 X145.492 Y79.740 E40.52592
G1 X147.339 Y84.554 E40.78316
G1 X148.710 Y89.641 E41.04601
G1 X149.527 Y94.796 E41.30640
G1 X149.799 Y100.000 E41.56638
G1 X149.527 Y105.203 E41.82632
G1 X148.710 Y110.358 E42.08671
G1 X147.363 Y115.384 E42.34631
G1 X145.492 Y120.259 E42.60682
G1 X143.129 Y124.897 E42.86651
G1 X140.285 Y129.275 E43.12697
G1 X137.006 Y133.325 E43.38695
G1 X133.325 Y137.006 E43.64666
G1 X129.275 Y140.285 E43.90664
G1 X124.897 Y143.129 E44.16710
G1 X120.259 Y145.492 E44.42679
G1 X115.384 Y147.363 E44.68730
G1 X110.358 Y148.710 E44.94690
G1 X105.203 Y149.527 E45.20729
G1 X100.000 Y149.799 E45.46723
G1 X94.796 Y149.527 E45.72721
G1 X89.641 Y148.710 E45.98760
G1 X84.815 Y147.417 E46.23687
G1 X79.797 Y145.514 E46.50461
G1 X75.103 Y143.129 E46.76729
G1 X70.724 Y140.285 E47.02779
G1 X66.674 Y137.006 E47.28777
G1 X62.993 Y133.325 E47.54749
G1 X59.714 Y129.275 E47.80746
G1 X56.870 Y124.897 E48.06792
G1 X54.507 Y120.259 E48.32761
G1 X52.636 Y115.384 E48.58813
G1 X51.289 Y110.358 E48.84772
G1 X50.472 Y105.204 E49.10807
G1 X50.201 Y100.000 E49.36805
G1 X50.472 Y94.795 E49.62808
G1 X51.289 Y89.641 E49.88842
G1 X52.636 Y84.615 E50.14802
G1 X54.457 Y79.869 E50.40163
G1 X56.780 Y75.278 E50.65833
G0 F9000 X57.175 Y75.560
;TYPE:SKIN
G1 F1800 X124.438 Y142.822 E55.40406
G0 F9000 X124.800 Y142.619
G1 F1800 X57.378 Y75.197 E60.16105
G0 F9000 X57.601 Y74.855
G1 F1800 X125.143 Y142.396 E64.92646
G0 F9000 X125.485 Y142.173
G1 F1800 X57.824 Y74.512 E69.70031
G0 F9000 X58.047 Y74.169
G1 F1800 X125.828 Y141.950 E74.48263
G0 F9000 X126.171 Y141.727
G1 F1800 X58.269 Y73.826 E79.27345
G0 F9000 X58.492 Y73.483
G1 F1800 X126.514 Y141.504 E84.07273
G0 F9000 X126.857 Y141.282
G1 F1800 X58.715 Y73.140 E88.88052
G0 F9000 X58.938 Y72.797
G1 F1800 X127.200 Y141.059 E93.69677
G0 F9000 X127.542 Y140.836
G1 F1800 X59.160 Y72.454 E98.52149
G0 F9000 X59.383 Y72.111
G1 F1800 X127.885 Y140.613 E103.35468
G0 F9000 X128.228 Y140.391
G1 F1800 X59.606 Y71.768 E108.19636
G0 F9000 X59.829 Y71.425
G1 F1800 X128.571 Y140.168 E113.04652
G0 F9000 X124.063 Y143.013
G1 F1800 X56.985 Y75.935 E117.77923
G0 F9000 X56.794 Y76.310
G1 F1800 X123.688 Y143.204 E122.49897
G0 F9000 X123.313 Y143.395
G1 F1800 X56.605 Y76.687 E127.20558
G0 F9000 X56.415 Y77.062
G1 F1800 X122.938 Y143.586 E131.89917
G0 F9000 X122.564 Y143.777
G1 F1800 X56.224 Y77.438 E136.57978
G0 F9000 X56.034 Y77.813
G1 F1800 X122.189 Y143.968 E141.24737
G0 F9000 X121.813 Y144.158
G1 F1800 X55.844 Y78.189 E145.90184
G0 F9000 X55.654 Y78.564
G1 F1800 X121.439 Y144.349 E150.54333
G0 F9000 X121.064 Y144.540
G1 F1800 X55.464 Y78.939 E155.17180
G0 F9000 X55.273 Y79.315
G1 F1800 X120.689 Y144.731 E159.78725
G0 F9000 X120.314 Y144.922
G1 F1800 X55.083 Y79.690 E164.38968
G0 F9000 X54.894 Y80.067
G1 F1800 X119.929 Y145.102 E168.97825
G0 F9000 X119.520 Y145.259
G1 F1800 X54.737 Y80.475 E173.54908
G0 F9000 X54.580 Y80.885
G1 F1800 X119.112 Y145.416 E178.10213
G0 F9000 X118.703 Y145.573
G1 F1800 X54.423 Y81.293 E182.63743
G0 F9000 X54.266 Y81.702
G1 F1800 X118.294 Y145.729 E187.15491
G0 F9000 X117.885 Y145.886
G1 F1800 X54.109 Y82.111 E191.65462
G0 F9000 X53.952 Y82.520
G1 F1800 X117.476 Y146.043 E196.13654
G0 F9000 X117.067 Y146.200
G1 F1800 X53.795 Y82.928 E200.60073
G0 F9000 X53.639 Y83.338
G1 F1800 X116.659 Y146.357 E205.04709
G0 F9000 X116.250 Y146.514
G1 F1800 X53.482 Y83.746 E209.47571
G0 F9000 X53.325 Y84.155
G1 F1800 X115.841 Y146.671 E213.88655
G0 F9000 X115.433 Y146.828
G1 F1800 X53.168 Y84.564 E218.27965
G0 F9000 X53.030 Y84.992
G1 F1800 X115.004 Y146.965 E222.65222
G0 F9000 X114.558 Y147.085
G1 F1800 X52.911 Y85.438 E227.00175
G0 F9000 X52.791 Y85.884
G1 F1800 X114.112 Y147.204 E231.32824
G0 F9000 X113.666 Y147.324
G1 F1800 X52.672 Y86.330 E235.63169
G0 F9000 X52.552 Y86.776
G1 F1800 X113.219 Y147.443 E239.91208
G0 F9000 X112.773 Y147.563
G1 F1800 X52.433 Y87.223 E244.16939
G0 F9000 X52.313 Y87.669
G1 F1800 X112.327 Y147.682 E248.40367
G0 F9000 X111.881 Y147.802
G1 F1800 X52.194 Y88.115 E252.61491
G0 F9000 X52.074 Y88.560
G1 F1800 X111.435 Y147.921 E256.80315
G0 F9000 X110.988 Y148.041
G1 F1800 X51.954 Y89.007 E260.96832
G0 F9000 X51.835 Y89.453
G1 F1800 X110.542 Y148.160 E265.11041
G0 F9000 X110.067 Y148.251
G1 F1800 X51.730 Y89.914 E269.22640
G0 F9000 X51.653 Y90.402
G1 F1800 X109.580 Y148.329 E273.31346
G0 F9000 X109.093 Y148.408
G1 F1800 X51.575 Y90.890 E277.37167
G0 F9000 X51.498 Y91.379
G1 F1800 X108.606 Y148.487 E281.40095
G0 F9000 X108.120 Y148.566
G1 F1800 X51.421 Y91.868 E285.40133
G0 F9000 X51.343 Y92.355
G1 F1800 X107.632 Y148.645 E289.37286
G0 F9000 X107.146 Y148.724
G1 F1800 X51.266 Y92.844 E293.31550
G0 F9000 X51.188 Y93.332
G1 F1800 X106.659 Y148.803 E297.22928
G0 F9000 X106.172 Y148.882
G1 F1800 X51.111 Y93.821 E301.11413
G0 F9000 X51.034 Y94.308
G1 F1800 X105.686 Y148.961 E304.97016
G0 F9000 X105.199 Y149.039
G1 F1800 X50.956 Y94.797 E308.79726
G0 F9000 X50.923 Y95.330
G1 F1800 X104.666 Y149.072 E312.58908
G0 F9000 X104.128 Y149.100
G1 F1800 X50.896 Y95.868 E316.34489
G0 F9000 X50.867 Y96.405
G1 F1800 X103.591 Y149.128 E320.06481
G0 F9000 X103.053 Y149.157
G1 F1800 X50.840 Y96.943 E323.74876
G0 F9000 X50.811 Y97.481
G1 F1800 X102.516 Y149.185 E327.39679
G0 F9000 X101.978 Y149.213
G1 F1800 X50.784 Y98.019 E331.00880
G0 F9000 X50.756 Y98.556
G1 F1800 X101.441 Y149.241 E334.58490
G0 F9000 X100.903 Y149.269
G1 F1800 X50.728 Y99.094 E338.12502
G0 F9000 X50.700 Y99.632
G1 F1800 X100.366 Y149.297 E341.62919
G0 F9000 X99.810 Y149.307
G1 F1800 X50.691 Y100.189 E345.09477
G0 F9000 X50.722 Y100.786
G1 F1800 X99.212 Y149.275 E348.51596
G0 F9000 X98.615 Y149.244
G1 F1800 X50.754 Y101.382 E351.89285
G0 F9000 X50.785 Y101.979
G1 F1800 X98.019 Y149.213 E355.22546
G0 F9000 X97.422 Y149.182
G1 F1800 X50.816 Y102.576 E358.51377
G0 F9000 X50.847 Y103.173
G1 F1800 X96.825 Y149.151 E361.75776
G0 F9000 X96.228 Y149.120
G1 F1800 X50.878 Y103.770 E364.95745
G0 F9000 X50.909 Y104.366
G1 F1800 X95.631 Y149.089 E368.11287
G0 F9000 X95.035 Y149.058
G1 F1800 X50.940 Y104.963 E371.22401
G0 F9000 X51.025 Y105.614
G1 F1800 X94.386 Y148.974 E374.28332
G0 F9000 X93.714 Y148.868
G1 F1800 X51.134 Y106.288 E377.28757
G0 F9000 X51.244 Y106.964
G1 F1800 X93.041 Y148.761 E380.23658
G0 F9000 X92.370 Y148.655
G1 F1800 X51.352 Y107.638 E383.13058
G0 F9000 X51.462 Y108.313
G1 F1800 X91.697 Y148.548 E385.96938
G0 F9000 X91.025 Y148.442
G1 F1800 X51.571 Y108.988 E388.75307
G0 F9000 X51.681 Y109.663
G1 F1800 X90.353 Y148.336 E391.48163
G0 F9000 X89.672 Y148.220
G1 F1800 X51.790 Y110.339 E394.15437
G0 F9000 X51.985 Y111.099
G1 F1800 X88.899 Y148.013 E396.75885
G0 F9000 X88.126 Y147.806
G1 F1800 X52.192 Y111.872 E399.29419
G0 F9000 X52.399 Y112.644
G1 F1800 X87.353 Y147.598 E401.76038
G0 F9000 X86.580 Y147.391
G1 F1800 X52.605 Y113.417 E404.15747
G0 F9000 X52.813 Y114.189
G1 F1800 X85.807 Y147.184 E406.48541
G0 F9000 X85.034 Y146.977
G1 F1800 X53.020 Y114.962 E408.74420
G0 F9000 X53.320 Y115.829
G1 F1800 X84.137 Y146.645 E410.91847
G0 F9000 X83.225 Y146.299
G1 F1800 X53.672 Y116.746 E413.00360
G0 F9000 X54.025 Y117.665
G1 F1800 X82.315 Y145.954 E414.99958
G0 F9000 X81.404 Y145.609
G1 F1800 X54.377 Y118.583 E416.90644
G0 F9000 X54.730 Y119.501
G1 F1800 X80.492 Y145.263 E418.72409
G0 F9000 X79.473 Y144.810
G1 F1800 X55.175 Y120.512 E420.43844
G0 F9000 X55.762 Y121.664
G1 F1800 X78.324 Y144.226 E422.03032
G0 F9000 X77.173 Y143.641
G1 F1800 X56.350 Y122.818 E423.49949
G0 F9000 X56.937 Y123.971
G1 F1800 X76.023 Y143.056 E424.84608
G0 F9000 X74.684 Y142.284
G1 F1800 X57.711 Y125.310 E426.04365
G0 F9000 X58.761 Y126.926
G1 F1800 X73.071 Y141.236 E427.05330
G0 F9000 X71.458 Y140.188
G1 F1800 X59.811 Y128.542 E427.87502
G0 F9000 X61.838 Y131.135
G1 F1800 X68.863 Y138.160 E428.37067
G0 F9000 X95.532 Y102.604
G1 F1800 X131.108 Y138.179 E430.88071
G0 F9000 X130.796 Y138.433
G1 F1800 X61.563 Y69.200 E435.76548
G0 F9000 X61.310 Y69.512
G1 F1800 X130.483 Y138.686 E440.64604
G0 F9000 X130.171 Y138.939
G1 F1800 X61.057 Y69.825 E445.52241
G0 F9000 X60.804 Y70.137
G1 F1800 X129.858 Y139.192 E450.39457
G0 F9000 X129.546 Y139.445
G1 F1800 X60.551 Y70.451 E455.26251
G0 F9000 X60.298 Y70.763
G1 F1800 X129.233 Y139.698 E460.12625
G0 F9000 X128.914 Y139.944
G1 F1800 X60.051 Y71.082 E464.98487
G0 F9000 X61.816 Y68.887
G1 F1800 X95.508 Y102.579 E467.36202
G0 F9000 X95.508 Y102.014
G1 F1800 X62.069 Y68.575 E469.72132
G0 F9000 X62.322 Y68.262
G1 F1800 X95.508 Y101.448 E472.06277
G0 F9000 X95.508 Y100.882
G1 F1800 X62.576 Y67.950 E474.38630
G0 F9000 X62.829 Y67.637
G1 F1800 X95.508 Y100.317 E476.69202
G0 F9000 X95.616 Y102.529
G0 X96.872 Y103.377
G1 F1800 X131.421 Y137.926 E479.12964
G0 F9000 X131.733 Y137.673
G1 F1800 X98.212 Y104.151 E481.49476
G0 F9000 X99.552 Y104.926
G1 F1800 X132.047 Y137.421 E483.78746
