;Generated with Cura_SteamEngine 15.01
; Default start code
G28 ; Home extruder
G1 Z15 F2000
M107 ; Turn off fan
G90 ; Absolute positioning
M82 ; Extruder in absolute mode
M104 T0 S180
M190 S50
; Activate all used extruder
G92 E0 ; Reset extruder position
; Wait for all used extruders to reach temperature
M109 T0 S210 R210
;Layer count: 35
;LAYER:0
M107
G0 F9000 X71.800 Y8.807 Z0.300
;TYPE:SKIRT
G1 F1800 X128.200 Y8.807 E2.81381
G1 X128.200 Y22.103 E3.47715
G1 X127.470 Y34.250 E4.08426
G1 X127.420 Y35.088 E4.12614
G1 X119.197 Y172.142 E10.97609
G1 X119.141 Y173.464 E11.04210
G1 X119.127 Y173.723 E11.05504
G1 X118.648 Y176.517 E11.19647
G1 X118.586 Y176.862 E11.21396
G1 X117.622 Y179.589 E11.35826
G1 X117.507 Y179.918 E11.37565
G1 X117.003 Y180.819 E11.42715
G1 X116.261 Y182.148 E11.50309
G1 X115.918 Y182.763 E11.53822
G1 X114.090 Y185.027 E11.68339
G1 X113.873 Y185.297 E11.70068
G1 X111.689 Y187.220 E11.84585
G1 X111.425 Y187.452 E11.86339
G1 X108.944 Y188.980 E12.00876
G1 X108.644 Y189.164 E12.02632
G1 X107.826 Y189.492 E12.07028
G1 X106.960 Y189.840 E12.11685
G1 X105.624 Y190.376 E12.18866
G1 X102.807 Y190.983 E12.33243
G1 X102.452 Y191.062 E12.35058
G1 X99.562 Y191.184 E12.49489
G1 X99.198 Y191.202 E12.51307
G1 X96.297 Y190.832 E12.65897
G1 X95.950 Y190.787 E12.67643
G1 X95.081 Y190.521 E12.72177
G1 X92.839 Y189.834 E12.83876
G1 X91.963 Y189.394 E12.88766
G1 X89.926 Y188.365 E13.00152
G1 X87.584 Y186.633 E13.14684
G1 X87.303 Y186.423 E13.16435
G1 X85.642 Y184.692 E13.28403
G1 X85.052 Y184.075 E13.32662
G1 X83.904 Y182.376 E13.42892
G1 X83.228 Y181.378 E13.48906
G1 X82.028 Y178.725 E13.63433
G1 X81.884 Y178.405 E13.65184
G1 X81.153 Y175.592 E13.79684
G1 X81.065 Y175.258 E13.81407
G1 X80.815 Y172.320 E13.96118
G1 X80.754 Y171.337 E14.01031
G1 X75.180 Y78.441 E18.65325
G1 X72.530 Y34.249 E20.86196
G1 X72.496 Y33.701 E20.88935
G1 X71.800 Y22.103 E21.46902
G1 X71.800 Y8.807 E22.13236
G1 F2400 E18.13236
G0 F9000 X75.600 Y12.607
;TYPE:WALL-INNER
G1 F2400 E22.13236
G1 F1800 X124.400 Y12.607 E24.56700
G1 X124.400 Y21.988 E25.03502
G1 X115.401 Y171.976 E32.53141
G1 X115.346 Y173.276 E32.59632
G1 X115.345 Y173.300 E32.59752
G1 X114.907 Y175.854 E32.72680
G1 X114.039 Y178.324 E32.85742
G1 X114.031 Y178.347 E32.85863
G1 X112.943 Y180.295 E32.96995
G1 X112.758 Y180.628 E32.98896
G1 X111.133 Y182.641 E33.11802
G1 X109.160 Y184.384 E33.24937
G1 X106.957 Y185.741 E33.37845
G1 X106.932 Y185.756 E33.37991
G1 X104.511 Y186.728 E33.51006
G1 X101.979 Y187.274 E33.63929
G1 X99.370 Y187.389 E33.76958
G1 X99.344 Y187.390 E33.77088
G1 X96.783 Y187.063 E33.89968
G1 X96.759 Y187.060 E33.90089
G1 X94.254 Y186.293 E34.03159
G1 X93.673 Y186.000 E34.06405
G1 X91.925 Y185.117 E34.16176
G1 X89.851 Y183.583 E34.29046
G1 X88.020 Y181.680 E34.42221
G1 X86.557 Y179.518 E34.55245
G1 X85.481 Y177.137 E34.68280
G1 X84.830 Y174.635 E34.81178
G1 X84.605 Y172.034 E34.94203
G1 X84.547 Y171.104 E34.98852
G1 X75.600 Y21.988 E42.44133
G1 X75.600 Y12.607 E42.90935
G0 F9000 X81.970 Y14.790
G1 F1800 X81.879 Y15.143 E42.92753
G1 X81.847 Y15.508 E42.94581
G1 X81.881 Y15.885 E42.96470
G1 X81.975 Y16.235 E42.98278
G1 X82.124 Y16.563 E43.00075
G1 X82.334 Y16.867 E43.01918
G1 X82.578 Y17.123 E43.03683
G1 X82.882 Y17.345 E43.05561
G1 X83.197 Y17.504 E43.07321
G1 X83.546 Y17.611 E43.09142
G1 X83.911 Y17.657 E43.10978
G1 X84.285 Y17.639 E43.12846
G1 X84.642 Y17.561 E43.14669
G1 X84.980 Y17.422 E43.16492
G1 X85.287 Y17.230 E43.18299
G1 X85.555 Y16.995 E43.20077
G1 X85.790 Y16.700 E43.21959
G1 X85.965 Y16.381 E43.23774
G1 X86.082 Y16.049 E43.25530
G1 X86.142 Y15.703 E43.27282
G1 X86.151 Y15.504 E43.28276
G1 X86.140 Y15.296 E43.29315
G1 X86.077 Y14.951 E43.31065
G1 X85.955 Y14.610 E43.32872
G1 X85.782 Y14.300 E43.34643
G1 X85.544 Y14.008 E43.36522
G1 X85.267 Y13.769 E43.38348
G1 X84.955 Y13.581 E43.40165
G1 X84.619 Y13.447 E43.41970
G1 X84.273 Y13.372 E43.43736
G1 X83.908 Y13.356 E43.45559
G1 X83.537 Y13.405 E43.47426
G1 X83.186 Y13.514 E43.49259
G1 X82.870 Y13.675 E43.51029
G1 X82.567 Y13.900 E43.52911
G1 X82.320 Y14.163 E43.54711
G1 X82.116 Y14.467 E43.56538
G1 X81.970 Y14.790 E43.58306
G0 F9000 X82.125 Y16.562
G0 X83.547 Y17.610
G0 X85.286 Y17.229
G0 X89.970 Y17.790
G1 F1800 X89.879 Y18.143 E43.60125
G1 X89.847 Y18.508 E43.61953
G1 X89.881 Y18.885 E43.63842
G1 X89.975 Y19.236 E43.65654
G1 X90.127 Y19.569 E43.67481
G1 X90.334 Y19.867 E43.69291
G1 X90.578 Y20.123 E43.71055
G1 X90.884 Y20.346 E43.72944
G1 X91.209 Y20.507 E43.74754
G1 X91.546 Y20.611 E43.76513
G1 X91.911 Y20.657 E43.78349
G1 X92.285 Y20.639 E43.80217
G1 X92.642 Y20.561 E43.82040
G1 X92.980 Y20.422 E43.83863
G1 X93.287 Y20.230 E43.85670
G1 X93.553 Y19.996 E43.87437
G1 X93.784 Y19.711 E43.89267
G1 X93.965 Y19.381 E43.91145
G1 X94.082 Y19.049 E43.92901
G1 X94.142 Y18.703 E43.94653
G1 X94.151 Y18.500 E43.95667
G1 X94.140 Y18.296 E43.96686
G1 X94.076 Y17.942 E43.98481
G1 X93.924 Y17.556 E44.00551
G1 X93.783 Y17.301 E44.02005
G1 X93.544 Y17.008 E44.03891
G1 X93.267 Y16.769 E44.05716
G1 X92.955 Y16.581 E44.07534
G1 X92.619 Y16.447 E44.09338
G1 X92.273 Y16.372 E44.11105
G1 X91.907 Y16.356 E44.12932
G1 X91.533 Y16.406 E44.14815
G1 X91.186 Y16.514 E44.16628
G1 X90.870 Y16.675 E44.18397
G1 X90.567 Y16.901 E44.20283
G1 X90.318 Y17.166 E44.22097
G1 X90.116 Y17.467 E44.23906
G1 X89.970 Y17.790 E44.25674
G0 F9000 X90.129 Y19.569
G0 X94.400 Y29.407
G1 F1800 X94.400 Y33.607 E44.46628
G1 X97.931 Y33.607 E44.64244
G1 X97.134 Y33.709 E44.68253
G1 X94.927 Y34.385 E44.79769
G1 X92.868 Y35.424 E44.91275
G1 X91.013 Y36.796 E45.02786
G1 X89.417 Y38.462 E45.14296
G1 X88.127 Y40.368 E45.25778
G1 X87.174 Y42.475 E45.37315
G1 X86.592 Y44.708 E45.48828
G1 X86.400 Y46.982 E45.60213
G1 X86.400 Y47.043 E45.60518
G1 X86.581 Y49.180 E45.71217
G1 X86.593 Y49.307 E45.71854
G1 X87.174 Y51.539 E45.83360
G1 X88.124 Y53.641 E45.94869
G1 X89.341 Y55.442 E46.05713
G1 X89.417 Y55.553 E46.06384
G1 X91.013 Y57.217 E46.17887
G1 X92.868 Y58.590 E46.29401
G1 X94.847 Y59.587 E46.40456
G1 X94.929 Y59.628 E46.40914
G1 X97.134 Y60.304 E46.52420
G1 X99.423 Y60.597 E46.63933
G1 X101.727 Y60.498 E46.75438
G1 X103.982 Y60.013 E46.86946
G1 X105.948 Y59.223 E46.97517
G1 X106.122 Y59.153 E46.98452
G1 X108.088 Y57.943 E47.09970
G1 X109.820 Y56.419 E47.21479
G1 X111.269 Y54.623 E47.32992
G1 X112.394 Y52.609 E47.44501
G1 X113.163 Y50.434 E47.56011
G1 X113.551 Y48.173 E47.67456
G1 X113.597 Y47.072 E47.72954
G1 X113.601 Y47.021 E47.73209
G1 X113.551 Y45.840 E47.79106
G1 X113.163 Y43.579 E47.90551
G1 X112.394 Y41.404 E48.02061
G1 X111.269 Y39.390 E48.13570
G1 X109.820 Y37.595 E48.25079
G1 X108.088 Y36.071 E48.36589
G1 X106.123 Y34.861 E48.48102
G1 X103.982 Y34.001 E48.59613
G1 X102.155 Y33.607 E48.68937
G1 X105.600 Y33.607 E48.86124
G1 X105.600 Y29.407 E49.07078
G1 X94.400 Y29.407 E49.62955
G0 F9000 X86.455 Y32.110
G1 F1800 X86.282 Y31.800 E49.64726
G1 X86.044 Y31.508 E49.66606
G1 X85.767 Y31.269 E49.68431
G1 X85.455 Y31.081 E49.70248
G1 X85.119 Y30.947 E49.72053
G1 X84.773 Y30.872 E49.73819
G1 X84.407 Y30.856 E49.75647
G1 X84.033 Y30.906 E49.77529
G1 X83.686 Y31.014 E49.79343
G1 X83.371 Y31.175 E49.81107
G1 X83.075 Y31.392 E49.82939
G1 X82.818 Y31.666 E49.84813
G1 X82.616 Y31.967 E49.86621
G1 X82.470 Y32.290 E49.88390
G1 X82.379 Y32.643 E49.90208
G1 X82.347 Y33.008 E49.92036
G1 X82.381 Y33.384 E49.93920
G1 X82.471 Y33.718 E49.95646
G1 X82.626 Y34.067 E49.97551
G1 X82.836 Y34.369 E49.99386
G1 X83.087 Y34.630 E50.01193
G1 X83.384 Y34.846 E50.03025
G1 X83.709 Y35.007 E50.04834
G1 X84.046 Y35.111 E50.06594
G1 X84.411 Y35.157 E50.08429
G1 X84.785 Y35.139 E50.10297
G1 X85.142 Y35.061 E50.12120
G1 X85.480 Y34.922 E50.13944
G1 X85.787 Y34.730 E50.15750
G1 X86.055 Y34.495 E50.17528
G1 X86.289 Y34.201 E50.19403
G1 X86.461 Y33.892 E50.21167
G1 X86.582 Y33.549 E50.22982
G1 X86.642 Y33.203 E50.24734
G1 X86.651 Y33.000 E50.25748
G1 X86.640 Y32.796 E50.26767
G1 X86.577 Y32.451 E50.28517
G1 X86.455 Y32.110 E50.30323
G0 F9000 X106.127 Y19.569
G1 F1800 X106.334 Y19.867 E50.32134
G1 X106.578 Y20.123 E50.33898
G1 X106.884 Y20.346 E50.35787
G1 X107.209 Y20.507 E50.37597
G1 X107.546 Y20.611 E50.39356
G1 X107.911 Y20.657 E50.41192
G1 X108.285 Y20.639 E50.43060
G1 X108.642 Y20.561 E50.44883
G1 X108.980 Y20.422 E50.46706
G1 X109.287 Y20.230 E50.48512
G1 X109.555 Y19.995 E50.50291
G1 X109.790 Y19.700 E50.52172
G1 X109.965 Y19.381 E50.53988
G1 X110.082 Y19.049 E50.55744
G1 X110.142 Y18.703 E50.57496
G1 X110.151 Y18.500 E50.58510
G1 X110.140 Y18.296 E50.59529
G1 X110.077 Y17.951 E50.61279
G1 X109.955 Y17.610 E50.63085
G1 X109.782 Y17.300 E50.64857
G1 X109.544 Y17.008 E50.66736
G1 X109.267 Y16.769 E50.68561
G1 X108.955 Y16.581 E50.70378
G1 X108.619 Y16.447 E50.72183
G1 X108.273 Y16.372 E50.73949
G1 X107.907 Y16.356 E50.75777
G1 X107.533 Y16.406 E50.77660
G1 X107.186 Y16.514 E50.79473
G1 X106.870 Y16.675 E50.81242
G1 X106.567 Y16.901 E50.83128
G1 X106.319 Y17.165 E50.84935
G1 X106.121 Y17.456 E50.86691
G1 X105.970 Y17.790 E50.88520
G1 X105.879 Y18.143 E50.90339
G1 X105.847 Y18.508 E50.92167
G1 X105.881 Y18.883 E50.94045
G1 X105.971 Y19.225 E50.95809
G1 X106.127 Y19.569 E50.97694
G0 F9000 X107.548 Y20.610
G0 X109.286 Y20.229
G0 X110.140 Y18.702
G0 X113.975 Y16.236
G1 F1800 X114.127 Y16.569 E50.99520
G1 X114.334 Y16.867 E51.01330
G1 X114.578 Y17.123 E51.03095
G1 X114.884 Y17.346 E51.04984
G1 X115.209 Y17.507 E51.06793
G1 X115.546 Y17.611 E51.08553
G1 X115.911 Y17.657 E51.10388
G1 X116.285 Y17.639 E51.12256
G1 X116.642 Y17.561 E51.14079
G1 X116.980 Y17.422 E51.15903
G1 X117.287 Y17.230 E51.17709
G1 X117.553 Y16.996 E51.19477
G1 X117.784 Y16.711 E51.21307
G1 X117.965 Y16.381 E51.23185
G1 X118.082 Y16.049 E51.24941
G1 X118.142 Y15.703 E51.26693
G1 X118.151 Y15.504 E51.27687
G1 X118.140 Y15.296 E51.28726
G1 X118.078 Y14.952 E51.30470
G1 X117.956 Y14.611 E51.32277
G1 X117.782 Y14.300 E51.34054
G1 X117.544 Y14.008 E51.35934
G1 X117.267 Y13.769 E51.37759
G1 X116.955 Y13.581 E51.39576
G1 X116.619 Y13.447 E51.41381
G1 X116.273 Y13.372 E51.43147
G1 X115.907 Y13.356 E51.44975
G1 X115.533 Y13.406 E51.46858
G1 X115.186 Y13.514 E51.48671
G1 X114.870 Y13.675 E51.50440
G1 X114.567 Y13.901 E51.52326
G1 X114.318 Y14.166 E51.54140
G1 X114.116 Y14.467 E51.55949
G1 X113.970 Y14.790 E51.57717
G1 X113.879 Y15.143 E51.59536
G1 X113.847 Y15.508 E51.61364
G1 X113.881 Y15.885 E51.63252
G1 X113.975 Y16.236 E51.65065
G0 F9000 X115.407 Y30.856
G1 F1800 X115.033 Y30.906 E51.66948
G1 X114.686 Y31.014 E51.68761
G1 X114.370 Y31.175 E51.70530
G1 X114.067 Y31.400 E51.72413
G1 X113.820 Y31.663 E51.74213
G1 X113.616 Y31.967 E51.76039
G1 X113.470 Y32.290 E51.77808
G1 X113.379 Y32.643 E51.79627
G1 X113.347 Y33.008 E51.81455
G1 X113.381 Y33.381 E51.83323
G1 X113.469 Y33.723 E51.85085
G1 X113.624 Y34.063 E51.86949
G1 X113.834 Y34.367 E51.88793
G1 X114.078 Y34.623 E51.90557
G1 X114.384 Y34.846 E51.92446
G1 X114.709 Y35.007 E51.94255
G1 X115.046 Y35.111 E51.96015
G1 X115.411 Y35.157 E51.97850
G1 X115.785 Y35.139 E51.99718
G1 X116.142 Y35.061 E52.01542
G1 X116.480 Y34.922 E52.03365
G1 X116.787 Y34.730 E52.05171
G1 X117.055 Y34.495 E52.06950
G1 X117.289 Y34.201 E52.08824
G1 X117.461 Y33.892 E52.10589
G1 X117.582 Y33.549 E52.12403
G1 X117.642 Y33.203 E52.14155
G1 X117.651 Y33.000 E52.15169
G1 X117.640 Y32.796 E52.16188
G1 X117.577 Y32.451 E52.17938
G1 X117.455 Y32.110 E52.19745
G1 X117.282 Y31.800 E52.21516
G1 X117.044 Y31.508 E52.23395
G1 X116.767 Y31.269 E52.25221
G1 X116.455 Y31.081 E52.27038
G1 X116.119 Y30.947 E52.28843
G1 X115.773 Y30.872 E52.30609
G1 X115.407 Y30.856 E52.32437
G0 F9000 X113.821 Y31.664
G0 X113.382 Y33.381
G0 X113.550 Y48.172
G0 X112.393 Y52.608
G0 X109.819 Y56.418
G0 X108.088 Y57.942
G0 X101.200 Y75.584
G1 F1800 X100.520 Y75.438 E52.35906
G1 X99.826 Y75.408 E52.39372
G1 X99.135 Y75.496 E52.42847
G1 X98.470 Y75.700 E52.46318
G1 X97.848 Y76.013 E52.49791
G1 X97.289 Y76.427 E52.53262
G1 X96.807 Y76.930 E52.56738
G1 X96.418 Y77.506 E52.60205
G1 X96.131 Y78.140 E52.63677
G1 X95.956 Y78.814 E52.67151
G1 X95.898 Y79.507 E52.70621
G1 X95.956 Y80.199 E52.74085
G1 X96.131 Y80.873 E52.77559
G1 X96.418 Y81.508 E52.81036
G1 X96.807 Y82.083 E52.84499
G1 X97.289 Y82.586 E52.87975
G1 X97.848 Y83.000 E52.91446
G1 X98.470 Y83.313 E52.94919
G1 X99.135 Y83.517 E52.98390
G1 X99.826 Y83.606 E53.01866
G1 X100.521 Y83.575 E53.05336
G1 X101.200 Y83.429 E53.08801
G1 X101.846 Y83.170 E53.12274
G1 X102.439 Y82.805 E53.15748
G1 X102.961 Y82.344 E53.19222
G1 X103.398 Y81.804 E53.22688
G1 X103.738 Y81.196 E53.26163
G1 X103.970 Y80.541 E53.29630
G1 X104.087 Y79.855 E53.33102
G1 X104.087 Y79.159 E53.36574
G1 X103.992 Y78.601 E53.39398
G1 X103.969 Y78.472 E53.40052
G1 X103.738 Y77.817 E53.43517
G1 X103.398 Y77.210 E53.46988
G1 X102.961 Y76.668 E53.50462
G1 X102.439 Y76.209 E53.53929
G1 X101.846 Y75.843 E53.57406
G1 X101.200 Y75.584 E53.60878
G0 F9000 X99.137 Y75.498
G0 X97.290 Y76.428
G0 X96.132 Y78.141
G0 X93.341 Y81.958
G1 F1800 X93.041 Y81.585 E53.63266
G1 X92.658 Y81.257 E53.65782
G1 X92.252 Y81.012 E53.68148
G1 X91.812 Y80.842 E53.70501
G1 X91.376 Y80.747 E53.72728
G1 X90.900 Y80.726 E53.75105
G1 X90.426 Y80.788 E53.77490
G1 X89.947 Y80.939 E53.79995
G1 X89.527 Y81.156 E53.82354
G1 X89.165 Y81.425 E53.84604
G1 X88.825 Y81.788 E53.87085
G1 X88.572 Y82.163 E53.89342
G1 X88.371 Y82.620 E53.91833
G1 X88.258 Y83.053 E53.94065
G1 X88.217 Y83.529 E53.96449
G1 X88.264 Y84.027 E53.98945
G1 X88.378 Y84.463 E54.01193
G1 X88.588 Y84.915 E54.03679
G1 X88.840 Y85.287 E54.05921
G1 X89.170 Y85.632 E54.08303
G1 X89.575 Y85.925 E54.10797
G1 X89.975 Y86.127 E54.13032
G1 X90.430 Y86.266 E54.15406
G1 X90.903 Y86.326 E54.17785
G1 X91.406 Y86.301 E54.20297
G1 X91.869 Y86.195 E54.22667
G1 X92.305 Y86.014 E54.25022
G1 X92.685 Y85.779 E54.27251
G1 X93.043 Y85.466 E54.29624
G1 X93.341 Y85.095 E54.31998
G1 X93.573 Y84.681 E54.34365
G1 X93.731 Y84.232 E54.36740
G1 X93.812 Y83.761 E54.39124
G1 X93.806 Y83.259 E54.41629
G1 X93.722 Y82.794 E54.43987
G1 X93.573 Y82.372 E54.46219
G1 X93.341 Y81.958 E54.48587
G0 F9000 X93.810 Y83.760
G0 X93.042 Y85.465
G0 X91.405 Y86.300
G0 X88.846 Y88.843
G1 F1800 X88.200 Y88.584 E54.52059
G1 X87.520 Y88.438 E54.55529
G1 X86.826 Y88.408 E54.58995
G1 X86.135 Y88.496 E54.62470
G1 X85.471 Y88.700 E54.65936
G1 X84.848 Y89.013 E54.69414
G1 X84.289 Y89.427 E54.72884
G1 X83.807 Y89.930 E54.76360
G1 X83.418 Y90.506 E54.79828
G1 X83.131 Y91.140 E54.83300
G1 X82.956 Y91.814 E54.86774
G1 X82.898 Y92.507 E54.90243
G1 X82.956 Y93.199 E54.93708
G1 X83.131 Y93.873 E54.97182
G1 X83.418 Y94.508 E55.00658
G1 X83.807 Y95.083 E55.04122
G1 X84.289 Y95.586 E55.07598
G1 X84.848 Y96.000 E55.11068
G1 X85.471 Y96.313 E55.14546
G1 X86.135 Y96.517 E55.18012
G1 X86.826 Y96.606 E55.21488
G1 X87.521 Y96.575 E55.24959
G1 X88.200 Y96.429 E55.28424
G1 X88.846 Y96.170 E55.31896
G1 X89.439 Y95.805 E55.35370
G1 X89.961 Y95.344 E55.38844
G1 X90.398 Y94.804 E55.42310
G1 X90.738 Y94.196 E55.45785
G1 X90.970 Y93.541 E55.49252
G1 X91.087 Y92.855 E55.52724
G1 X91.087 Y92.159 E55.56196
G1 X90.970 Y91.473 E55.59668
G1 X90.738 Y90.817 E55.63140
G1 X90.398 Y90.210 E55.66611
G1 X89.961 Y89.668 E55.70084
G1 X89.439 Y89.209 E55.73552
G1 X88.846 Y88.843 E55.77029
G0 F9000 X90.396 Y90.210
G0 X91.086 Y92.160
G0 X90.737 Y94.196
G0 X90.426 Y98.748
G1 F1800 X89.946 Y98.901 E55.79542
G1 X89.525 Y99.119 E55.81907
G1 X89.146 Y99.406 E55.84279
G1 X88.825 Y99.750 E55.86627
G1 X88.572 Y100.122 E55.88871
G1 X88.371 Y100.580 E55.91366
G1 X88.258 Y101.013 E55.93599
G1 X88.217 Y101.490 E55.95988
G1 X88.264 Y101.988 E55.98483
G1 X88.378 Y102.424 E56.00732
G1 X88.588 Y102.877 E56.03223
G1 X88.840 Y103.248 E56.05460
G1 X89.170 Y103.592 E56.07838
G1 X89.575 Y103.885 E56.10332
G1 X89.974 Y104.086 E56.12561
G1 X90.429 Y104.227 E56.14938
G1 X90.904 Y104.287 E56.17326
G1 X91.406 Y104.260 E56.19834
G1 X91.869 Y104.156 E56.22202
G1 X92.305 Y103.974 E56.24559
G1 X92.685 Y103.740 E56.26785
G1 X93.043 Y103.426 E56.29161
G1 X93.343 Y103.054 E56.31545
G1 X93.584 Y102.612 E56.34057
G1 X93.735 Y102.165 E56.36411
G1 X93.812 Y101.722 E56.38654
G1 X93.806 Y101.222 E56.41149
G1 X93.731 Y100.781 E56.43381
