;Generated with Cura_SteamEngine 15.01
; Default start code
G28 ; Home extruder
G1 Z15 F2000
M107 ; Turn off fan
G90 ; Absolute positioning
M82 ; Extruder in absolute mode
M104 T0 S180
M190 S50
; Activate all used extruder
G92 E0 ; Reset extruder position
; Wait for all used extruders to reach temperature
M109 T0 S210 R210
;Layer count: 157
;LAYER:0
M107
G0 F9000 X168.450 Y43.228 Z0.300
;TYPE:SKIRT
G1 F1800 X174.050 Y43.228 E0.27939
G1 X174.050 Y38.566 E0.51197
G1 X173.250 Y38.566 E0.55189
G1 X173.250 Y28.028 E1.07763
G1 X186.150 Y28.028 E1.72121
G1 X186.150 Y36.511 E2.14443
G1 X254.250 Y36.511 E5.54195
G1 X254.250 Y28.028 E5.96517
G1 X267.150 Y28.028 E6.60876
G1 X267.150 Y38.185 E7.11549
G1 X266.450 Y38.229 E7.15048
G1 X266.450 Y43.228 E7.39988
G1 X272.150 Y43.228 E7.68426
G1 X272.150 Y61.028 E8.57230
G1 X266.450 Y61.028 E8.85668
G1 X266.450 Y66.028 E9.10613
G1 X267.150 Y66.028 E9.14105
G1 X267.150 Y76.428 E9.65991
G1 X254.250 Y76.428 E10.30349
G1 X254.250 Y67.911 E10.72841
G1 X186.150 Y67.911 E14.12593
G1 X186.150 Y76.428 E14.55085
G1 X173.250 Y76.428 E15.19443
G1 X173.250 Y66.028 E15.71329
G1 X174.050 Y66.028 E15.75320
G1 X174.050 Y61.028 E16.00265
G1 X168.450 Y61.028 E16.28204
G1 X168.450 Y43.228 E17.17008
G1 F2400 E13.17008
G0 F9000 X177.850 Y35.966
;TYPE:WALL-INNER
G1 F2400 E17.17008
G1 F1800 X181.650 Y35.965 E17.35966
G1 X181.650 Y40.311 E17.57649
G1 X258.851 Y40.311 E21.42806
G1 X258.851 Y35.966 E21.64483
G1 X262.650 Y35.965 E21.83437
G1 X262.650 Y68.457 E23.45540
G1 X258.851 Y68.458 E23.64493
G1 X258.851 Y64.111 E23.86180
G1 X181.650 Y64.111 E27.71338
G1 X181.650 Y68.457 E27.93020
G1 X177.850 Y68.458 E28.11978
G1 X177.850 Y35.966 E29.74082
G0 F9000 X177.450 Y35.566
;TYPE:WALL-OUTER
G1 F1800 X182.050 Y35.565 E29.97031
G1 X182.050 Y39.911 E30.18713
G1 X258.451 Y39.911 E33.99880
G1 X258.451 Y35.566 E34.21557
G1 X263.050 Y35.565 E34.44501
G1 X263.050 Y68.857 E36.10596
G1 X258.451 Y68.858 E36.33540
G1 X258.451 Y64.511 E36.55228
G1 X182.050 Y64.511 E40.36394
G1 X182.050 Y68.857 E40.58076
G1 X177.450 Y68.858 E40.81025
G1 X177.450 Y35.566 E42.47120
G0 F9000 X177.929 Y36.225
;TYPE:SKIN
G1 F1800 X181.569 Y39.865 E42.72802
G0 F9000 X181.569 Y39.299
G1 F1800 X178.315 Y36.045 E42.95761
G0 F9000 X178.881 Y36.045
G1 F1800 X181.569 Y38.733 E43.14726
G0 F9000 X181.569 Y38.168
G1 F1800 X179.446 Y36.045 E43.29705
G0 F9000 X177.929 Y36.790
G1 F1800 X205.169 Y64.030 E45.21898
G0 F9000 X205.734 Y64.030
G1 F1800 X182.095 Y40.391 E46.88684
G0 F9000 X182.661 Y40.391
G1 F1800 X206.300 Y64.030 E48.55470
G0 F9000 X206.866 Y64.030
G1 F1800 X183.226 Y40.391 E50.22259
G0 F9000 X183.792 Y40.391
G1 F1800 X207.431 Y64.030 E51.89045
G0 F9000 X207.997 Y64.030
G1 F1800 X184.358 Y40.391 E53.55831
G0 F9000 X184.923 Y40.391
G1 F1800 X208.563 Y64.030 E55.22620
G0 F9000 X209.128 Y64.030
G1 F1800 X185.489 Y40.391 E56.89406
G0 F9000 X186.055 Y40.391
G1 F1800 X209.694 Y64.030 E58.56192
G0 F9000 X210.260 Y64.030
G1 F1800 X186.621 Y40.391 E60.22978
G0 F9000 X187.186 Y40.391
G1 F1800 X210.826 Y64.030 E61.89768
G0 F9000 X211.391 Y64.030
G1 F1800 X187.752 Y40.391 E63.56554
G0 F9000 X188.318 Y40.391
G1 F1800 X211.957 Y64.030 E65.23339
G0 F9000 X212.523 Y64.030
G1 F1800 X188.883 Y40.391 E66.90129
G0 F9000 X189.449 Y40.391
G1 F1800 X213.088 Y64.030 E68.56915
G0 F9000 X213.654 Y64.030
G1 F1800 X190.015 Y40.391 E70.23701
G0 F9000 X190.580 Y40.391
G1 F1800 X214.220 Y64.030 E71.90490
G0 F9000 X214.785 Y64.030
G1 F1800 X191.146 Y40.391 E73.57276
G0 F9000 X191.712 Y40.391
G1 F1800 X215.351 Y64.030 E75.24062
G0 F9000 X215.917 Y64.030
G1 F1800 X192.277 Y40.391 E76.90851
G0 F9000 X192.843 Y40.391
G1 F1800 X216.482 Y64.030 E78.57637
G0 F9000 X217.048 Y64.030
G1 F1800 X193.409 Y40.391 E80.24423
G0 F9000 X193.974 Y40.391
G1 F1800 X217.614 Y64.030 E81.91213
G0 F9000 X218.179 Y64.030
G1 F1800 X194.540 Y40.391 E83.57999
G0 F9000 X195.106 Y40.391
G1 F1800 X218.745 Y64.030 E85.24785
G0 F9000 X219.311 Y64.030
G1 F1800 X195.672 Y40.391 E86.91570
G0 F9000 X196.237 Y40.391
G1 F1800 X219.876 Y64.030 E88.58356
G0 F9000 X204.603 Y64.030
G1 F1800 X177.929 Y37.356 E90.46556
G0 F9000 X177.929 Y37.922
G1 F1800 X204.037 Y64.030 E92.30762
G0 F9000 X203.472 Y64.030
G1 F1800 X177.929 Y38.487 E94.10982
G0 F9000 X177.929 Y39.053
G1 F1800 X202.906 Y64.030 E95.87208
G0 F9000 X202.340 Y64.030
G1 F1800 X177.929 Y39.619 E97.59441
G0 F9000 X177.929 Y40.184
G1 F1800 X201.775 Y64.030 E99.27687
G0 F9000 X201.209 Y64.030
G1 F1800 X177.929 Y40.750 E100.91940
G0 F9000 X177.929 Y41.316
G1 F1800 X200.643 Y64.030 E102.52199
G0 F9000 X200.077 Y64.030
G1 F1800 X177.929 Y41.881 E104.08469
G0 F9000 X177.929 Y42.447
G1 F1800 X199.512 Y64.030 E105.60749
G0 F9000 X198.946 Y64.030
G1 F1800 X177.929 Y43.013 E107.09035
G0 F9000 X177.929 Y43.578
G1 F1800 X198.380 Y64.030 E108.53331
G0 F9000 X197.815 Y64.030
G1 F1800 X177.929 Y44.144 E109.93638
G0 F9000 X177.929 Y44.710
G1 F1800 X197.249 Y64.030 E111.29951
G0 F9000 X196.683 Y64.030
G1 F1800 X177.929 Y45.276 E112.62271
G0 F9000 X177.929 Y45.841
G1 F1800 X196.118 Y64.030 E113.90604
G0 F9000 X195.552 Y64.030
G1 F1800 X177.929 Y46.407 E115.14944
G0 F9000 X177.929 Y46.973
G1 F1800 X194.986 Y64.030 E116.35290
G0 F9000 X194.421 Y64.030
G1 F1800 X177.929 Y47.538 E117.51650
G0 F9000 X177.929 Y48.104
G1 F1800 X193.855 Y64.030 E118.64016
G0 F9000 X193.289 Y64.030
G1 F1800 X177.929 Y48.670 E119.72390
G0 F9000 X177.929 Y49.235
G1 F1800 X192.724 Y64.030 E120.76776
G0 F9000 X192.158 Y64.030
G1 F1800 X177.929 Y49.801 E121.77170
G0 F9000 X177.929 Y50.367
G1 F1800 X191.592 Y64.030 E122.73569
G0 F9000 X191.027 Y64.030
G1 F1800 X177.929 Y50.932 E123.65983
G0 F9000 X177.929 Y51.498
G1 F1800 X190.461 Y64.030 E124.54403
G0 F9000 X189.895 Y64.030
G1 F1800 X177.929 Y52.064 E125.38829
G0 F9000 X177.929 Y52.629
G1 F1800 X189.329 Y64.030 E126.19266
G0 F9000 X188.764 Y64.030
G1 F1800 X177.929 Y53.195 E126.95713
G0 F9000 X177.929 Y53.761
G1 F1800 X188.198 Y64.030 E127.68166
G0 F9000 X187.632 Y64.030
G1 F1800 X177.929 Y54.327 E128.36626
G0 F9000 X177.929 Y54.892
G1 F1800 X187.067 Y64.030 E129.01100
G0 F9000 X186.501 Y64.030
G1 F1800 X177.929 Y55.458 E129.61580
G0 F9000 X177.929 Y56.024
G1 F1800 X185.935 Y64.030 E130.18066
G0 F9000 X185.370 Y64.030
G1 F1800 X177.929 Y56.589 E130.70567
G0 F9000 X177.929 Y57.155
G1 F1800 X184.804 Y64.030 E131.19074
G0 F9000 X184.238 Y64.030
G1 F1800 X177.929 Y57.721 E131.63587
G0 F9000 X177.929 Y58.286
G1 F1800 X183.673 Y64.030 E132.04114
G0 F9000 X183.107 Y64.030
G1 F1800 X177.929 Y58.852 E132.40648
G0 F9000 X177.929 Y59.418
G1 F1800 X182.541 Y64.030 E132.73188
G0 F9000 X181.976 Y64.030
G1 F1800 X177.929 Y59.983 E133.01741
G0 F9000 X177.929 Y60.549
G1 F1800 X181.569 Y64.189 E133.27424
G0 F9000 X181.569 Y64.755
G1 F1800 X177.929 Y61.115 E133.53106
G0 F9000 X177.929 Y61.680
G1 F1800 X181.569 Y65.321 E133.78792
G0 F9000 X181.569 Y65.886
G1 F1800 X177.929 Y62.246 E134.04474
G0 F9000 X177.929 Y62.812
G1 F1800 X181.569 Y66.452 E134.30156
G0 F9000 X181.569 Y67.018
G1 F1800 X177.929 Y63.377 E134.55842
G0 F9000 X177.929 Y63.943
G1 F1800 X181.569 Y67.583 E134.81524
G0 F9000 X181.569 Y68.149
G1 F1800 X177.929 Y64.509 E135.07206
G0 F9000 X177.929 Y65.075
G1 F1800 X181.231 Y68.377 E135.30503
G0 F9000 X180.665 Y68.377
G1 F1800 X177.929 Y65.640 E135.49811
G0 F9000 X177.929 Y66.206
G1 F1800 X180.100 Y68.377 E135.65128
G0 F9000 X179.535 Y68.377
G1 F1800 X177.929 Y66.772 E135.76456
G0 F9000 X177.929 Y67.337
G1 F1800 X178.969 Y68.377 E135.83794
G0 F9000 X178.403 Y68.377
G1 F1800 X177.929 Y67.903 E135.87138
G0 F9000 X181.569 Y37.602
G1 F1800 X180.012 Y36.045 E135.98124
G0 F9000 X180.578 Y36.045
G1 F1800 X181.569 Y37.036 E136.05116
G0 F9000 X181.569 Y36.471
G1 F1800 X181.143 Y36.045 E136.08121
G0 F9000 X181.709 Y40.252
G0 X196.803 Y40.391
G1 F1800 X220.442 Y64.030 E137.74907
G0 F9000 X221.008 Y64.030
G1 F1800 X197.369 Y40.391 E139.41693
G0 F9000 X197.934 Y40.391
G1 F1800 X221.574 Y64.030 E141.08483
G0 F9000 X222.139 Y64.030
G1 F1800 X198.500 Y40.391 E142.75268
G0 F9000 X199.066 Y40.391
G1 F1800 X222.705 Y64.030 E144.42054
G0 F9000 X223.271 Y64.030
G1 F1800 X199.631 Y40.391 E146.08844
G0 F9000 X200.197 Y40.391
G1 F1800 X223.836 Y64.030 E147.75630
G0 F9000 X224.402 Y64.030
G1 F1800 X200.763 Y40.391 E149.42416
G0 F9000 X201.328 Y40.391
G1 F1800 X224.968 Y64.030 E151.09205
G0 F9000 X225.533 Y64.030
G1 F1800 X201.894 Y40.391 E152.75991
G0 F9000 X202.460 Y40.391
G1 F1800 X226.099 Y64.030 E154.42777
G0 F9000 X226.665 Y64.030
G1 F1800 X203.025 Y40.391 E156.09566
G0 F9000 X203.591 Y40.391
G1 F1800 X227.230 Y64.030 E157.76352
G0 F9000 X227.796 Y64.030
G1 F1800 X204.157 Y40.391 E159.43138
G0 F9000 X204.722 Y40.391
G1 F1800 X228.362 Y64.030 E161.09928
G0 F9000 X228.927 Y64.030
G1 F1800 X205.288 Y40.391 E162.76714
G0 F9000 X205.854 Y40.391
G1 F1800 X229.493 Y64.030 E164.43499
G0 F9000 X230.059 Y64.030
G1 F1800 X206.420 Y40.391 E166.10285
G0 F9000 X206.985 Y40.391
G1 F1800 X230.624 Y64.030 E167.77071
G0 F9000 X231.190 Y64.030
G1 F1800 X207.551 Y40.391 E169.43857
G0 F9000 X208.117 Y40.391
G1 F1800 X231.756 Y64.030 E171.10643
G0 F9000 X232.322 Y64.030
G1 F1800 X208.682 Y40.391 E172.77433
G0 F9000 X209.248 Y40.391
G1 F1800 X232.887 Y64.030 E174.44218
G0 F9000 X233.453 Y64.030
G1 F1800 X209.814 Y40.391 E176.11004
G0 F9000 X210.379 Y40.391
G1 F1800 X234.019 Y64.030 E177.77794
G0 F9000 X234.584 Y64.030
G1 F1800 X210.945 Y40.391 E179.44580
G0 F9000 X211.511 Y40.391
G1 F1800 X235.150 Y64.030 E181.11366
G0 F9000 X235.716 Y64.030
G1 F1800 X212.076 Y40.391 E182.78155
G0 F9000 X212.642 Y40.391
G1 F1800 X236.281 Y64.030 E184.44941
G0 F9000 X236.847 Y64.030
G1 F1800 X213.208 Y40.391 E186.11727
G0 F9000 X213.773 Y40.391
G1 F1800 X237.413 Y64.030 E187.78516
G0 F9000 X237.978 Y64.030
G1 F1800 X214.339 Y40.391 E189.45302
G0 F9000 X214.905 Y40.391
G1 F1800 X238.544 Y64.030 E191.12088
G0 F9000 X239.110 Y64.030
G1 F1800 X215.470 Y40.391 E192.78878
G0 F9000 X216.036 Y40.391
G1 F1800 X239.675 Y64.030 E194.45663
G0 F9000 X240.241 Y64.030
G1 F1800 X216.602 Y40.391 E196.12449
G0 F9000 X217.168 Y40.391
G1 F1800 X240.807 Y64.030 E197.79235
G0 F9000 X241.373 Y64.030
G1 F1800 X217.733 Y40.391 E199.46025
G0 F9000 X218.299 Y40.391
G1 F1800 X241.938 Y64.030 E201.12811
G0 F9000 X242.504 Y64.030
G1 F1800 X218.865 Y40.391 E202.79597
G0 F9000 X219.430 Y40.391
G1 F1800 X243.070 Y64.030 E204.46386
G0 F9000 X243.635 Y64.030
G1 F1800 X219.996 Y40.391 E206.13172
G0 F9000 X220.562 Y40.391
G1 F1800 X244.201 Y64.030 E207.79958
G0 F9000 X244.767 Y64.030
G1 F1800 X221.127 Y40.391 E209.46747
G0 F9000 X221.693 Y40.391
G1 F1800 X245.332 Y64.030 E211.13533
G0 F9000 X245.898 Y64.030
G1 F1800 X222.259 Y40.391 E212.80319
G0 F9000 X222.824 Y40.391
G1 F1800 X246.464 Y64.030 E214.47109
G0 F9000 X247.029 Y64.030
G1 F1800 X223.390 Y40.391 E216.13894
G0 F9000 X223.956 Y40.391
G1 F1800 X247.595 Y64.030 E217.80680
G0 F9000 X248.161 Y64.030
G1 F1800 X224.521 Y40.391 E219.47470
G0 F9000 X225.087 Y40.391
G1 F1800 X248.726 Y64.030 E221.14256
G0 F9000 X249.292 Y64.030
G1 F1800 X225.653 Y40.391 E222.81042
G0 F9000 X226.219 Y40.391
G1 F1800 X249.858 Y64.030 E224.47828
G0 F9000 X250.423 Y64.030
G1 F1800 X226.784 Y40.391 E226.14613
G0 F9000 X227.350 Y40.391
G1 F1800 X250.989 Y64.030 E227.81399
G0 F9000 X251.555 Y64.030
G1 F1800 X227.916 Y40.391 E229.48185
G0 F9000 X228.481 Y40.391
G1 F1800 X252.121 Y64.030 E231.14975
G0 F9000 X252.686 Y64.030
G1 F1800 X229.047 Y40.391 E232.81761
G0 F9000 X229.613 Y40.391
G1 F1800 X253.252 Y64.030 E234.48547
G0 F9000 X253.818 Y64.030
G1 F1800 X230.178 Y40.391 E236.15336
G0 F9000 X230.744 Y40.391
G1 F1800 X254.383 Y64.030 E237.82122
G0 F9000 X254.949 Y64.030
G1 F1800 X231.310 Y40.391 E239.48908
G0 F9000 X231.875 Y40.391
G1 F1800 X255.515 Y64.030 E241.15697
G0 F9000 X256.080 Y64.030
G1 F1800 X232.441 Y40.391 E242.82483
G0 F9000 X233.007 Y40.391
G1 F1800 X256.646 Y64.030 E244.49269
G0 F9000 X257.212 Y64.030
G1 F1800 X233.572 Y40.391 E246.16059
G0 F9000 X234.138 Y40.391
G1 F1800 X257.777 Y64.030 E247.82844
G0 F9000 X258.343 Y64.030
G1 F1800 X234.704 Y40.391 E249.49630
G0 F9000 X235.269 Y40.391
G1 F1800 X258.909 Y64.030 E251.16420
G0 F9000 X258.930 Y64.051
G1 F1800 X262.569 Y67.690 E251.42095
G0 F9000 X262.569 Y68.256
G1 F1800 X258.930 Y64.617 E251.67770
G0 F9000 X258.930 Y65.183
G1 F1800 X262.123 Y68.376 E251.90298
G0 F9000 X261.558 Y68.376
G1 F1800 X258.930 Y65.748 E252.08840
G0 F9000 X258.930 Y66.314
G1 F1800 X260.992 Y68.376 E252.23389
G0 F9000 X260.427 Y68.377
G1 F1800 X258.930 Y66.880 E252.33951
G0 F9000 X258.930 Y67.445
G1 F1800 X259.861 Y68.377 E252.40523
G0 F9000 X259.296 Y68.377
G1 F1800 X258.930 Y68.011 E252.43106
G0 F9000 X262.569 Y67.124
G1 F1800 X235.835 Y40.391 E254.31725
G0 F9000 X236.401 Y40.391
G1 F1800 X262.569 Y66.559 E256.16354
G0 F9000 X262.569 Y65.993
G1 F1800 X236.967 Y40.391 E257.96990
G0 F9000 X237.532 Y40.391
G1 F1800 X262.569 Y65.427 E259.73636
G0 F9000 X262.569 Y64.862
G1 F1800 X238.098 Y40.391 E261.46292
G0 F9000 X238.664 Y40.391
G1 F1800 X262.569 Y64.296 E263.14955
G0 F9000 X262.569 Y63.730
G1 F1800 X239.229 Y40.391 E264.79628
G0 F9000 X239.795 Y40.391
G1 F1800 X262.569 Y63.165 E266.40311
G0 F9000 X262.569 Y62.599
G1 F1800 X240.361 Y40.391 E267.97000
G0 F9000 X240.926 Y40.391
G1 F1800 X262.569 Y62.033 E269.49700
G0 F9000 X262.569 Y61.468
G1 F1800 X241.492 Y40.391 E270.98409
G0 F9000 X242.058 Y40.391
G1 F1800 X262.569 Y60.902 E272.43125
G0 F9000 X262.569 Y60.336
G1 F1800 X242.623 Y40.391 E273.83852
G0 F9000 X243.189 Y40.391
G1 F1800 X262.569 Y59.771 E275.20588
G0 F9000 X262.569 Y59.205
G1 F1800 X243.755 Y40.391 E276.53331
G0 F9000 X244.320 Y40.391
G1 F1800 X262.569 Y58.639 E277.82084
G0 F9000 X262.569 Y58.073
G1 F1800 X244.886 Y40.391 E279.06844
G0 F9000 X245.452 Y40.391
G1 F1800 X262.569 Y57.508 E280.27613
G0 F9000 X262.569 Y56.942
G1 F1800 X246.018 Y40.391 E281.44390
G0 F9000 X246.583 Y40.391
G1 F1800 X262.569 Y56.376 E282.57176
G0 F9000 X262.569 Y55.811
G1 F1800 X247.149 Y40.391 E283.65972
G0 F9000 X247.715 Y40.391
G1 F1800 X262.569 Y55.245 E284.70775
G0 F9000 X262.569 Y54.679
G1 F1800 X248.280 Y40.391 E285.71588
G0 F9000 X248.846 Y40.391
G1 F1800 X262.569 Y54.114 E286.68412
G0 F9000 X262.569 Y53.548
G1 F1800 X249.412 Y40.391 E287.61241
G0 F9000 X249.977 Y40.391
G1 F1800 X262.569 Y52.982 E288.50081
G0 F9000 X262.569 Y52.417
G1 F1800 X250.543 Y40.391 E289.34931
G0 F9000 X251.109 Y40.391
G1 F1800 X262.569 Y51.851 E290.15788
G0 F9000 X262.569 Y51.285
G1 F1800 X251.674 Y40.391 E290.92654
G0 F9000 X252.240 Y40.391
G1 F1800 X262.569 Y50.720 E291.65531
G0 F9000 X262.569 Y50.154
G1 F1800 X252.806 Y40.391 E292.34414
G0 F9000 X253.371 Y40.391
G1 F1800 X262.569 Y49.588 E292.99307
G0 F9000 X262.569 Y49.023
G1 F1800 X253.937 Y40.391 E293.60211
G0 F9000 X254.503 Y40.391
G1 F1800 X262.569 Y48.457 E294.17121
G0 F9000 X262.569 Y47.891
G1 F1800 X255.068 Y40.391 E294.70041
G0 F9000 X255.634 Y40.391
G1 F1800 X262.569 Y47.325 E295.18967
G0 F9000 X262.569 Y46.760
G1 F1800 X256.200 Y40.391 E295.63904
G0 F9000 X256.766 Y40.391
G1 F1800 X262.569 Y46.194 E296.04848
G0 F9000 X262.569 Y45.628
G1 F1800 X257.331 Y40.391 E296.41801
G0 F9000 X257.897 Y40.391
G1 F1800 X262.569 Y45.063 E296.74764
G0 F9000 X262.569 Y44.497
G1 F1800 X258.463 Y40.391 E297.03734
G0 F9000 X258.930 Y40.293
G1 F1800 X262.569 Y43.931 E297.29406
G0 F9000 X262.569 Y43.366
G1 F1800 X258.930 Y39.727 E297.55081
G0 F9000 X258.930 Y39.161
G1 F1800 X262.569 Y42.800 E297.80756
G0 F9000 X262.569 Y42.234
G1 F1800 X258.930 Y38.596 E298.06428
G0 F9000 X258.930 Y38.030
G1 F1800 X262.569 Y41.669 E298.32103
G0 F9000 X262.569 Y41.103
G1 F1800 X258.930 Y37.464 E298.57778
G0 F9000 X258.930 Y36.898
G1 F1800 X262.569 Y40.537 E298.83453
G0 F9000 X262.569 Y39.972
G1 F1800 X258.930 Y36.333 E299.09128
G0 F9000 X259.209 Y36.046
G1 F1800 X262.569 Y39.406 E299.32835
G0 F9000 X262.569 Y38.840
G1 F1800 X259.774 Y36.046 E299.52552
G0 F9000 X260.340 Y36.046
G1 F1800 X262.569 Y38.274 E299.68275
G0 F9000 X262.569 Y37.709
G1 F1800 X260.905 Y36.045 E299.80015
G0 F9000 X261.471 Y36.045
G1 F1800 X262.569 Y37.143 E299.87762
G0 F9000 X262.569 Y36.577
