;Generated with Cura_SteamEngine 15.01
; Default start code
G28 ; Home extruder
G1 Z15 F2000
M107 ; Turn off fan
G90 ; Absolute positioning
M82 ; Extruder in absolute mode
M104 T0 S180
M190 S50
; Activate all used extruder
G92 E0 ; Reset extruder position
; Wait for all used extruders to reach temperature
M109 T0 S210 R210
;Layer count: 75
;LAYER:0
M107
G0 F9000 X155.007 Y28.595 Z0.300
;TYPE:SKIRT
G1 F1800 X263.407 Y28.595 E5.40810
G1 X263.407 Y84.995 E8.22191
G1 X155.007 Y84.995 E13.63000
G1 X155.007 Y28.595 E16.44381
G1 F2400 E12.44381
G0 F9000 X158.807 Y32.395
;TYPE:WALL-INNER
G1 F2400 E16.44381
G1 F1800 X259.607 Y32.395 E21.47274
G1 X259.607 Y81.195 E23.90739
G1 X158.807 Y81.195 E28.93632
G1 X158.807 Y32.395 E31.37096
G0 F9000 X193.346 Y53.940
G1 F1800 X192.919 Y54.633 E31.41157
G1 X192.615 Y55.389 E31.45222
G1 X192.444 Y56.186 E31.49289
G1 X192.409 Y56.998 E31.53344
G1 X192.512 Y57.807 E31.57412
G1 X192.751 Y58.585 E31.61473
G1 X193.117 Y59.313 E31.65538
G1 X193.602 Y59.968 E31.69604
G1 X194.190 Y60.532 E31.73669
G1 X194.866 Y60.988 E31.77737
G1 X195.607 Y61.323 E31.81794
G1 X196.395 Y61.529 E31.85858
G1 X197.207 Y61.597 E31.89923
G1 X198.019 Y61.529 E31.93988
G1 X198.807 Y61.323 E31.98052
G1 X199.549 Y60.988 E32.02113
G1 X200.223 Y60.532 E32.06173
G1 X200.812 Y59.968 E32.10242
G1 X201.296 Y59.313 E32.14305
G1 X201.663 Y58.586 E32.18368
G1 X201.902 Y57.807 E32.22433
G1 X202.005 Y56.998 E32.26502
G1 X201.970 Y56.186 E32.30557
G1 X201.799 Y55.389 E32.34623
G1 X201.495 Y54.633 E32.38689
G1 X201.068 Y53.940 E32.42750
G1 X200.530 Y53.328 E32.46815
G1 X199.896 Y52.816 E32.50881
G1 X199.185 Y52.419 E32.54943
G1 X198.417 Y52.148 E32.59007
G1 X197.614 Y52.010 E32.63071
G1 X196.800 Y52.010 E32.67133
G1 X195.997 Y52.148 E32.71197
G1 X195.229 Y52.419 E32.75261
G1 X194.518 Y52.816 E32.79323
G1 X193.884 Y53.328 E32.83389
G1 X193.346 Y53.940 E32.87454
G0 F9000 X195.230 Y52.420
G0 X197.614 Y52.011
G0 X199.895 Y52.817
G0 X201.493 Y54.633
G0 X204.444 Y56.186
G1 F1800 X204.409 Y56.998 E32.91509
G1 X204.512 Y57.807 E32.95578
G1 X204.751 Y58.585 E32.99638
G1 X205.117 Y59.313 E33.03703
G1 X205.600 Y59.965 E33.07752
G1 X206.189 Y60.531 E33.11827
G1 X206.866 Y60.988 E33.15902
G1 X207.607 Y61.323 E33.19959
G1 X208.395 Y61.529 E33.24023
G1 X209.207 Y61.597 E33.28088
G1 X210.019 Y61.529 E33.32153
G1 X210.807 Y61.323 E33.36217
G1 X211.549 Y60.988 E33.40278
G1 X212.223 Y60.532 E33.44338
G1 X212.812 Y59.968 E33.48407
G1 X213.296 Y59.313 E33.52470
G1 X213.663 Y58.586 E33.56533
G1 X213.902 Y57.807 E33.60598
G1 X214.005 Y56.998 E33.64667
G1 X213.970 Y56.186 E33.68722
G1 X213.799 Y55.389 E33.72788
G1 X213.495 Y54.633 E33.76853
G1 X213.068 Y53.940 E33.80915
G1 X212.530 Y53.328 E33.84980
G1 X211.911 Y52.829 E33.88947
G1 X211.186 Y52.420 E33.93099
G1 X210.417 Y52.148 E33.97169
G1 X209.614 Y52.010 E34.01234
G1 X208.800 Y52.010 E34.05295
G1 X207.997 Y52.148 E34.09360
G1 X207.229 Y52.419 E34.13423
G1 X206.518 Y52.816 E34.17486
G1 X205.894 Y53.321 E34.21491
G1 X205.355 Y53.930 E34.25548
G1 X204.920 Y54.632 E34.29668
G1 X204.615 Y55.389 E34.33740
G1 X204.444 Y56.186 E34.37807
G0 F9000 X204.921 Y54.633
G0 X207.607 Y49.323
G1 F1800 X208.395 Y49.529 E34.41870
G1 X209.207 Y49.597 E34.45935
G1 X210.019 Y49.529 E34.50001
G1 X210.807 Y49.323 E34.54064
G1 X211.549 Y48.988 E34.58126
G1 X212.223 Y48.532 E34.62186
G1 X212.812 Y47.968 E34.66254
G1 X213.296 Y47.313 E34.70317
G1 X213.663 Y46.586 E34.74380
G1 X213.902 Y45.807 E34.78445
G1 X214.005 Y44.998 E34.82514
G1 X213.970 Y44.186 E34.86569
G1 X213.799 Y43.389 E34.90636
G1 X213.495 Y42.633 E34.94701
G1 X213.068 Y41.940 E34.98762
G1 X212.530 Y41.328 E35.02827
G1 X211.896 Y40.816 E35.06893
G1 X211.185 Y40.419 E35.10956
G1 X210.417 Y40.148 E35.15019
G1 X209.614 Y40.010 E35.19084
G1 X208.800 Y40.010 E35.23145
G1 X207.997 Y40.148 E35.27210
G1 X207.229 Y40.419 E35.31273
G1 X206.518 Y40.816 E35.35335
G1 X205.884 Y41.328 E35.39401
G1 X205.346 Y41.940 E35.43466
G1 X204.919 Y42.633 E35.47527
G1 X204.615 Y43.389 E35.51593
G1 X204.444 Y44.186 E35.55659
G1 X204.409 Y44.998 E35.59714
G1 X204.512 Y45.807 E35.63783
G1 X204.751 Y46.585 E35.67843
G1 X205.117 Y47.313 E35.71909
G1 X205.602 Y47.968 E35.75975
G1 X206.190 Y48.532 E35.80040
G1 X206.866 Y48.988 E35.84108
G1 X207.607 Y49.323 E35.88165
G0 F9000 X216.919 Y54.633
G1 F1800 X216.615 Y55.389 E35.92230
G1 X216.444 Y56.186 E35.96297
G1 X216.409 Y56.998 E36.00352
G1 X216.512 Y57.807 E36.04420
G1 X216.751 Y58.585 E36.08481
G1 X217.117 Y59.313 E36.12546
G1 X217.602 Y59.968 E36.16612
G1 X218.190 Y60.532 E36.20677
G1 X218.866 Y60.988 E36.24745
G1 X219.607 Y61.323 E36.28802
G1 X220.395 Y61.529 E36.32866
G1 X221.207 Y61.597 E36.36931
G1 X222.019 Y61.529 E36.40996
G1 X222.807 Y61.323 E36.45060
G1 X223.549 Y60.988 E36.49121
G1 X224.223 Y60.532 E36.53181
G1 X224.812 Y59.968 E36.57250
G1 X225.296 Y59.313 E36.61313
G1 X225.663 Y58.586 E36.65376
G1 X225.902 Y57.807 E36.69441
G1 X226.005 Y56.998 E36.73510
G1 X225.970 Y56.186 E36.77565
G1 X225.799 Y55.389 E36.81631
G1 X225.495 Y54.633 E36.85697
G1 X225.068 Y53.940 E36.89758
G1 X224.530 Y53.328 E36.93823
G1 X223.896 Y52.816 E36.97889
G1 X223.185 Y52.419 E37.01951
G1 X222.417 Y52.148 E37.06014
G1 X221.614 Y52.010 E37.10079
G1 X220.800 Y52.010 E37.14140
G1 X219.997 Y52.148 E37.18205
G1 X219.229 Y52.419 E37.22268
G1 X218.518 Y52.816 E37.26331
G1 X217.884 Y53.328 E37.30397
G1 X217.346 Y53.940 E37.34462
G1 X216.919 Y54.633 E37.38523
G0 F9000 X211.185 Y64.419
G1 F1800 X210.417 Y64.148 E37.42586
G1 X209.614 Y64.010 E37.46651
G1 X208.800 Y64.010 E37.50712
G1 X207.997 Y64.148 E37.54777
G1 X207.229 Y64.419 E37.58840
G1 X206.518 Y64.816 E37.62903
G1 X205.884 Y65.328 E37.66969
G1 X205.346 Y65.940 E37.71034
G1 X204.919 Y66.633 E37.75095
G1 X204.615 Y67.389 E37.79160
G1 X204.444 Y68.186 E37.83227
G1 X204.409 Y68.998 E37.87282
G1 X204.512 Y69.807 E37.91350
G1 X204.751 Y70.585 E37.95411
G1 X205.117 Y71.313 E37.99476
G1 X205.602 Y71.968 E38.03542
G1 X206.190 Y72.532 E38.07607
G1 X206.866 Y72.988 E38.11675
G1 X207.607 Y73.323 E38.15732
G1 X208.395 Y73.529 E38.19796
G1 X209.207 Y73.597 E38.23861
G1 X210.019 Y73.529 E38.27926
G1 X210.807 Y73.323 E38.31990
G1 X211.549 Y72.988 E38.36051
G1 X212.223 Y72.532 E38.40111
G1 X212.812 Y71.968 E38.44180
G1 X213.296 Y71.313 E38.48243
G1 X213.663 Y70.586 E38.52306
G1 X213.902 Y69.807 E38.56371
G1 X214.005 Y68.998 E38.60440
G1 X213.970 Y68.186 E38.64495
G1 X213.799 Y67.389 E38.68561
G1 X213.495 Y66.633 E38.72627
G1 X213.068 Y65.940 E38.76688
G1 X212.530 Y65.328 E38.80753
G1 X211.896 Y64.816 E38.84819
G1 X211.185 Y64.419 E38.88881
G0 F9000 X211.020 Y64.785
;TYPE:WALL-OUTER
G1 F1800 X210.316 Y64.537 E38.92605
G1 X209.580 Y64.410 E38.96331
G1 X208.834 Y64.410 E39.00053
G1 X208.098 Y64.537 E39.03779
G1 X207.394 Y64.785 E39.07503
G1 X206.743 Y65.149 E39.11224
G1 X206.162 Y65.618 E39.14949
G1 X205.669 Y66.179 E39.18675
G1 X205.278 Y66.814 E39.22396
G1 X204.999 Y67.506 E39.26118
G1 X204.842 Y68.237 E39.29849
G1 X204.810 Y68.981 E39.33564
G1 X204.905 Y69.722 E39.37291
G1 X205.124 Y70.436 E39.41017
G1 X205.459 Y71.102 E39.44736
G1 X205.903 Y71.703 E39.48464
G1 X206.442 Y72.219 E39.52187
G1 X207.061 Y72.637 E39.55913
G1 X207.741 Y72.944 E39.59635
G1 X208.463 Y73.133 E39.63359
G1 X209.207 Y73.196 E39.67084
G1 X209.951 Y73.133 E39.70809
G1 X210.673 Y72.944 E39.74533
G1 X211.353 Y72.637 E39.78255
G1 X211.971 Y72.219 E39.81977
G1 X212.511 Y71.703 E39.85703
G1 X212.954 Y71.102 E39.89428
G1 X213.290 Y70.436 E39.93150
G1 X213.509 Y69.722 E39.96876
G1 X213.604 Y68.981 E40.00603
G1 X213.572 Y68.237 E40.04318
G1 X213.415 Y67.506 E40.08048
G1 X213.136 Y66.814 E40.11771
G1 X212.745 Y66.179 E40.15491
G1 X212.252 Y65.618 E40.19217
G1 X211.671 Y65.149 E40.22942
G1 X211.020 Y64.785 E40.26663
G0 F9000 X211.165 Y64.524
G0 X210.026 Y61.423
G0 X209.951 Y61.133
G1 F1800 X210.673 Y60.944 E40.30387
G1 X211.353 Y60.637 E40.34109
G1 X211.971 Y60.219 E40.37831
G1 X212.511 Y59.703 E40.41558
G1 X212.954 Y59.102 E40.45283
G1 X213.290 Y58.436 E40.49004
G1 X213.509 Y57.722 E40.52730
G1 X213.604 Y56.981 E40.56457
G1 X213.572 Y56.237 E40.60173
G1 X213.415 Y55.506 E40.63903
G1 X213.136 Y54.814 E40.67625
G1 X212.745 Y54.179 E40.71346
G1 X212.252 Y53.618 E40.75072
G1 X211.686 Y53.161 E40.78701
G1 X211.020 Y52.785 E40.82517
G1 X210.316 Y52.537 E40.86240
G1 X209.580 Y52.410 E40.89967
G1 X208.834 Y52.410 E40.93688
G1 X208.098 Y52.537 E40.97415
G1 X207.394 Y52.785 E41.01138
G1 X206.743 Y53.149 E41.04859
G1 X206.171 Y53.611 E41.08528
G1 X205.677 Y54.169 E41.12246
G1 X205.278 Y54.813 E41.16025
G1 X204.999 Y55.506 E41.19753
G1 X204.842 Y56.237 E41.23483
G1 X204.810 Y56.981 E41.27198
G1 X204.905 Y57.722 E41.30925
G1 X205.124 Y58.436 E41.34651
G1 X205.459 Y59.102 E41.38370
G1 X205.901 Y59.700 E41.42080
G1 X206.442 Y60.219 E41.45821
G1 X207.061 Y60.637 E41.49547
G1 X207.741 Y60.944 E41.53269
G1 X208.463 Y61.133 E41.56993
G1 X209.207 Y61.196 E41.60718
G1 X209.951 Y61.133 E41.64443
G0 F9000 X210.026 Y61.423
G0 X210.806 Y61.321
G0 X216.838 Y58.523
G0 X217.124 Y58.436
G1 F1800 X217.459 Y59.102 E41.68162
G1 X217.903 Y59.703 E41.71890
G1 X218.442 Y60.219 E41.75613
G1 X219.061 Y60.637 E41.79339
G1 X219.741 Y60.944 E41.83061
G1 X220.463 Y61.133 E41.86785
G1 X221.207 Y61.196 E41.90510
G1 X221.951 Y61.133 E41.94235
G1 X222.673 Y60.944 E41.97959
G1 X223.353 Y60.637 E42.01681
G1 X223.971 Y60.219 E42.05403
G1 X224.511 Y59.703 E42.09129
G1 X224.954 Y59.102 E42.12854
G1 X225.290 Y58.436 E42.16576
G1 X225.509 Y57.722 E42.20302
G1 X225.604 Y56.981 E42.24029
G1 X225.572 Y56.237 E42.27744
G1 X225.415 Y55.506 E42.31474
G1 X225.136 Y54.814 E42.35197
G1 X224.745 Y54.179 E42.38917
G1 X224.252 Y53.618 E42.42643
G1 X223.671 Y53.149 E42.46368
G1 X223.020 Y52.785 E42.50089
G1 X222.316 Y52.537 E42.53813
G1 X221.580 Y52.410 E42.57539
G1 X220.834 Y52.410 E42.61261
G1 X220.098 Y52.537 E42.64987
G1 X219.394 Y52.785 E42.68711
G1 X218.743 Y53.149 E42.72432
G1 X218.162 Y53.618 E42.76158
G1 X217.669 Y54.179 E42.79884
G1 X217.278 Y54.814 E42.83604
G1 X216.999 Y55.506 E42.87326
G1 X216.842 Y56.237 E42.91057
G1 X216.810 Y56.981 E42.94772
G1 X216.905 Y57.722 E42.98499
G1 X217.124 Y58.436 E43.02225
G0 F9000 X216.838 Y58.523
G0 X211.475 Y48.911
G0 X211.353 Y48.637
G1 F1800 X211.971 Y48.219 E43.05947
G1 X212.511 Y47.703 E43.09673
G1 X212.954 Y47.102 E43.13398
G1 X213.290 Y46.436 E43.17120
G1 X213.509 Y45.722 E43.20846
G1 X213.604 Y44.981 E43.24573
G1 X213.572 Y44.237 E43.28288
G1 X213.415 Y43.506 E43.32018
G1 X213.136 Y42.814 E43.35741
G1 X212.745 Y42.179 E43.39461
G1 X212.252 Y41.618 E43.43187
G1 X211.671 Y41.149 E43.46912
G1 X211.020 Y40.785 E43.50634
G1 X210.316 Y40.537 E43.54357
G1 X209.580 Y40.410 E43.58084
G1 X208.834 Y40.410 E43.61805
G1 X208.098 Y40.537 E43.65532
G1 X207.394 Y40.785 E43.69255
G1 X206.743 Y41.149 E43.72976
G1 X206.162 Y41.618 E43.76702
G1 X205.669 Y42.179 E43.80428
G1 X205.278 Y42.814 E43.84148
G1 X204.999 Y43.506 E43.87871
G1 X204.842 Y44.237 E43.91601
G1 X204.810 Y44.981 E43.95316
G1 X204.905 Y45.722 E43.99043
G1 X205.124 Y46.436 E44.02769
G1 X205.459 Y47.102 E44.06488
G1 X205.903 Y47.703 E44.10216
G1 X206.442 Y48.219 E44.13939
G1 X207.061 Y48.637 E44.17665
G1 X207.741 Y48.944 E44.21388
G1 X208.463 Y49.133 E44.25111
G1 X209.207 Y49.196 E44.28836
G1 X209.951 Y49.133 E44.32561
G1 X210.673 Y48.944 E44.36285
G1 X211.353 Y48.637 E44.40007
G0 F9000 X211.475 Y48.911
G0 X201.392 Y54.658
G0 X201.136 Y54.814
G1 F1800 X200.745 Y54.179 E44.43727
G1 X200.252 Y53.618 E44.47453
G1 X199.671 Y53.149 E44.51179
G1 X199.020 Y52.785 E44.54900
G1 X198.316 Y52.537 E44.58623
G1 X197.580 Y52.410 E44.62350
G1 X196.834 Y52.410 E44.66071
G1 X196.098 Y52.537 E44.69798
G1 X195.394 Y52.785 E44.73521
G1 X194.743 Y53.149 E44.77243
G1 X194.162 Y53.618 E44.80968
G1 X193.669 Y54.179 E44.84694
G1 X193.278 Y54.814 E44.88414
G1 X192.999 Y55.506 E44.92137
G1 X192.842 Y56.237 E44.95867
G1 X192.810 Y56.981 E44.99582
G1 X192.905 Y57.722 E45.03309
G1 X193.124 Y58.436 E45.07035
G1 X193.459 Y59.102 E45.10754
G1 X193.903 Y59.703 E45.14482
G1 X194.442 Y60.219 E45.18205
G1 X195.061 Y60.637 E45.21931
G1 X195.741 Y60.944 E45.25654
G1 X196.463 Y61.133 E45.29377
G1 X197.207 Y61.196 E45.33102
G1 X197.951 Y61.133 E45.36827
G1 X198.673 Y60.944 E45.40551
G1 X199.353 Y60.637 E45.44273
G1 X199.971 Y60.219 E45.47995
G1 X200.511 Y59.703 E45.51722
G1 X200.954 Y59.102 E45.55446
G1 X201.290 Y58.436 E45.59168
G1 X201.509 Y57.722 E45.62894
G1 X201.604 Y56.981 E45.66621
G1 X201.572 Y56.237 E45.70336
G1 X201.415 Y55.506 E45.74067
G1 X201.136 Y54.814 E45.77789
G0 F9000 X201.392 Y54.658
G0 X200.529 Y53.329
G0 X198.416 Y52.150
G0 X158.707 Y32.205
G0 X158.407 Y31.995
G1 F1800 X260.007 Y31.995 E50.84673
G1 X260.007 Y81.595 E53.32129
G1 X158.407 Y81.595 E58.39013
G1 X158.407 Y31.995 E60.86469
G0 F9000 X158.905 Y32.475
;TYPE:SKIN
G1 F1800 X207.545 Y81.115 E64.29650
G0 F9000 X206.980 Y81.115
G1 F1800 X158.886 Y33.021 E67.68979
G0 F9000 X158.886 Y33.586
G1 F1800 X206.414 Y81.115 E71.04319
G0 F9000 X205.848 Y81.115
G1 F1800 X158.886 Y34.152 E74.35664
G0 F9000 X158.886 Y34.718
G1 F1800 X205.282 Y81.115 E77.63017
G0 F9000 X204.717 Y81.115
G1 F1800 X158.886 Y35.283 E80.86383
G0 F9000 X158.886 Y35.849
G1 F1800 X204.151 Y81.115 E84.05755
G0 F9000 X203.585 Y81.115
G1 F1800 X158.886 Y36.415 E87.21134
G0 F9000 X158.886 Y36.980
G1 F1800 X203.020 Y81.115 E90.32527
G0 F9000 X202.454 Y81.115
G1 F1800 X158.886 Y37.546 E93.39926
G0 F9000 X158.886 Y38.112
G1 F1800 X201.888 Y81.115 E96.43332
G0 F9000 X201.323 Y81.115
G1 F1800 X158.886 Y38.678 E99.42748
G0 F9000 X158.886 Y39.243
G1 F1800 X200.757 Y81.115 E102.38174
G0 F9000 X200.191 Y81.115
G1 F1800 X158.886 Y39.809 E105.29607
G0 F9000 X159.471 Y32.475
G1 F1800 X208.111 Y81.115 E108.72788
G0 F9000 X208.677 Y81.115
G1 F1800 X160.037 Y32.475 E112.15970
G0 F9000 X160.603 Y32.475
G1 F1800 X209.242 Y81.115 E115.59148
G0 F9000 X209.808 Y81.115
G1 F1800 X161.168 Y32.475 E119.02329
G0 F9000 X161.734 Y32.475
G1 F1800 X210.374 Y81.115 E122.45511
G0 F9000 X210.939 Y81.115
G1 F1800 X162.300 Y32.475 E125.88689
G0 F9000 X162.865 Y32.475
G1 F1800 X211.505 Y81.115 E129.31870
G0 F9000 X212.071 Y81.115
G1 F1800 X163.431 Y32.475 E132.75052
G0 F9000 X163.997 Y32.475
G1 F1800 X212.636 Y81.115 E136.18230
G0 F9000 X213.202 Y81.115
G1 F1800 X164.562 Y32.475 E139.61411
G0 F9000 X165.128 Y32.475
G1 F1800 X213.768 Y81.115 E143.04592
G0 F9000 X214.333 Y81.115
G1 F1800 X165.694 Y32.475 E146.47770
G0 F9000 X166.259 Y32.475
G1 F1800 X192.956 Y59.172 E148.36132
G0 F9000 X192.548 Y58.198
G1 F1800 X166.825 Y32.475 E150.17622
G0 F9000 X167.391 Y32.475
G1 F1800 X192.387 Y57.471 E151.93982
G0 F9000 X192.333 Y56.852
G1 F1800 X167.956 Y32.475 E153.65975
G0 F9000 X168.522 Y32.475
G1 F1800 X192.358 Y56.311 E155.34151
G0 F9000 X192.439 Y55.826
G1 F1800 X169.088 Y32.475 E156.98905
G0 F9000 X169.654 Y32.475
G1 F1800 X192.539 Y55.360 E158.60371
G0 F9000 X192.702 Y54.957
G1 F1800 X170.219 Y32.475 E160.18997
G0 F9000 X170.785 Y32.475
G1 F1800 X192.870 Y54.560 E161.74819
G0 F9000 X193.086 Y54.210
G1 F1800 X171.351 Y32.475 E163.28171
G0 F9000 X171.916 Y32.475
G1 F1800 X193.306 Y53.864 E164.79085
G0 F9000 X193.570 Y53.563
G1 F1800 X172.482 Y32.475 E166.27872
G0 F9000 X173.048 Y32.475
G1 F1800 X193.835 Y53.262 E167.74536
G0 F9000 X194.148 Y53.010
G1 F1800 X173.613 Y32.475 E169.19422
G0 F9000 X174.179 Y32.475
G1 F1800 X194.462 Y52.757 E170.62526
G0 F9000 X194.824 Y52.554
G1 F1800 X174.745 Y32.475 E172.04194
G0 F9000 X175.310 Y32.475
G1 F1800 X195.186 Y52.351 E173.44430
G0 F9000 X195.602 Y52.201
G1 F1800 X175.876 Y32.475 E174.83607
G0 F9000 X176.442 Y32.475
G1 F1800 X196.027 Y52.060 E176.21790
G0 F9000 X196.510 Y51.978
G1 F1800 X177.007 Y32.475 E177.59394
G0 F9000 X177.573 Y32.475
G1 F1800 X197.028 Y51.929 E178.96656
G0 F9000 X197.593 Y51.929
G1 F1800 X178.139 Y32.475 E180.33915
G0 F9000 X178.704 Y32.475
G1 F1800 X198.270 Y52.040 E181.71960
G0 F9000 X199.100 Y52.304
G1 F1800 X179.270 Y32.475 E183.11868
G0 F9000 X179.836 Y32.475
G1 F1800 X204.329 Y56.968 E184.84679
G0 F9000 X204.353 Y56.426
G1 F1800 X180.402 Y32.475 E186.53666
G0 F9000 X180.967 Y32.475
