;Generated with Cura_SteamEngine 15.01
; Default start code
G28 ; Home extruder
G1 Z15 F2000
M107 ; Turn off fan
G90 ; Absolute positioning
M82 ; Extruder in absolute mode
M104 T0 S180
M190 S50
; Activate all used extruder
G92 E0 ; Reset extruder position
; Wait for all used extruders to reach temperature
M109 T0 S210 R210
;Layer count: 35
;LAYER:0
M107
G0 F9000 X72.949 Y94.306 Z0.300
;TYPE:SKIRT
G1 F1800 X73.730 Y93.722 E0.04865
G1 X73.998 Y93.521 E0.06537
G1 X74.876 Y93.079 E0.11441
G1 X75.167 Y92.934 E0.13063
G1 X76.369 Y92.565 E0.19336
G1 X77.558 Y92.408 E0.25319
G1 X78.236 Y92.402 E0.28702
G1 X124.324 Y94.408 E2.58854
G1 X124.794 Y94.450 E2.61208
G1 X125.643 Y94.632 E2.65540
G1 X126.529 Y94.989 E2.70305
G1 X127.339 Y95.488 E2.75052
G1 X128.050 Y96.115 E2.79781
G1 X128.650 Y96.855 E2.84534
G1 X129.115 Y97.690 E2.89302
G1 X129.432 Y98.587 E2.94049
G1 X129.591 Y99.520 E2.98771
G1 X129.594 Y100.464 E3.03480
G1 X129.432 Y101.412 E3.08278
G1 X129.115 Y102.309 E3.13025
G1 X128.650 Y103.144 E3.17793
G1 X128.050 Y103.884 E3.22546
G1 X127.339 Y104.511 E3.27275
G1 X126.529 Y105.010 E3.32022
G1 X125.643 Y105.367 E3.36787
G1 X124.713 Y105.566 E3.41532
G1 X78.252 Y107.596 E5.73548
G1 X77.602 Y107.596 E5.76791
G1 X76.425 Y107.446 E5.82711
G1 X75.196 Y107.076 E5.89114
G1 X74.313 Y106.637 E5.94034
G1 X74.011 Y106.485 E5.95720
G1 X73.221 Y105.900 E6.00625
G1 X72.961 Y105.705 E6.02246
G1 X72.098 Y104.804 E6.08471
G1 X71.373 Y103.746 E6.14869
G1 X70.835 Y102.569 E6.21326
G1 X70.503 Y101.321 E6.27769
G1 X70.416 Y100.339 E6.32687
G1 X70.385 Y100.029 E6.34241
G1 X70.470 Y99.014 E6.39323
G1 X70.503 Y98.686 E6.40968
G1 X70.814 Y97.491 E6.47128
G1 X71.336 Y96.320 E6.53524
G1 X71.869 Y95.525 E6.58300
G1 X72.051 Y95.244 E6.59970
G1 X72.949 Y94.306 E6.66448
G0 F9000 X73.215 Y94.606
G1 F1800 X73.970 Y94.042 E6.71150
G1 X74.209 Y93.863 E6.72640
G1 X75.055 Y93.437 E6.77365
G1 X75.316 Y93.307 E6.78820
G1 X76.455 Y92.958 E6.84763
G1 X77.586 Y92.808 E6.90455
G1 X78.229 Y92.802 E6.93663
G1 X124.298 Y94.807 E9.23720
G1 X124.734 Y94.846 E9.25904
G1 X125.526 Y95.016 E9.29945
G1 X126.348 Y95.347 E9.34366
G1 X127.100 Y95.811 E9.38775
G1 X127.760 Y96.393 E9.43165
G1 X128.317 Y97.080 E9.47577
G1 X128.749 Y97.855 E9.52004
G1 X129.043 Y98.688 E9.56411
G1 X129.191 Y99.554 E9.60794
G1 X129.194 Y100.431 E9.65170
G1 X129.043 Y101.311 E9.69624
G1 X128.749 Y102.144 E9.74031
G1 X128.317 Y102.919 E9.78458
G1 X127.760 Y103.606 E9.82870
G1 X127.100 Y104.188 E9.87260
G1 X126.348 Y104.652 E9.91669
G1 X125.526 Y104.983 E9.96090
G1 X124.662 Y105.168 E10.00498
G1 X78.243 Y107.196 E12.32304
G1 X77.627 Y107.196 E12.35378
G1 X76.509 Y107.054 E12.41000
G1 X75.344 Y106.703 E12.47070
G1 X74.492 Y106.279 E12.51818
G1 X74.221 Y106.143 E12.53331
G1 X73.460 Y105.580 E12.58054
G1 X73.227 Y105.405 E12.59507
G1 X72.409 Y104.551 E12.65407
G1 X71.722 Y103.548 E12.71473
G1 X71.213 Y102.434 E12.77583
G1 X70.899 Y101.252 E12.83685
G1 X70.815 Y100.303 E12.88438
G1 X70.787 Y100.026 E12.89827
G1 X70.868 Y99.050 E12.94713
G1 X70.898 Y98.757 E12.96182
G1 X71.193 Y97.624 E13.02023
G1 X71.688 Y96.514 E13.08087
G1 X72.193 Y95.760 E13.12614
G1 X72.366 Y95.493 E13.14201
G1 X73.215 Y94.606 E13.20327
G1 F2400 E9.20327
G0 F9000 X75.740 Y97.464
;TYPE:WALL-INNER
G1 F2400 E13.20327
G1 F1800 X76.219 Y97.105 E13.23313
G1 X76.731 Y96.848 E13.26172
G1 X77.267 Y96.683 E13.28970
G1 X77.854 Y96.606 E13.31923
G1 X78.171 Y96.603 E13.33505
G1 X124.033 Y98.599 E15.62528
G1 X124.164 Y98.611 E15.63184
G1 X124.414 Y98.664 E15.64459
G1 X124.624 Y98.749 E15.65589
G1 X124.831 Y98.877 E15.66804
G1 X125.009 Y99.033 E15.67984
G1 X125.159 Y99.218 E15.69173
G1 X125.272 Y99.421 E15.70332
G1 X125.353 Y99.652 E15.71553
G1 X125.392 Y99.879 E15.72702
G1 X125.393 Y100.116 E15.73884
G1 X125.353 Y100.347 E15.75054
G1 X125.272 Y100.578 E15.76275
G1 X125.159 Y100.781 E15.77434
G1 X125.009 Y100.966 E15.78623
G1 X124.831 Y101.122 E15.79804
G1 X124.624 Y101.250 E15.81018
G1 X124.414 Y101.335 E15.82148
G1 X124.173 Y101.386 E15.83377
G1 X78.170 Y103.396 E18.13106
G1 X77.867 Y103.396 E18.14618
G1 X77.300 Y103.324 E18.17469
G1 X76.750 Y103.158 E18.20335
G1 X76.217 Y102.893 E18.23305
G1 X75.755 Y102.551 E18.26173
G1 X75.369 Y102.147 E18.28960
G1 X75.043 Y101.671 E18.31839
G1 X74.803 Y101.147 E18.34714
G1 X74.655 Y100.592 E18.37580
G1 X74.602 Y100.000 E18.40545
G1 X74.650 Y99.428 E18.43409
G1 X74.793 Y98.880 E18.46234
G1 X75.025 Y98.361 E18.49071
G1 X75.358 Y97.862 E18.52064
G1 X75.740 Y97.464 E18.54816
G0 F9000 X75.473 Y97.163
;TYPE:WALL-OUTER
G1 F1800 X76.006 Y96.765 E18.58134
G1 X76.585 Y96.473 E18.61370
G1 X77.182 Y96.291 E18.64483
G1 X77.821 Y96.206 E18.67700
G1 X78.166 Y96.203 E18.69421
G1 X124.077 Y98.201 E20.98688
G1 X124.219 Y98.213 E20.99399
G1 X124.531 Y98.280 E21.00992
G1 X124.809 Y98.392 E21.02487
G1 X125.070 Y98.553 E21.04017
G1 X125.299 Y98.755 E21.05540
G1 X125.490 Y98.991 E21.07055
G1 X125.638 Y99.256 E21.08569
G1 X125.741 Y99.550 E21.10123
G1 X125.792 Y99.847 E21.11627
G1 X125.793 Y100.148 E21.13129
G1 X125.741 Y100.449 E21.14652
G1 X125.638 Y100.743 E21.16207
G1 X125.490 Y101.008 E21.17721
G1 X125.299 Y101.244 E21.19236
G1 X125.070 Y101.446 E21.20759
G1 X124.809 Y101.607 E21.22289
G1 X124.531 Y101.719 E21.23784
G1 X124.227 Y101.784 E21.25335
G1 X78.164 Y103.796 E23.55364
G1 X77.839 Y103.796 E23.56985
G1 X77.219 Y103.717 E23.60103
G1 X76.602 Y103.531 E23.63318
G1 X76.008 Y103.236 E23.66627
G1 X75.492 Y102.853 E23.69833
G1 X75.059 Y102.402 E23.72952
G1 X74.693 Y101.868 E23.76182
G1 X74.424 Y101.280 E23.79408
G1 X74.260 Y100.661 E23.82603
G1 X74.201 Y100.001 E23.85909
G1 X74.254 Y99.360 E23.89118
G1 X74.413 Y98.751 E23.92258
G1 X74.676 Y98.162 E23.95476
G1 X75.043 Y97.614 E23.98766
G1 X75.473 Y97.163 E24.01875
G0 F9000 X75.767 Y97.546
;TYPE:SKIN
G1 F1800 X81.395 Y103.173 E24.41580
G0 F9000 X81.936 Y103.149
G1 F1800 X76.089 Y97.302 E24.82834
G0 F9000 X76.438 Y97.085
G1 F1800 X82.479 Y103.126 E25.25457
G0 F9000 X83.020 Y103.102
G1 F1800 X76.821 Y96.903 E25.69194
G0 F9000 X77.254 Y96.770
G1 F1800 X83.563 Y103.079 E26.13707
G0 F9000 X84.104 Y103.055
G1 F1800 X77.749 Y96.699 E26.58549
G0 F9000 X78.303 Y96.688
G1 F1800 X84.647 Y103.031 E27.03306
G0 F9000 X85.188 Y103.007
G1 F1800 X78.894 Y96.713 E27.47713
G0 F9000 X79.486 Y96.739
G1 F1800 X85.731 Y102.984 E27.91775
G0 F9000 X86.272 Y102.960
G1 F1800 X80.077 Y96.765 E28.35484
G0 F9000 X80.669 Y96.791
G1 F1800 X86.815 Y102.937 E28.78847
G0 F9000 X87.356 Y102.913
G1 F1800 X81.260 Y96.817 E29.21858
G0 F9000 X81.851 Y96.842
G1 F1800 X87.899 Y102.889 E29.64526
G0 F9000 X88.440 Y102.865
G1 F1800 X82.443 Y96.868 E30.06838
G0 F9000 X83.034 Y96.894
G1 F1800 X88.983 Y102.842 E30.48808
G0 F9000 X89.524 Y102.818
G1 F1800 X83.626 Y96.920 E30.90422
G0 F9000 X84.217 Y96.945
G1 F1800 X90.067 Y102.794 E31.31693
G0 F9000 X90.609 Y102.771
G1 F1800 X84.809 Y96.971 E31.72615
G0 F9000 X85.400 Y96.997
G1 F1800 X91.151 Y102.747 E32.13188
G0 F9000 X91.693 Y102.724
G1 F1800 X85.991 Y97.022 E32.53419
G0 F9000 X86.583 Y97.048
G1 F1800 X92.235 Y102.700 E32.93297
G0 F9000 X92.777 Y102.676
G1 F1800 X87.174 Y97.074 E33.32826
G0 F9000 X87.766 Y97.100
G1 F1800 X93.319 Y102.652 E33.72001
G0 F9000 X93.861 Y102.629
G1 F1800 X88.357 Y97.126 E34.10832
G0 F9000 X88.949 Y97.151
G1 F1800 X94.402 Y102.605 E34.49309
G0 F9000 X94.945 Y102.582
G1 F1800 X89.540 Y97.177 E34.87444
G0 F9000 X90.132 Y97.203
G1 F1800 X95.486 Y102.558 E35.25223
G0 F9000 X96.029 Y102.534
G1 F1800 X90.723 Y97.229 E35.62656
G0 F9000 X91.315 Y97.254
G1 F1800 X96.570 Y102.510 E35.99737
G0 F9000 X97.113 Y102.487
G1 F1800 X91.906 Y97.280 E36.36475
G0 F9000 X92.498 Y97.306
G1 F1800 X97.654 Y102.463 E36.72857
G0 F9000 X98.197 Y102.439
G1 F1800 X93.089 Y97.331 E37.08896
G0 F9000 X93.681 Y97.357
G1 F1800 X98.738 Y102.415 E37.44580
G0 F9000 X99.281 Y102.392
G1 F1800 X94.272 Y97.383 E37.79921
G0 F9000 X94.864 Y97.409
G1 F1800 X99.822 Y102.368 E38.14906
G0 F9000 X80.852 Y103.197
G1 F1800 X75.491 Y97.836 E38.52731
G0 F9000 X75.252 Y98.162
G1 F1800 X80.311 Y103.221 E38.88425
G0 F9000 X79.768 Y103.244
G1 F1800 X75.042 Y98.518 E39.21769
G0 F9000 X74.867 Y98.909
G1 F1800 X79.227 Y103.268 E39.52528
G0 F9000 X78.684 Y103.292
G1 F1800 X74.749 Y99.356 E39.80295
G0 F9000 X74.693 Y99.866
G1 F1800 X78.142 Y103.315 E40.04629
G0 F9000 X77.534 Y103.272
G1 F1800 X74.722 Y100.460 E40.24470
G0 F9000 X74.933 Y101.237
G1 F1800 X76.777 Y103.082 E40.37483
G0 F9000 X95.455 Y97.435
G1 F1800 X100.365 Y102.345 E40.72126
G0 F9000 X100.906 Y102.321
G1 F1800 X96.046 Y97.460 E41.06420
G0 F9000 X96.638 Y97.486
G1 F1800 X101.449 Y102.297 E41.40364
G0 F9000 X101.990 Y102.273
G1 F1800 X97.229 Y97.512 E41.73955
G0 F9000 X97.821 Y97.538
G1 F1800 X102.533 Y102.250 E42.07201
G0 F9000 X103.074 Y102.226
G1 F1800 X98.412 Y97.563 E42.40097
G0 F9000 X99.003 Y97.589
G1 F1800 X103.617 Y102.203 E42.72652
G0 F9000 X104.158 Y102.179
G1 F1800 X99.595 Y97.615 E43.04850
G0 F9000 X100.186 Y97.640
G1 F1800 X104.701 Y102.155 E43.36705
G0 F9000 X105.242 Y102.131
G1 F1800 X100.778 Y97.667 E43.68201
G0 F9000 X101.369 Y97.692
G1 F1800 X105.785 Y102.108 E43.99359
G0 F9000 X106.326 Y102.084
G1 F1800 X101.961 Y97.718 E44.30160
G0 F9000 X102.552 Y97.744
G1 F1800 X106.869 Y102.060 E44.60615
G0 F9000 X107.410 Y102.036
G1 F1800 X103.143 Y97.769 E44.90721
G0 F9000 X103.735 Y97.795
G1 F1800 X107.953 Y102.013 E45.20481
G0 F9000 X108.494 Y101.989
G1 F1800 X104.326 Y97.821 E45.49889
G0 F9000 X104.918 Y97.847
G1 F1800 X109.037 Y101.966 E45.78950
G0 F9000 X109.578 Y101.942
G1 F1800 X105.509 Y97.872 E46.07663
G0 F9000 X106.100 Y97.898
G1 F1800 X110.121 Y101.918 E46.36030
G0 F9000 X110.662 Y101.894
G1 F1800 X106.692 Y97.924 E46.64040
G0 F9000 X107.283 Y97.949
G1 F1800 X111.205 Y101.871 E46.91712
G0 F9000 X111.746 Y101.847
G1 F1800 X107.875 Y97.976 E47.19024
G0 F9000 X108.466 Y98.001
G1 F1800 X112.289 Y101.824 E47.45997
G0 F9000 X112.830 Y101.800
G1 F1800 X109.058 Y98.027 E47.72614
G0 F9000 X109.649 Y98.053
G1 F1800 X113.373 Y101.776 E47.98886
G0 F9000 X113.915 Y101.753
G1 F1800 X110.240 Y98.078 E48.24815
G0 F9000 X110.832 Y98.104
G1 F1800 X114.457 Y101.729 E48.50391
G0 F9000 X114.999 Y101.705
G1 F1800 X111.423 Y98.130 E48.75618
G0 F9000 X112.015 Y98.156
G1 F1800 X115.541 Y101.681 E49.00492
G0 F9000 X116.083 Y101.658
G1 F1800 X112.606 Y98.181 E49.25025
G0 F9000 X113.197 Y98.207
G1 F1800 X116.625 Y101.634 E49.49207
G0 F9000 X117.167 Y101.611
G1 F1800 X113.789 Y98.233 E49.73041
G0 F9000 X114.380 Y98.258
G1 F1800 X117.709 Y101.587 E49.96529
G0 F9000 X118.251 Y101.563
G1 F1800 X114.972 Y98.285 E50.19661
G0 F9000 X115.563 Y98.310
G1 F1800 X118.793 Y101.539 E50.42446
G0 F9000 X119.335 Y101.516
G1 F1800 X116.155 Y98.336 E50.64883
G0 F9000 X116.746 Y98.362
G1 F1800 X119.877 Y101.492 E50.86970
G0 F9000 X120.419 Y101.469
G1 F1800 X117.338 Y98.387 E51.08712
G0 F9000 X117.929 Y98.413
G1 F1800 X120.961 Y101.445 E51.30104
G0 F9000 X121.503 Y101.421
G1 F1800 X118.520 Y98.439 E51.51148
G0 F9000 X119.112 Y98.465
G1 F1800 X122.045 Y101.397 E51.71838
G0 F9000 X122.587 Y101.374
G1 F1800 X119.703 Y98.490 E51.92186
G0 F9000 X120.295 Y98.516
G1 F1800 X123.129 Y101.350 E52.12182
G0 F9000 X123.671 Y101.326
G1 F1800 X120.886 Y98.542 E52.31828
G0 F9000 X121.478 Y98.567
G1 F1800 X124.206 Y101.295 E52.51075
G0 F9000 X124.627 Y101.151
G1 F1800 X122.069 Y98.594 E52.69120
G0 F9000 X122.661 Y98.619
G1 F1800 X124.951 Y100.909 E52.85277
G0 F9000 X125.182 Y100.575
G1 F1800 X123.252 Y98.645 E52.98894
G0 F9000 X123.844 Y98.671
G1 F1800 X125.308 Y100.135 E53.09223
G0 F9000 X125.201 Y99.463
G1 F1800 X124.540 Y98.801 E53.13891
;LAYER:1
M106 S63
G0 F9000 X124.033 Y98.599 Z0.500
;TYPE:WALL-INNER
G1 F2220 X124.164 Y98.611 E53.14328
G1 X124.414 Y98.664 E53.15178
G1 X124.624 Y98.749 E53.15932
G1 X124.831 Y98.877 E53.16741
G1 X125.009 Y99.033 E53.17528
G1 X125.159 Y99.218 E53.18321
G1 X125.272 Y99.421 E53.19093
G1 X125.353 Y99.652 E53.19907
G1 X125.392 Y99.879 E53.20674
G1 X125.393 Y100.107 E53.21432
G1 X125.352 Y100.353 E53.22261
G1 X125.272 Y100.578 E53.23056
G1 X125.159 Y100.781 E53.23828
G1 X125.009 Y100.966 E53.24620
G1 X124.831 Y101.122 E53.25408
G1 X124.624 Y101.250 E53.26217
G1 X124.414 Y101.335 E53.26971
G1 X124.173 Y101.386 E53.27790
G1 X78.170 Y103.396 E54.80943
G1 X77.867 Y103.396 E54.81950
G1 X77.287 Y103.322 E54.83895
G1 X76.766 Y103.163 E54.85707
G1 X76.217 Y102.893 E54.87742
G1 X75.756 Y102.551 E54.89651
G1 X75.382 Y102.162 E54.91446
G1 X75.050 Y101.680 E54.93392
G1 X74.797 Y101.136 E54.95388
G1 X74.651 Y100.577 E54.97309
G1 X74.602 Y99.999 E54.99239
G1 X74.650 Y99.430 E55.01138
G1 X74.796 Y98.868 E55.03069
G1 X75.035 Y98.340 E55.04997
G1 X75.335 Y97.896 E55.06779
G1 X75.730 Y97.475 E55.08699
G1 X76.223 Y97.103 E55.10753
G1 X76.733 Y96.847 E55.12651
G1 X77.253 Y96.688 E55.14460
G1 X77.833 Y96.608 E55.16407
G1 X78.173 Y96.603 E55.17538
G1 X124.033 Y98.599 E56.70214
G0 F9000 X124.077 Y98.201
;TYPE:WALL-OUTER
G1 F1980 X124.219 Y98.213 E56.70688
G1 X124.531 Y98.280 E56.71749
G1 X124.809 Y98.392 E56.72746
G1 X125.070 Y98.553 E56.73766
G1 X125.299 Y98.755 E56.74781
G1 X125.490 Y98.991 E56.75791
G1 X125.638 Y99.256 E56.76801
G1 X125.741 Y99.550 E56.77837
G1 X125.792 Y99.847 E56.78839
G1 X125.793 Y100.144 E56.79827
G1 X125.742 Y100.448 E56.80852
G1 X125.638 Y100.743 E56.81893
G1 X125.490 Y101.008 E56.82902
G1 X125.299 Y101.244 E56.83912
G1 X125.070 Y101.446 E56.84928
G1 X124.809 Y101.607 E56.85948
G1 X124.531 Y101.719 E56.86944
G1 X124.227 Y101.784 E56.87978
G1 X78.164 Y103.796 E58.41331
G1 X77.839 Y103.796 E58.42412
G1 X77.201 Y103.714 E58.44551
G1 X76.623 Y103.537 E58.46562
G1 X76.025 Y103.244 E58.48776
G1 X76.010 Y103.236 E58.48833
G1 X75.508 Y102.865 E58.50909
G1 X75.074 Y102.418 E58.52981
G1 X74.700 Y101.878 E58.55166
G1 X74.426 Y101.287 E58.57333
G1 X74.254 Y100.639 E58.59563
G1 X74.203 Y100.021 E58.61625
G1 X74.201 Y99.997 E58.61705
G1 X74.252 Y99.382 E58.63758
G1 X74.254 Y99.361 E58.63828
G1 X74.419 Y98.730 E58.65997
G1 X74.674 Y98.167 E58.68053
G1 X75.022 Y97.645 E58.70139
G1 X75.463 Y97.176 E58.72281
G1 X76.010 Y96.763 E58.74560
G1 X76.564 Y96.484 E58.76623
G1 X77.163 Y96.297 E58.78710
G1 X77.805 Y96.208 E58.80866
G1 X78.167 Y96.203 E58.82070
G1 X124.077 Y98.201 E60.34912
G0 F9000 X123.923 Y98.673
;TYPE:SKIN
G1 F1980 X121.159 Y101.437 E60.47913
G0 F9000 X120.568 Y101.462
G1 F1980 X123.381 Y98.649 E60.61145
G0 F9000 X122.839 Y98.626
G1 F1980 X119.976 Y101.488 E60.74609
G0 F9000 X119.385 Y101.515
G1 F1980 X122.296 Y98.603 E60.88304
G0 F9000 X121.755 Y98.579
G1 F1980 X118.793 Y101.540 E61.02234
G0 F9000 X118.202 Y101.566
G1 F1980 X121.212 Y98.555 E61.16394
G0 F9000 X120.670 Y98.532
G1 F1980 X117.610 Y101.592 E61.30787
G0 F9000 X117.019 Y101.618
G1 F1980 X120.128 Y98.508 E61.45414
G0 F9000 X121.751 Y101.411
G1 F1980 X124.413 Y98.749 E61.57935
G0 F9000 X124.785 Y98.942
G1 F1980 X122.342 Y101.385 E61.69426
G0 F9000 X122.934 Y101.359
G1 F1980 X125.064 Y99.229 E61.79445
G0 F9000 X125.251 Y99.608
G1 F1980 X123.525 Y101.334 E61.87563
G0 F9000 X124.117 Y101.307
G1 F1980 X125.309 Y100.116 E61.93168
G0 F9000 X119.586 Y98.485
G1 F1980 X116.427 Y101.643 E62.08024
G0 F9000 X115.836 Y101.669
G1 F1980 X119.044 Y98.461 E62.23114
G0 F9000 X118.502 Y98.437
G1 F1980 X115.244 Y101.695 E62.38439
G0 F9000 X114.653 Y101.721
G1 F1980 X117.960 Y98.414 E62.53994
G0 F9000 X117.418 Y98.390
G1 F1980 X114.061 Y101.747 E62.69784
G0 F9000 X113.470 Y101.773
G1 F1980 X116.876 Y98.367 E62.85805
G0 F9000 X116.333 Y98.343
G1 F1980 X112.878 Y101.799 E63.02058
G0 F9000 X112.287 Y101.824
G1 F1980 X115.792 Y98.319 E63.18545
G0 F9000 X115.249 Y98.296
G1 F1980 X111.695 Y101.850 E63.35262
G0 F9000 X111.104 Y101.876
G1 F1980 X114.707 Y98.272 E63.52212
G0 F9000 X114.165 Y98.248
G1 F1980 X110.512 Y101.902 E63.69396
G0 F9000 X109.921 Y101.928
G1 F1980 X113.623 Y98.225 E63.86812
G0 F9000 X113.081 Y98.201
G1 F1980 X109.329 Y101.954 E64.04462
G0 F9000 X108.738 Y101.979
G1 F1980 X112.539 Y98.178 E64.22341
G0 F9000 X111.997 Y98.154
G1 F1980 X108.146 Y102.005 E64.40455
G0 F9000 X107.554 Y102.031
G1 F1980 X111.455 Y98.130 E64.58804
G0 F9000 X110.913 Y98.107
G1 F1980 X106.963 Y102.057 E64.77384
