;Generated with Cura_SteamEngine 15.01
; Default start code
G28 ; Home extruder
G1 Z15 F2000
M107 ; Turn off fan
G90 ; Absolute positioning
M82 ; Extruder in absolute mode
M104 T0 S180
M190 S50
; Activate all used extruder
G92 E0 ; Reset extruder position
; Wait for all used extruders to reach temperature
M109 T0 S210 R210
;Layer count: 40
;LAYER:0
M107
G0 F9000 X140.716 Y141.476 Z0.300
;TYPE:SKIRT
G1 F1800 X141.673 Y140.537 E0.06689
G1 X142.728 Y139.705 E0.13392
G1 X143.863 Y138.991 E0.20082
G1 X145.068 Y138.401 E0.26776
G1 X146.327 Y137.944 E0.33458
G1 X147.630 Y137.620 E0.40157
G1 X148.961 Y137.439 E0.46858
G1 X150.065 Y137.407 E0.52368
G1 X150.307 Y137.397 E0.53577
G1 X151.462 Y137.489 E0.59357
G1 X151.678 Y137.507 E0.60439
G1 X152.961 Y137.749 E0.66952
G1 X154.068 Y138.079 E0.72715
G1 X154.281 Y138.144 E0.73826
G1 X155.330 Y138.587 E0.79507
G1 X155.528 Y138.673 E0.80584
G1 X156.660 Y139.299 E0.87038
G1 X157.756 Y140.066 E0.93712
G1 X158.766 Y140.945 E1.00392
G1 X159.680 Y141.928 E1.07088
G1 X160.364 Y142.844 E1.12792
G1 X160.499 Y143.024 E1.13914
G1 X161.169 Y144.162 E1.20503
G1 X161.738 Y145.405 E1.27323
G1 X162.160 Y146.684 E1.34042
G1 X162.443 Y147.990 E1.40709
G1 X162.578 Y149.229 E1.46927
G1 X162.602 Y150.000 E1.50776
G1 X162.578 Y150.758 E1.54559
G1 X162.483 Y151.689 E1.59228
G1 X162.421 Y152.126 E1.61430
G1 X162.198 Y153.150 E1.66659
G1 X161.823 Y154.342 E1.72893
G1 X161.724 Y154.621 E1.74370
G1 X161.216 Y155.746 E1.80528
G1 X160.525 Y156.935 E1.87389
G1 X159.831 Y157.874 E1.93214
G1 X159.698 Y158.051 E1.94319
G1 X158.813 Y159.010 E2.00830
G1 X157.809 Y159.892 E2.07497
G1 X156.712 Y160.667 E2.14198
G1 X155.542 Y161.319 E2.20880
G1 X154.487 Y161.768 E2.26600
G1 X154.293 Y161.852 E2.27655
G1 X153.194 Y162.183 E2.33381
G1 X152.995 Y162.243 E2.34418
G1 X151.701 Y162.487 E2.40988
G1 X150.562 Y162.582 E2.46690
G1 X150.343 Y162.600 E2.47786
G1 X149.184 Y162.570 E2.53570
G1 X148.968 Y162.561 E2.54649
G1 X147.692 Y162.391 E2.61071
G1 X146.392 Y162.076 E2.67745
G1 X145.130 Y161.625 E2.74431
G1 X143.922 Y161.041 E2.81125
G1 X142.784 Y160.333 E2.87811
G1 X141.724 Y159.507 E2.94516
G1 X140.763 Y158.573 E3.01202
G1 X139.902 Y157.544 E3.07895
G1 X139.158 Y156.425 E3.14600
G1 X138.621 Y155.398 E3.20381
G1 X138.512 Y155.186 E3.21571
G1 X138.032 Y153.957 E3.28153
G1 X137.679 Y152.663 E3.34845
G1 X137.468 Y151.347 E3.41494
G1 X137.404 Y150.252 E3.46967
G1 X137.399 Y149.948 E3.48484
G1 X137.450 Y148.830 E3.54067
G1 X137.614 Y147.715 E3.59690
G1 X137.689 Y147.295 E3.61818
G1 X137.941 Y146.372 E3.66592
G1 X138.036 Y146.033 E3.68348
G1 X138.487 Y144.873 E3.74557
G1 X139.050 Y143.772 E3.80727
G1 X139.159 Y143.573 E3.81859
G1 X139.864 Y142.506 E3.88239
G1 X140.716 Y141.476 E3.94908
G0 F9000 X141.011 Y141.747
G1 F1800 X141.938 Y140.837 E4.01389
G1 X142.959 Y140.032 E4.07875
G1 X144.058 Y139.341 E4.14352
G1 X145.225 Y138.770 E4.20834
G1 X146.443 Y138.327 E4.27300
G1 X147.705 Y138.014 E4.33787
G1 X148.994 Y137.838 E4.40277
G1 X150.122 Y137.805 E4.45907
G1 X150.299 Y137.798 E4.46791
G1 X151.430 Y137.888 E4.52451
G1 X151.625 Y137.904 E4.53428
G1 X152.867 Y138.138 E4.59733
G1 X153.953 Y138.462 E4.65387
G1 X154.145 Y138.520 E4.66388
G1 X155.173 Y138.955 E4.71957
G1 X155.351 Y139.032 E4.72924
G1 X156.448 Y139.639 E4.79179
G1 X157.510 Y140.382 E4.85645
G1 X158.488 Y141.232 E4.92110
G1 X159.372 Y142.185 E4.98595
G1 X160.044 Y143.084 E5.04195
G1 X160.166 Y143.247 E5.05210
G1 X160.814 Y144.347 E5.11580
G1 X161.365 Y145.551 E5.18186
G1 X161.774 Y146.790 E5.24695
G1 X162.048 Y148.055 E5.31153
G1 X162.179 Y149.257 E5.37185
G1 X162.202 Y150.000 E5.40894
G1 X162.179 Y150.732 E5.44547
G1 X162.086 Y151.641 E5.49106
G1 X162.027 Y152.055 E5.51192
G1 X161.811 Y153.047 E5.56258
G1 X161.444 Y154.215 E5.62366
G1 X161.353 Y154.472 E5.63726
G1 X160.860 Y155.563 E5.69699
G1 X160.190 Y156.715 E5.76347
G1 X159.510 Y157.635 E5.82055
G1 X159.390 Y157.794 E5.83049
G1 X158.533 Y158.723 E5.89355
G1 X157.561 Y159.578 E5.95813
G1 X156.499 Y160.328 E6.02299
G1 X155.365 Y160.959 E6.08774
G1 X154.352 Y161.391 E6.14268
G1 X154.155 Y161.476 E6.15338
G1 X153.079 Y161.800 E6.20945
G1 X153.079 Y161.799 E6.20950
G1 X152.900 Y161.854 E6.21884
G1 X151.648 Y162.090 E6.28240
G1 X150.529 Y162.183 E6.33842
G1 X150.331 Y162.199 E6.34833
G1 X149.197 Y162.170 E6.40493
G1 X149.003 Y162.162 E6.41461
G1 X147.766 Y161.998 E6.47687
G1 X146.507 Y161.692 E6.54151
G1 X145.285 Y161.256 E6.60624
G1 X144.115 Y160.690 E6.67108
G1 X143.013 Y160.005 E6.73582
G1 X141.987 Y159.205 E6.80072
G1 X141.056 Y158.301 E6.86547
G1 X140.223 Y157.304 E6.93028
G1 X139.503 Y156.221 E6.99516
G1 X138.976 Y155.214 E7.05187
G1 X138.877 Y155.022 E7.06265
G1 X138.412 Y153.831 E7.12643
G1 X138.071 Y152.579 E7.19117
G1 X137.866 Y151.304 E7.25560
G1 X137.804 Y150.237 E7.30892
G1 X137.799 Y149.954 E7.32304
G1 X137.849 Y148.868 E7.37728
G1 X138.009 Y147.779 E7.43219
G1 X138.080 Y147.383 E7.45226
G1 X138.327 Y146.479 E7.49902
G1 X138.416 Y146.160 E7.51554
G1 X138.853 Y145.037 E7.57566
G1 X139.404 Y143.958 E7.63610
G1 X139.502 Y143.779 E7.64629
G1 X140.186 Y142.745 E7.70814
G1 X141.011 Y141.747 E7.77274
G1 F2400 E3.77274
G0 F9000 X143.812 Y144.321
;TYPE:WALL-INNER
G1 F2400 E7.77274
G1 F1800 X144.448 Y143.697 E7.81719
G1 X145.156 Y143.139 E7.86216
G1 X145.908 Y142.666 E7.90649
G1 X146.714 Y142.272 E7.95124
G1 X147.556 Y141.966 E7.99594
G1 X148.415 Y141.752 E8.04011
G1 X149.308 Y141.631 E8.08507
G1 X150.231 Y141.604 E8.13113
G1 X151.110 Y141.674 E8.17513
G1 X151.974 Y141.837 E8.21899
G1 X152.844 Y142.096 E8.26428
G1 X153.678 Y142.449 E8.30946
G1 X154.429 Y142.865 E8.35229
G1 X155.167 Y143.381 E8.39722
G1 X155.843 Y143.969 E8.44192
G1 X156.449 Y144.621 E8.48633
G1 X157.000 Y145.359 E8.53228
G1 X157.437 Y146.100 E8.57519
G1 X157.823 Y146.944 E8.62150
G1 X158.104 Y147.795 E8.66621
G1 X158.292 Y148.665 E8.71061
G1 X158.384 Y149.511 E8.75307
G1 X158.399 Y149.999 E8.77743
G1 X158.385 Y150.481 E8.80148
G1 X158.313 Y151.179 E8.83649
G1 X158.283 Y151.389 E8.84708
G1 X158.135 Y152.072 E8.88194
G1 X157.844 Y152.998 E8.93037
G1 X157.478 Y153.818 E8.97517
G1 X157.010 Y154.622 E9.02158
G1 X156.463 Y155.363 E9.06753
G1 X155.876 Y155.999 E9.11071
G1 X155.201 Y156.592 E9.15554
G1 X154.473 Y157.106 E9.20000
G1 X153.692 Y157.541 E9.24460
G1 X152.852 Y157.899 E9.29015
G1 X151.997 Y158.157 E9.33471
G1 X151.134 Y158.320 E9.37852
G1 X150.224 Y158.395 E9.42408
G1 X149.332 Y158.372 E9.46859
G1 X148.465 Y158.257 E9.51223
G1 X147.597 Y158.046 E9.55679
G1 X146.753 Y157.745 E9.60150
G1 X145.957 Y157.360 E9.64561
G1 X145.187 Y156.881 E9.69085
G1 X144.485 Y156.334 E9.73525
G1 X143.846 Y155.714 E9.77967
G1 X143.274 Y155.029 E9.82420
G1 X142.777 Y154.282 E9.86896
G1 X142.348 Y153.462 E9.91513
G1 X142.026 Y152.639 E9.95922
G1 X141.789 Y151.770 E10.00416
G1 X141.648 Y150.895 E10.04838
G1 X141.602 Y150.095 E10.08835
G1 X141.600 Y149.999 E10.09314
G1 X141.635 Y149.240 E10.13105
G1 X141.759 Y148.400 E10.17341
G1 X141.989 Y147.493 E10.22010
G1 X142.026 Y147.362 E10.22689
G1 X142.325 Y146.593 E10.26805
G1 X142.758 Y145.745 E10.31555
G1 X143.249 Y145.002 E10.35998
G1 X143.812 Y144.321 E10.40407
G0 F9000 X146.745 Y146.745
G1 F1800 X146.276 Y147.294 E10.44009
G1 X145.905 Y147.901 E10.47558
G1 X145.623 Y148.579 E10.51222
G1 X145.456 Y149.280 E10.54817
G1 X145.398 Y149.999 E10.58416
G1 X145.447 Y150.637 E10.61608
G1 X145.457 Y150.734 E10.62095
G1 X145.612 Y151.382 E10.65419
G1 X145.869 Y152.017 E10.68836
G1 X145.896 Y152.080 E10.69178
G1 X146.275 Y152.704 E10.72821
G1 X146.745 Y153.254 E10.76430
G1 X147.294 Y153.723 E10.80032
G1 X147.911 Y154.100 E10.83640
G1 X148.577 Y154.377 E10.87238
G1 X149.280 Y154.544 E10.90843
G1 X150.000 Y154.602 E10.94447
G1 X150.719 Y154.544 E10.98046
G1 X151.422 Y154.377 E11.01651
G1 X152.088 Y154.100 E11.05249
G1 X152.705 Y153.723 E11.08857
G1 X153.254 Y153.254 E11.12459
G1 X153.723 Y152.705 E11.16061
G1 X154.094 Y152.098 E11.19610
G1 X154.376 Y151.420 E11.23274
G1 X154.543 Y150.720 E11.26864
G1 X154.602 Y150.001 E11.30463
G1 X154.552 Y149.362 E11.33661
G1 X154.542 Y149.265 E11.34148
G1 X154.387 Y148.617 E11.37472
G1 X154.130 Y147.982 E11.40889
G1 X154.103 Y147.919 E11.41231
G1 X153.724 Y147.295 E11.44874
G1 X153.254 Y146.745 E11.48483
G1 X152.705 Y146.276 E11.52085
G1 X152.088 Y145.899 E11.55693
G1 X151.422 Y145.622 E11.59291
G1 X150.719 Y145.455 E11.62896
G1 X150.000 Y145.398 E11.66495
G1 X149.280 Y145.454 E11.70098
G1 X148.577 Y145.622 E11.73704
G1 X147.911 Y145.899 E11.77302
G1 X147.294 Y146.276 E11.80910
G1 X146.745 Y146.745 E11.84512
G0 F9000 X147.029 Y147.029
;TYPE:WALL-OUTER
G1 F1800 X146.601 Y147.530 E11.87799
G1 X146.258 Y148.090 E11.91076
G1 X146.005 Y148.702 E11.94380
G1 X145.852 Y149.343 E11.97667
G1 X145.799 Y150.000 E12.00956
G1 X145.846 Y150.602 E12.03968
G1 X145.852 Y150.667 E12.04294
G1 X145.994 Y151.260 E12.07336
G1 X146.237 Y151.861 E12.10570
G1 X146.600 Y152.469 E12.14103
G1 X147.029 Y152.970 E12.17394
G1 X147.530 Y153.398 E12.20681
G1 X148.093 Y153.743 E12.23975
G1 X148.701 Y153.995 E12.27259
G1 X149.343 Y154.148 E12.30552
G1 X150.000 Y154.201 E12.33840
G1 X150.656 Y154.148 E12.37124
G1 X151.298 Y153.995 E12.40416
G1 X151.906 Y153.743 E12.43700
G1 X152.469 Y153.398 E12.46994
G1 X152.970 Y152.970 E12.50281
G1 X153.398 Y152.469 E12.53569
G1 X153.741 Y151.909 E12.56845
G1 X153.994 Y151.297 E12.60149
G1 X154.147 Y150.657 E12.63432
G1 X154.201 Y150.000 E12.66721
G1 X154.153 Y149.397 E12.69739
G1 X154.147 Y149.332 E12.70064
G1 X154.005 Y148.739 E12.73106
G1 X153.762 Y148.138 E12.76341
G1 X153.399 Y147.530 E12.79873
G1 X152.970 Y147.029 E12.83164
G1 X152.469 Y146.601 E12.86452
G1 X151.906 Y146.256 E12.89746
G1 X151.298 Y146.004 E12.93029
G1 X150.656 Y145.851 E12.96322
G1 X150.000 Y145.799 E12.99605
G1 X149.343 Y145.851 E13.02893
G1 X148.701 Y146.004 E13.06186
G1 X148.093 Y146.256 E13.09469
G1 X147.530 Y146.601 E13.12763
G1 X147.029 Y147.029 E13.16051
G0 F9000 X146.802 Y146.833
G0 X143.734 Y144.259
G0 X143.515 Y144.053
G1 F1800 X144.188 Y143.393 E13.20754
G1 X144.927 Y142.810 E13.25450
G1 X145.708 Y142.319 E13.30052
G1 X146.560 Y141.902 E13.34785
G1 X147.437 Y141.583 E13.39440
G1 X148.346 Y141.358 E13.44112
G1 X149.271 Y141.232 E13.48770
G1 X150.222 Y141.204 E13.53516
G1 X150.239 Y141.203 E13.53601
G1 X151.160 Y141.277 E13.58211
G1 X152.065 Y141.447 E13.62805
G1 X152.973 Y141.718 E13.67533
G1 X152.983 Y141.720 E13.67583
G1 X153.832 Y142.079 E13.72182
G1 X154.644 Y142.527 E13.76809
G1 X155.417 Y143.067 E13.81513
G1 X156.117 Y143.677 E13.86146
G1 X156.759 Y144.367 E13.90848
G1 X157.335 Y145.139 E13.95653
G1 X157.793 Y145.917 E14.00157
G1 X158.195 Y146.794 E14.04970
G1 X158.492 Y147.695 E14.09703
G1 X158.686 Y148.590 E14.14272
G1 X158.784 Y149.494 E14.18809
G1 X158.800 Y149.994 E14.21304
G1 X158.784 Y150.507 E14.23865
G1 X158.711 Y151.223 E14.27456
G1 X158.677 Y151.460 E14.28650
G1 X158.524 Y152.166 E14.32254
G1 X158.218 Y153.139 E14.37343
G1 X157.838 Y153.995 E14.42015
G1 X157.344 Y154.845 E14.46920
G1 X156.783 Y155.604 E14.51629
G1 X156.152 Y156.290 E14.56279
G1 X155.450 Y156.907 E14.60942
G1 X154.691 Y157.443 E14.65578
G1 X153.866 Y157.902 E14.70288
G1 X152.997 Y158.272 E14.75000
G1 X152.086 Y158.547 E14.79747
G1 X151.183 Y158.718 E14.84333
G1 X150.237 Y158.796 E14.89068
G1 X149.313 Y158.772 E14.93680
G1 X149.293 Y158.771 E14.93779
G1 X148.392 Y158.651 E14.98314
G1 X147.482 Y158.430 E15.02986
G1 X146.603 Y158.117 E15.07641
G1 X145.761 Y157.709 E15.12309
G1 X144.961 Y157.212 E15.17008
G1 X144.218 Y156.632 E15.21711
G1 X143.552 Y155.986 E15.26339
G1 X142.957 Y155.274 E15.30969
G1 X142.430 Y154.481 E15.35719
G1 X141.993 Y153.647 E15.40416
G1 X141.646 Y152.766 E15.45140
G1 X141.398 Y151.855 E15.49851
G1 X141.251 Y150.942 E15.54464
G1 X141.202 Y150.104 E15.58652
G1 X141.200 Y150.009 E15.59126
G1 X141.238 Y149.194 E15.63197
G1 X141.365 Y148.329 E15.67559
G1 X141.400 Y148.132 E15.68557
G1 X141.604 Y147.385 E15.72420
G1 X141.648 Y147.228 E15.73234
G1 X141.958 Y146.432 E15.77495
G1 X142.410 Y145.549 E15.82444
G1 X142.422 Y145.527 E15.82569
G1 X142.924 Y144.768 E15.87109
G1 X143.515 Y144.053 E15.91737
G0 F9000 X143.983 Y144.266
;TYPE:SKIN
G1 F1800 X146.557 Y146.840 E16.09898
G0 F9000 X146.839 Y146.557
G1 F1800 X144.268 Y143.986 E16.28038
G0 F9000 X144.559 Y143.710
G1 F1800 X147.144 Y146.296 E16.46280
G0 F9000 X147.480 Y146.066
G1 F1800 X144.876 Y143.462 E16.64653
G0 F9000 X145.192 Y143.212
G1 F1800 X147.831 Y145.851 E16.83272
G0 F9000 X148.225 Y145.680
G1 F1800 X145.538 Y142.992 E17.02234
G0 F9000 X145.885 Y142.774
G1 F1800 X148.635 Y145.524 E17.21637
G0 F9000 X149.093 Y145.416
G1 F1800 X146.260 Y142.583 E17.41625
G0 F9000 X146.639 Y142.397
G1 F1800 X149.591 Y145.349 E17.62453
G0 F9000 X150.137 Y145.328
G1 F1800 X147.044 Y142.236 E17.84272
G0 F9000 X147.460 Y142.086
G1 F1800 X150.755 Y145.381 E18.07520
G0 F9000 X151.512 Y145.572
G1 F1800 X147.901 Y141.962 E18.32994
G0 F9000 X148.355 Y141.849
G1 F1800 X152.660 Y146.155 E18.63372
G0 F9000 X153.841 Y147.336
G1 F1800 X158.146 Y151.641 E18.93746
G0 F9000 X158.041 Y152.101
G1 F1800 X154.415 Y148.475 E19.19330
G0 F9000 X154.618 Y149.244
G1 F1800 X157.905 Y152.531 E19.42521
G0 F9000 X157.770 Y152.962
G1 F1800 X154.670 Y149.862 E19.64393
G0 F9000 X154.647 Y150.405
G1 F1800 X157.596 Y153.353 E19.85197
G0 F9000 X157.422 Y153.745
G1 F1800 X154.580 Y150.903 E20.05248
G0 F9000 X154.471 Y151.360
G1 F1800 X157.217 Y154.106 E20.24623
G0 F9000 X157.008 Y154.463
G1 F1800 X154.316 Y151.770 E20.43620
G0 F9000 X154.145 Y152.165
G1 F1800 X156.779 Y154.799 E20.62204
G0 F9000 X156.539 Y155.125
G1 F1800 X153.930 Y152.516 E20.80612
G0 F9000 X153.701 Y152.853
G1 F1800 X156.286 Y155.437 E20.98847
G0 F9000 X156.014 Y155.731
G1 F1800 X153.440 Y153.157 E21.17008
G0 F9000 X153.158 Y153.441
G1 F1800 X155.733 Y156.016 E21.35176
G0 F9000 X155.432 Y156.281
G1 F1800 X152.853 Y153.702 E21.53372
G0 F9000 X152.517 Y153.931
G1 F1800 X155.130 Y156.544 E21.71809
G0 F9000 X154.798 Y156.778
G1 F1800 X152.166 Y154.146 E21.90379
G0 F9000 X151.771 Y154.317
G1 F1800 X154.466 Y157.012 E22.09393
G0 F9000 X154.106 Y157.217
G1 F1800 X151.361 Y154.473 E22.28757
G0 F9000 X150.904 Y154.581
G1 F1800 X153.742 Y157.419 E22.48781
G0 F9000 X153.354 Y157.597
G1 F1800 X150.405 Y154.648 E22.69588
G0 F9000 X149.862 Y154.670
G1 F1800 X152.957 Y157.766 E22.91428
G0 F9000 X152.536 Y157.910
G1 F1800 X149.242 Y154.616 E23.14669
G0 F9000 X148.486 Y154.425
G1 F1800 X152.102 Y158.041 E23.40182
G0 F9000 X151.636 Y158.142
G1 F1800 X147.337 Y153.843 E23.70514
G0 F9000 X146.156 Y152.662
G1 F1800 X141.851 Y148.357 E24.00888
G0 F9000 X141.966 Y147.906
G1 F1800 X145.584 Y151.523 E24.26411
G0 F9000 X145.379 Y150.753
G1 F1800 X142.081 Y147.455 E24.49680
G0 F9000 X142.234 Y147.042
G1 F1800 X145.329 Y150.137 E24.71517
G0 F9000 X145.350 Y149.593
G1 F1800 X142.393 Y146.636 E24.92381
G0 F9000 X142.583 Y146.260
G1 F1800 X145.417 Y149.094 E25.12376
G0 F9000 X145.527 Y148.638
G1 F1800 X142.774 Y145.886 E25.31796
G0 F9000 X142.990 Y145.536
G1 F1800 X145.682 Y148.227 E25.50786
G0 F9000 X145.852 Y147.832
G1 F1800 X143.215 Y145.195 E25.69392
G0 F9000 X143.457 Y144.872
G1 F1800 X146.067 Y147.481 E25.87803
G0 F9000 X146.296 Y147.145
G1 F1800 X143.714 Y144.563 E26.06021
G0 F9000 X141.773 Y148.844
G1 F1800 X151.161 Y158.232 E26.72258
G0 F9000 X150.642 Y158.279
G1 F1800 X141.709 Y149.346 E27.35285
G0 F9000 X141.684 Y149.886
G1 F1800 X150.108 Y158.310 E27.94721
G0 F9000 X149.527 Y158.295
G1 F1800 X141.704 Y150.473 E28.49913
G0 F9000 X141.762 Y151.095
G1 F1800 X148.899 Y158.233 E29.00272
G0 F9000 X148.213 Y158.112
G1 F1800 X141.874 Y151.774 E29.44993
G0 F9000 X142.084 Y152.549
G1 F1800 X147.438 Y157.903 E29.82769
G0 F9000 X146.504 Y157.534
G1 F1800 X142.446 Y153.477 E30.11397
G0 F9000 X143.250 Y154.847
G1 F1800 X145.166 Y156.763 E30.24915
G0 F9000 X152.087 Y154.100
G0 X158.233 Y151.162
G1 F1800 X148.845 Y141.774 E30.91153
G0 F9000 X149.347 Y141.710
G1 F1800 X158.286 Y150.649 E31.54222
G0 F9000 X158.315 Y150.113
G1 F1800 X149.896 Y141.694 E32.13623
G0 F9000 X150.471 Y141.703
G1 F1800 X158.304 Y149.536 E32.68889
G0 F9000 X158.237 Y148.903
