;Generated with Cura_SteamEngine 15.01
; Default start code
G28 ; Home extruder
G1 Z15 F2000
M107 ; Turn off fan
G90 ; Absolute positioning
M82 ; Extruder in absolute mode
M104 T0 S180
M190 S50
; Activate all used extruder
G92 E0 ; Reset extruder position
; Wait for all used extruders to reach temperature
M109 T0 S210 R210
;Layer count: 182
;LAYER:0
M107
G0 F9000 X87.239 Y83.247 Z0.300
G0 X87.729 Y83.345
;TYPE:SKIRT
G1 F1800 X87.729 Y82.869 E0.02375
G1 X91.814 Y80.829 E0.25155
G1 X94.048 Y80.829 E0.36300
G1 X95.248 Y79.629 E0.44767
G1 X107.429 Y79.629 E1.05538
G1 X107.429 Y80.829 E1.11525
G1 X108.290 Y80.829 E1.15821
G1 X112.029 Y82.602 E1.36466
G1 X112.029 Y82.720 E1.37054
G1 X112.143 Y82.663 E1.37690
G1 X118.089 Y88.609 E1.79642
G1 X117.493 Y89.212 E1.83872
G1 X119.029 Y90.748 E1.94710
G1 X119.029 Y93.471 E2.08295
G1 X120.429 Y94.170 E2.16102
G1 X120.429 Y105.587 E2.73061
G1 X119.566 Y106.018 E2.77874
G1 X118.829 Y107.823 E2.87601
G1 X118.829 Y112.029 E3.08584
G1 X116.229 Y112.029 E3.21556
G1 X116.229 Y113.109 E3.26944
G1 X112.141 Y117.197 E3.55787
G1 X112.029 Y117.141 E3.56412
G1 X112.029 Y117.256 E3.56986
G1 X108.290 Y119.029 E3.77631
G1 X107.429 Y119.029 E3.81926
G1 X107.429 Y120.429 E3.88911
G1 X99.709 Y120.429 E4.27426
G1 X99.323 Y120.815 E4.30149
G1 X92.329 Y119.411 E4.65739
G1 X92.329 Y119.029 E4.67645
G1 X91.814 Y119.029 E4.70214
G1 X87.729 Y116.989 E4.92994
G1 X87.729 Y116.229 E4.96786
G1 X86.849 Y116.229 E5.01176
G1 X82.648 Y112.029 E5.30813
G1 X81.129 Y112.029 E5.38391
G1 X81.129 Y109.110 E5.52954
G1 X78.951 Y106.929 E5.68332
G1 X79.529 Y106.350 E5.72413
G1 X79.529 Y100.149 E6.03350
G1 X79.849 Y99.829 E6.05608
G1 X79.529 Y99.509 E6.07866
G1 X79.529 Y93.417 E6.38259
G1 X79.617 Y93.395 E6.38711
G1 X78.950 Y92.727 E6.43421
G1 X82.364 Y89.313 E6.67509
G1 X81.761 Y88.704 E6.71784
G1 X87.239 Y83.247 E7.10360
G1 X87.729 Y83.345 E7.12854
G0 F9000 X88.129 Y83.833
G1 F1800 X88.129 Y83.116 E7.16431
G1 X91.909 Y81.229 E7.37508
G1 X94.049 Y81.229 E7.48185
G1 X94.159 Y81.284 E7.48798
G1 X95.414 Y80.029 E7.57653
G1 X107.029 Y80.029 E8.15601
G1 X107.029 Y81.229 E8.21587
G1 X108.200 Y81.229 E8.27430
G1 X111.629 Y82.855 E8.46363
G1 X111.629 Y83.368 E8.48922
G1 X112.064 Y83.150 E8.51350
G1 X117.525 Y88.611 E8.89880
G1 X116.929 Y89.214 E8.94110
G1 X118.629 Y90.914 E9.06104
G1 X118.629 Y93.718 E9.20094
G1 X120.029 Y94.417 E9.27900
G1 X120.029 Y105.340 E9.82395
G1 X119.253 Y105.728 E9.86724
G1 X118.429 Y107.744 E9.97589
G1 X118.429 Y111.629 E10.16972
G1 X115.829 Y111.629 E10.29943
G1 X115.829 Y112.943 E10.36499
G1 X112.062 Y116.710 E10.63077
G1 X111.629 Y116.493 E10.65493
G1 X111.629 Y117.003 E10.68038
G1 X108.200 Y118.629 E10.86971
G1 X107.029 Y118.629 E10.92813
G1 X107.029 Y120.029 E10.99798
G1 X99.544 Y120.029 E11.37141
G1 X99.192 Y120.381 E11.39624
G1 X92.729 Y119.084 E11.72511
G1 X92.729 Y118.629 E11.74781
G1 X91.909 Y118.629 E11.78872
G1 X88.129 Y116.742 E11.99950
G1 X88.129 Y115.829 E12.04505
G1 X87.015 Y115.829 E12.10063
G1 X82.814 Y111.629 E12.39699
G1 X81.529 Y111.629 E12.46110
G1 X81.529 Y108.944 E12.59506
G1 X79.516 Y106.929 E12.73716
G1 X80.253 Y106.191 E12.78919
G1 X79.929 Y106.126 E12.80568
G1 X79.929 Y100.315 E13.09559
G1 X80.415 Y99.829 E13.12988
G1 X79.929 Y99.343 E13.16417
G1 X79.929 Y93.730 E13.44420
G1 X80.400 Y93.613 E13.46842
G1 X79.515 Y92.727 E13.53089
G1 X82.928 Y89.315 E13.77166
G1 X82.326 Y88.706 E13.81438
G1 X87.370 Y83.681 E14.16960
G1 X88.129 Y83.833 E14.20821
G1 F2400 E10.20821
G0 F9000 X97.960 Y97.285
;TYPE:WALL-INNER
G1 F2400 E14.20821
G1 F1800 X98.473 Y96.965 E14.23838
G1 X99.007 Y96.751 E14.26708
G1 X99.546 Y96.634 E14.29460
G1 X100.150 Y96.605 E14.32477
G1 X100.688 Y96.674 E14.35183
G1 X101.270 Y96.848 E14.38213
G1 X101.779 Y97.104 E14.41056
G1 X102.224 Y97.433 E14.43817
G1 X102.626 Y97.847 E14.46696
G1 X102.969 Y98.347 E14.49721
G1 X103.193 Y98.845 E14.52445
G1 X103.343 Y99.403 E14.55328
G1 X103.397 Y100.003 E14.58333
G1 X103.349 Y100.570 E14.61172
G1 X103.209 Y101.106 E14.63936
G1 X102.975 Y101.638 E14.66836
G1 X102.644 Y102.133 E14.69806
G1 X102.263 Y102.531 E14.72555
G1 X101.800 Y102.878 E14.75442
G1 X101.267 Y103.152 E14.78432
G1 X100.712 Y103.322 E14.81328
G1 X100.140 Y103.395 E14.84205
G1 X99.577 Y103.371 E14.87016
G1 X99.026 Y103.253 E14.89827
G1 X98.474 Y103.035 E14.92788
G1 X97.979 Y102.731 E14.95686
G1 X97.567 Y102.368 E14.98426
G1 X97.199 Y101.919 E15.01322
G1 X96.914 Y101.416 E15.04206
G1 X96.722 Y100.883 E15.07033
G1 X96.616 Y100.292 E15.10028
G1 X96.600 Y99.983 E15.11572
G1 X96.611 Y99.724 E15.12865
G1 X96.706 Y99.171 E15.15665
G1 X96.895 Y98.623 E15.18557
G1 X97.173 Y98.116 E15.21441
G1 X97.531 Y97.668 E15.24302
G1 X97.960 Y97.285 E15.27172
G0 F9000 X97.718 Y96.965
;TYPE:WALL-OUTER
G1 F1800 X98.291 Y96.607 E15.30542
G1 X98.878 Y96.371 E15.33699
G1 X99.491 Y96.237 E15.36829
G1 X100.153 Y96.205 E15.40136
G1 X100.166 Y96.204 E15.40201
G1 X100.769 Y96.280 E15.43233
G1 X101.408 Y96.472 E15.46562
G1 X101.982 Y96.759 E15.49764
G1 X102.492 Y97.134 E15.52922
G1 X102.936 Y97.591 E15.56101
G1 X103.311 Y98.140 E15.59418
G1 X103.570 Y98.708 E15.62532
G1 X103.738 Y99.332 E15.65756
G1 X103.798 Y99.992 E15.69062
G1 X103.799 Y100.004 E15.69122
G1 X103.746 Y100.627 E15.72242
G1 X103.745 Y100.638 E15.72297
G1 X103.588 Y101.240 E15.75401
G1 X103.327 Y101.831 E15.78624
G1 X102.964 Y102.375 E15.81887
G1 X102.531 Y102.830 E15.85020
G1 X102.012 Y103.219 E15.88256
G1 X101.424 Y103.520 E15.91552
G1 X100.798 Y103.714 E15.94822
G1 X100.169 Y103.794 E15.97985
G1 X99.527 Y103.769 E16.01190
G1 X98.909 Y103.637 E16.04343
G1 X98.298 Y103.396 E16.07620
G1 X97.751 Y103.060 E16.10823
G1 X97.280 Y102.648 E16.13945
G1 X96.868 Y102.146 E16.17185
G1 X96.551 Y101.586 E16.20395
G1 X96.333 Y100.982 E16.23599
G1 X96.218 Y100.344 E16.26833
G1 X96.200 Y99.986 E16.28621
G1 X96.214 Y99.679 E16.30154
G1 X96.318 Y99.069 E16.33242
G1 X96.529 Y98.458 E16.36467
G1 X96.837 Y97.897 E16.39659
G1 X97.240 Y97.391 E16.42887
G1 X97.718 Y96.965 E16.46081
G0 F9000 X98.125 Y97.276
;TYPE:SKIN
G1 F1800 X102.722 Y101.873 E16.78515
G0 F9000 X102.476 Y102.193
G1 F1800 X97.809 Y97.526 E17.11444
G0 F9000 X97.522 Y97.805
G1 F1800 X102.197 Y102.480 E17.44428
G0 F9000 X101.872 Y102.721
G1 F1800 X97.271 Y98.120 E17.76891
G0 F9000 X97.064 Y98.478
G1 F1800 X101.517 Y102.931 E18.08309
G0 F9000 X101.128 Y103.108
G1 F1800 X96.892 Y98.872 E18.38196
G0 F9000 X96.762 Y99.308
G1 F1800 X100.696 Y103.241 E18.65949
G0 F9000 X100.194 Y103.306
G1 F1800 X96.687 Y99.798 E18.90697
G0 F9000 X98.473 Y97.059
G1 F1800 X102.937 Y101.523 E19.22193
G0 F9000 X103.110 Y101.130
G1 F1800 X98.871 Y96.892 E19.52098
G0 F9000 X99.312 Y96.766
G1 F1800 X103.234 Y100.688 E19.79769
G0 F9000 X103.299 Y100.188
G1 F1800 X99.813 Y96.702 E20.04365
G0 F9000 X100.393 Y96.716
G1 F1800 X103.280 Y99.603 E20.24734
G0 F9000 X103.118 Y98.875
G1 F1800 X101.134 Y96.892 E20.38729
G0 F9000 X96.714 Y100.391
G1 F1800 X99.613 Y103.290 E20.59183
G0 F9000 X98.857 Y103.100
G1 F1800 X96.901 Y101.143 E20.72987
G1 F2400 E16.72987
G0 F9000 X97.273 Y103.822
;TYPE:SUPPORT
G1 F2400 E20.72987
G1 F1800 X97.881 Y104.197 E20.76551
G1 X97.946 Y104.224 E20.76902
G1 X98.653 Y104.502 E20.80692
G1 X99.394 Y104.662 E20.84474
G1 X99.470 Y104.667 E20.84854
G1 X100.202 Y104.698 E20.88510
G1 X100.293 Y104.684 E20.88969
G1 X100.993 Y104.597 E20.92488
G1 X101.758 Y104.362 E20.96481
G1 X101.830 Y104.324 E20.96887
G1 X102.494 Y103.983 E21.00611
G1 X103.127 Y103.509 E21.04556
G1 X103.655 Y102.957 E21.08367
G1 X103.701 Y102.892 E21.08764
G1 X104.119 Y102.264 E21.12528
G1 X104.442 Y101.533 E21.16515
G1 X104.631 Y100.808 E21.20253
G1 X104.643 Y100.701 E21.20790
G1 X104.703 Y99.989 E21.24355
G1 X104.692 Y99.888 E21.24862
G1 X104.627 Y99.170 E21.28459
G1 X104.422 Y98.411 E21.32381
G1 X104.104 Y97.702 E21.36258
G1 X104.054 Y97.631 E21.36691
G1 X103.635 Y97.019 E21.40391
G1 X103.084 Y96.452 E21.44336
G1 X102.471 Y95.998 E21.48142
G1 X102.394 Y95.959 E21.48572
G1 X101.749 Y95.634 E21.52176
G1 X101.675 Y95.611 E21.52562
G1 X101.675 Y95.612 E21.52567
G1 X100.956 Y95.397 E21.56311
G1 X100.188 Y95.300 E21.60173
G1 X100.110 Y95.305 E21.60563
G1 X99.371 Y95.342 E21.64255
G1 X98.615 Y95.506 E21.68114
G1 X98.545 Y95.534 E21.68490
G1 X97.885 Y95.799 E21.72038
G1 X97.175 Y96.242 E21.76214
G1 X96.586 Y96.768 E21.80153
G1 X96.083 Y97.398 E21.84175
G1 X95.703 Y98.092 E21.88123
G1 X95.445 Y98.840 E21.92070
G1 X95.318 Y99.586 E21.95846
G1 X95.300 Y99.989 E21.97858
G1 X95.322 Y100.450 E22.00161
G1 X95.461 Y101.217 E22.04050
G1 X95.730 Y101.963 E22.08006
G1 X96.123 Y102.656 E22.11981
G1 X96.628 Y103.273 E22.15959
G1 X97.202 Y103.779 E22.19776
G1 X97.273 Y103.823 E22.20193
G1 X97.273 Y103.822 E22.20198
G1 F2400 E18.20198
G0 F9000 X91.929 Y111.218
G1 F2400 E22.20198
G1 F1800 X91.814 Y111.103 E22.21009
G1 X91.679 Y111.036 E22.21761
G1 X91.545 Y111.103 E22.22509
G1 X90.742 Y111.905 E22.28171
G1 X89.294 Y112.629 E22.36247
G1 X88.340 Y112.629 E22.41007
G1 X86.842 Y111.131 E22.51576
G1 X87.529 Y110.441 E22.56434
G1 X87.529 Y109.841 E22.59427
G1 X87.929 Y109.440 E22.62253
G1 X87.929 Y109.241 E22.63246
G1 X88.529 Y108.640 E22.67483
G1 X88.529 Y108.439 E22.68485
G1 X88.729 Y108.239 E22.69897
G1 X88.729 Y108.026 E22.70959
G1 X88.446 Y108.028 E22.72371
G1 X87.997 Y108.178 E22.74733
G1 X87.494 Y108.429 E22.77538
G1 X84.729 Y108.429 E22.91332
G1 X84.729 Y107.620 E22.95368
G1 X84.039 Y106.929 E23.00240
G1 X84.929 Y106.038 E23.06523
G1 X84.929 Y105.840 E23.07511
G1 X85.816 Y104.953 E23.13769
G1 X86.612 Y104.555 E23.18209
G1 X86.729 Y104.438 E23.19035
G1 X86.729 Y104.172 E23.20362
G1 X85.496 Y104.018 E23.26561
G1 X84.674 Y103.812 E23.30789
G1 X83.129 Y103.503 E23.38649
G1 X83.129 Y101.640 E23.47944
G1 X84.073 Y100.696 E23.54604
G1 X84.985 Y100.469 E23.59293
G1 X85.363 Y100.280 E23.61402
G1 X85.929 Y100.091 E23.64379
G1 X85.929 Y100.039 E23.64638
G1 X86.129 Y99.839 E23.66049
G1 X86.129 Y99.820 E23.66144
G1 X86.070 Y99.761 E23.66560
G1 X85.382 Y99.588 E23.70100
G1 X84.017 Y98.906 E23.77712
G1 X83.129 Y98.018 E23.83978
G1 X83.129 Y96.231 E23.92893
G1 X84.712 Y95.837 E24.01032
G1 X86.729 Y95.654 E24.11136
G1 X86.729 Y95.420 E24.12303
G1 X86.612 Y95.303 E24.13129
G1 X85.816 Y94.905 E24.17569
G1 X84.929 Y94.018 E24.23827
G1 X84.929 Y93.819 E24.24820
G1 X84.729 Y93.619 E24.26231
G1 X84.729 Y93.420 E24.27224
G1 X84.039 Y92.729 E24.32096
G1 X85.339 Y91.429 E24.41268
G1 X87.415 Y91.429 E24.51625
G1 X88.486 Y91.696 E24.57132
G1 X88.630 Y91.839 E24.58144
G1 X88.646 Y91.838 E24.58224
G1 X88.729 Y91.797 E24.58686
G1 X88.729 Y91.619 E24.59574
G1 X88.529 Y91.419 E24.60985
G1 X88.529 Y91.218 E24.61988
G1 X87.929 Y90.617 E24.66225
G1 X87.929 Y90.419 E24.67213
G1 X87.729 Y90.219 E24.68624
G1 X87.729 Y89.619 E24.71617
G1 X86.843 Y88.723 E24.77904
G1 X88.418 Y87.154 E24.88995
G1 X89.958 Y87.462 E24.96830
G1 X90.541 Y87.752 E25.00079
G1 X91.456 Y88.667 E25.06535
G1 X91.762 Y88.652 E25.08063
G1 X91.762 Y88.651 E25.08068
G1 X91.729 Y88.618 E25.08301
G1 X91.729 Y88.219 E25.10292
G1 X91.529 Y88.019 E25.11703
G1 X91.529 Y87.019 E25.16692
G1 X91.329 Y86.819 E25.18103
G1 X91.329 Y85.095 E25.26704
G1 X92.663 Y84.429 E25.34143
G1 X93.294 Y84.429 E25.37291
G1 X93.942 Y84.753 E25.40905
G1 X95.229 Y86.040 E25.49986
G1 X95.229 Y86.239 E25.50979
G1 X95.429 Y86.439 E25.52390
G1 X95.429 Y86.638 E25.53382
G1 X95.458 Y86.667 E25.53587
G1 X95.729 Y86.654 E25.54941
G1 X95.729 Y84.639 E25.64994
G1 X95.929 Y84.439 E25.66405
G1 X95.929 Y84.039 E25.68400
G1 X96.739 Y83.229 E25.74115
G1 X99.029 Y83.229 E25.85540
G1 X99.029 Y84.039 E25.89581
G1 X99.229 Y84.239 E25.90992
G1 X99.229 Y84.439 E25.91990
G1 X99.429 Y84.639 E25.93401
G1 X99.429 Y84.839 E25.94399
G1 X99.629 Y85.039 E25.95810
G1 X99.629 Y85.839 E25.99801
G1 X99.829 Y86.039 E26.01212
G1 X99.829 Y86.043 E26.01232
G1 X99.929 Y86.048 E26.01732
G1 X99.929 Y86.039 E26.01777
G1 X100.129 Y85.839 E26.03188
G1 X100.129 Y85.439 E26.05184
G1 X100.329 Y85.239 E26.06595
G1 X100.329 Y85.039 E26.07592
G1 X100.529 Y84.839 E26.09004
G1 X100.529 Y84.639 E26.10001
G1 X100.729 Y84.439 E26.11413
G1 X100.729 Y84.240 E26.12405
G1 X101.740 Y83.229 E26.19538
G1 X103.829 Y83.229 E26.29961
G1 X103.829 Y84.439 E26.35997
G1 X104.029 Y84.639 E26.37408
G1 X104.029 Y86.644 E26.47411
G1 X104.308 Y86.659 E26.48805
G1 X104.729 Y86.238 E26.51776
G1 X104.729 Y86.040 E26.52763
G1 X105.616 Y85.153 E26.59022
G1 X106.012 Y84.955 E26.61231
G1 X106.539 Y84.429 E26.64945
G1 X107.480 Y84.429 E26.69640
G1 X108.429 Y84.879 E26.74880
G1 X108.429 Y87.819 E26.89548
G1 X108.029 Y88.220 E26.92373
G1 X108.029 Y88.419 E26.93366
G1 X107.829 Y88.619 E26.94777
G1 X107.829 Y88.638 E26.94872
G1 X107.835 Y88.644 E26.94914
G1 X108.379 Y88.672 E26.97632
G1 X108.612 Y88.555 E26.98933
G1 X109.015 Y88.153 E27.01773
G1 X109.963 Y87.679 E27.07061
G1 X110.558 Y87.482 E27.10187
G1 X111.433 Y87.044 E27.15069
G1 X113.013 Y88.624 E27.26217
G1 X112.429 Y89.215 E27.30362
G1 X112.429 Y89.819 E27.33376
G1 X112.029 Y90.220 E27.36201
G1 X112.029 Y90.618 E27.38187
G1 X111.029 Y91.619 E27.45246
G1 X111.029 Y91.639 E27.45346
G1 X111.229 Y91.839 E27.46757
G1 X111.229 Y91.847 E27.46797
G1 X111.619 Y91.652 E27.48972
G1 X113.180 Y91.429 E27.56839
G1 X114.619 Y91.429 E27.64018
G1 X115.429 Y92.239 E27.69733
G1 X115.429 Y93.418 E27.75615
G1 X113.742 Y95.105 E27.87518
G1 X113.345 Y95.303 E27.89731
G1 X113.144 Y95.504 E27.91150
G1 X113.110 Y95.522 E27.91341
G1 X113.151 Y95.563 E27.91631
G1 X113.113 Y95.655 E27.92127
G1 X115.718 Y95.841 E28.05157
G1 X116.829 Y96.396 E28.11353
G1 X116.829 Y98.462 E28.21660
G1 X115.545 Y99.104 E28.28822
G1 X115.341 Y99.307 E28.30258
G1 X114.747 Y99.601 E28.33564
G1 X113.829 Y99.754 E28.38208
G1 X113.829 Y99.818 E28.38527
G1 X113.776 Y99.871 E28.38901
G1 X114.200 Y100.082 E28.41264
G1 X114.796 Y100.279 E28.44395
G1 X116.142 Y100.953 E28.51905
G1 X116.829 Y101.640 E28.56753
G1 X116.829 Y103.361 E28.65339
G1 X115.972 Y103.789 E28.70118
G1 X115.044 Y104.022 E28.74891
G1 X113.029 Y104.190 E28.84979
G1 X113.029 Y104.238 E28.85219
G1 X113.346 Y104.555 E28.87455
G1 X114.142 Y104.953 E28.91895
G1 X115.541 Y106.352 E29.01766
G1 X115.229 Y107.116 E29.05883
G1 X115.229 Y108.429 E29.12434
G1 X113.142 Y108.429 E29.22846
G1 X112.235 Y108.203 E29.27509
G1 X111.197 Y107.856 E29.32969
G1 X111.193 Y107.856 E29.32989
G1 X111.029 Y108.020 E29.34146
G1 X111.029 Y108.239 E29.35239
G1 X112.029 Y109.240 E29.42298
G1 X112.029 Y109.438 E29.43286
G1 X112.429 Y109.839 E29.46112
G1 X112.429 Y110.239 E29.48107
G1 X112.629 Y110.439 E29.49518
G1 X112.629 Y111.618 E29.55400
G1 X111.432 Y112.815 E29.63846
G1 X109.758 Y111.976 E29.73188
G1 X109.051 Y111.741 E29.76905
G1 X108.612 Y111.303 E29.79999
G1 X108.217 Y111.105 E29.82203
G1 X108.125 Y111.013 E29.82852
G1 X107.946 Y111.103 E29.83852
G1 X107.919 Y111.130 E29.84042
G1 X108.029 Y111.241 E29.84822
G1 X108.029 Y111.439 E29.85810
G1 X108.229 Y111.639 E29.87221
G1 X108.229 Y112.039 E29.89216
G1 X108.429 Y112.239 E29.90628
G1 X108.429 Y114.979 E30.04297
G1 X107.480 Y115.429 E30.09537
G1 X106.540 Y115.429 E30.14227
G1 X104.729 Y113.618 E30.27005
G1 X104.729 Y113.420 E30.27992
G1 X104.411 Y113.102 E30.30236
G1 X104.256 Y113.025 E30.31100
G1 X104.029 Y113.100 E30.32292
G1 X104.029 Y115.219 E30.42864
G1 X103.829 Y115.419 E30.44275
G1 X103.829 Y116.829 E30.51310
G1 X101.129 Y116.829 E30.64780
G1 X101.129 Y116.018 E30.68826
G1 X100.529 Y115.417 E30.73063
G1 X100.529 Y115.019 E30.75049
G1 X100.329 Y114.819 E30.76460
G1 X100.329 Y114.419 E30.78455
G1 X100.129 Y114.219 E30.79866
G1 X100.129 Y113.820 E30.81857
G1 X100.108 Y113.799 E30.82005
G1 X99.829 Y113.814 E30.83399
G1 X99.829 Y113.819 E30.83424
G1 X99.629 Y114.019 E30.84835
G1 X99.629 Y114.819 E30.88826
G1 X99.429 Y115.019 E30.90237
G1 X99.429 Y115.219 E30.91235
G1 X99.229 Y115.419 E30.92646
G1 X99.229 Y115.619 E30.93644
G1 X99.029 Y115.819 E30.95055
G1 X99.029 Y116.018 E30.96048
G1 X98.141 Y116.906 E31.02313
G1 X95.929 Y116.462 E31.13569
G1 X95.929 Y115.419 E31.18773
G1 X95.729 Y115.219 E31.20184
G1 X95.729 Y113.099 E31.30761
G1 X95.592 Y113.054 E31.31480
G1 X95.540 Y113.106 E31.31847
G1 X95.429 Y113.162 E31.32467
