;Generated with Cura_SteamEngine 15.01
; Default start code
G28 ; Home extruder
G1 Z15 F2000
M107 ; Turn off fan
G90 ; Absolute positioning
M82 ; Extruder in absolute mode
M104 T0 S180
M190 S50
; Activate all used extruder
G92 E0 ; Reset extruder position
; Wait for all used extruders to reach temperature
M109 T0 S210 R210
;Layer count: 35
;LAYER:0
M107
G0 F9000 X91.780 Y91.951 Z0.300
;TYPE:SKIRT
G1 F1800 X92.675 Y91.128 E0.06066
G1 X93.652 Y90.405 E0.12130
G1 X94.700 Y89.788 E0.18197
G1 X95.809 Y89.286 E0.24270
G1 X96.960 Y88.905 E0.30319
G1 X98.146 Y88.646 E0.36376
G1 X99.355 Y88.514 E0.42443
G1 X100.365 Y88.510 E0.47482
G1 X100.607 Y88.510 E0.48689
G1 X101.788 Y88.635 E0.54614
G1 X102.968 Y88.885 E0.60632
G1 X104.124 Y89.259 E0.66694
G1 X105.238 Y89.756 E0.72780
G1 X106.288 Y90.366 E0.78838
G1 X107.269 Y91.082 E0.84897
G1 X108.171 Y91.902 E0.90979
G1 X108.979 Y92.808 E0.97035
G1 X109.686 Y93.794 E1.03088
G1 X110.302 Y94.877 E1.09304
G1 X110.787 Y96.000 E1.15407
G1 X111.025 Y96.763 E1.19395
G1 X111.281 Y97.668 E1.24087
G1 X112.637 Y97.667 E1.30852
G1 X111.951 Y100.034 E1.43147
G1 X112.598 Y102.322 E1.55009
G1 X111.287 Y102.323 E1.61550
G1 X110.907 Y103.632 E1.68350
G1 X110.752 Y104.084 E1.70734
G1 X110.426 Y104.840 E1.74842
G1 X110.286 Y105.152 E1.76548
G1 X109.745 Y106.111 E1.82041
G1 X109.027 Y107.131 E1.88264
G1 X108.219 Y108.048 E1.94362
G1 X107.324 Y108.871 E2.00428
G1 X106.347 Y109.594 E2.06492
G1 X105.299 Y110.211 E2.12559
G1 X104.190 Y110.713 E2.18632
G1 X103.039 Y111.094 E2.24681
G1 X101.853 Y111.353 E2.30737
G1 X100.644 Y111.485 E2.36805
G1 X99.634 Y111.489 E2.41844
G1 X99.392 Y111.489 E2.43051
G1 X98.211 Y111.364 E2.48976
G1 X97.031 Y111.114 E2.54994
G1 X95.875 Y110.740 E2.61056
G1 X94.761 Y110.243 E2.67141
G1 X93.711 Y109.633 E2.73200
G1 X92.730 Y108.917 E2.79259
G1 X91.828 Y108.097 E2.85341
G1 X91.020 Y107.191 E2.91397
G1 X90.313 Y106.205 E2.97450
G1 X89.697 Y105.122 E3.03666
G1 X89.212 Y103.999 E3.09769
G1 X88.974 Y103.236 E3.13756
G1 X88.718 Y102.331 E3.18449
G1 X87.362 Y102.332 E3.25214
G1 X88.048 Y99.965 E3.37509
G1 X87.401 Y97.677 E3.49371
G1 X88.712 Y97.676 E3.55912
G1 X89.092 Y96.367 E3.62712
G1 X89.247 Y95.915 E3.65096
G1 X89.573 Y95.159 E3.69203
G1 X89.713 Y94.847 E3.70910
G1 X90.254 Y93.888 E3.76403
G1 X90.972 Y92.868 E3.82626
G1 X91.780 Y91.951 E3.88723
G0 F9000 X92.066 Y92.231
G1 F1800 X92.930 Y91.437 E3.94578
G1 X93.873 Y90.739 E4.00431
G1 X94.885 Y90.144 E4.06288
G1 X95.955 Y89.659 E4.12149
G1 X97.066 Y89.291 E4.17988
G1 X98.211 Y89.041 E4.23835
G1 X99.377 Y88.914 E4.29686
G1 X100.366 Y88.910 E4.34621
G1 X100.586 Y88.910 E4.35718
G1 X101.725 Y89.031 E4.41433
G1 X102.865 Y89.272 E4.47246
G1 X103.980 Y89.633 E4.53093
G1 X105.055 Y90.113 E4.58966
G1 X106.069 Y90.701 E4.64814
G1 X107.016 Y91.392 E4.70663
G1 X107.887 Y92.183 E4.76533
G1 X108.666 Y93.059 E4.82381
G1 X109.349 Y94.010 E4.88223
G1 X109.944 Y95.056 E4.94227
G1 X110.412 Y96.139 E5.00113
G1 X110.641 Y96.877 E5.03968
G1 X110.978 Y98.069 E5.10148
G1 X112.104 Y98.068 E5.15765
G1 X111.534 Y100.033 E5.25973
G1 X112.069 Y101.922 E5.35768
G1 X110.987 Y101.923 E5.41166
G1 X110.526 Y103.512 E5.49420
G1 X110.379 Y103.939 E5.51673
G1 X110.060 Y104.678 E5.55689
G1 X109.929 Y104.971 E5.57290
G1 X109.406 Y105.897 E5.62596
G1 X108.712 Y106.883 E5.68612
G1 X107.933 Y107.768 E5.74494
G1 X107.069 Y108.562 E5.80348
G1 X106.126 Y109.260 E5.86201
G1 X105.114 Y109.855 E5.92058
G1 X104.044 Y110.340 E5.97919
G1 X102.933 Y110.708 E6.03758
G1 X101.788 Y110.958 E6.09605
G1 X100.622 Y111.085 E6.15457
G1 X99.633 Y111.089 E6.20391
G1 X99.413 Y111.089 E6.21488
G1 X98.274 Y110.968 E6.27203
G1 X97.134 Y110.727 E6.33016
G1 X96.019 Y110.366 E6.38863
G1 X94.944 Y109.886 E6.44737
G1 X93.930 Y109.298 E6.50585
G1 X92.983 Y108.607 E6.56433
G1 X92.112 Y107.816 E6.62303
G1 X91.333 Y106.940 E6.68152
G1 X90.650 Y105.989 E6.73993
G1 X90.055 Y104.943 E6.79997
G1 X89.587 Y103.860 E6.85883
G1 X89.358 Y103.122 E6.89738
G1 X89.021 Y101.930 E6.95918
G1 X87.895 Y101.931 E7.01535
G1 X88.465 Y99.966 E7.11743
G1 X87.930 Y98.077 E7.21538
G1 X89.012 Y98.076 E7.26936
G1 X89.473 Y96.487 E7.35191
G1 X89.620 Y96.060 E7.37444
G1 X89.939 Y95.321 E7.41459
G1 X90.070 Y95.028 E7.43060
G1 X90.593 Y94.102 E7.48366
G1 X91.287 Y93.116 E7.54382
G1 X92.066 Y92.231 E7.60264
G0 F9000 X92.352 Y92.511
G1 F1800 X93.185 Y91.746 E7.65906
G1 X94.094 Y91.073 E7.71549
G1 X95.069 Y90.500 E7.77191
G1 X96.101 Y90.032 E7.82845
G1 X97.172 Y89.678 E7.88472
G1 X98.275 Y89.436 E7.94106
G1 X99.400 Y89.314 E7.99751
G1 X100.367 Y89.310 E8.04576
G1 X100.565 Y89.310 E8.05564
G1 X101.662 Y89.426 E8.11067
G1 X102.762 Y89.659 E8.16677
G1 X103.837 Y90.007 E8.22314
G1 X104.873 Y90.469 E8.27973
G1 X105.850 Y91.037 E8.33611
G1 X106.762 Y91.703 E8.39246
G1 X107.602 Y92.465 E8.44904
G1 X108.353 Y93.309 E8.50540
G1 X109.012 Y94.226 E8.56174
G1 X109.585 Y95.235 E8.61963
G1 X110.036 Y96.278 E8.67632
G1 X110.258 Y96.991 E8.71358
G1 X110.676 Y98.469 E8.79021
G1 X111.571 Y98.468 E8.83486
G1 X111.118 Y100.031 E8.91605
G1 X111.540 Y101.522 E8.99335
G1 X110.686 Y101.523 E9.03596
G1 X110.144 Y103.391 E9.13300
G1 X110.005 Y103.795 E9.15431
G1 X109.694 Y104.517 E9.19353
G1 X109.571 Y104.790 E9.20847
G1 X109.068 Y105.683 E9.25961
G1 X108.397 Y106.635 E9.31771
G1 X107.647 Y107.488 E9.37438
G1 X106.814 Y108.253 E9.43081
G1 X105.905 Y108.926 E9.48723
G1 X104.930 Y109.499 E9.54365
G1 X103.898 Y109.967 E9.60019
G1 X102.827 Y110.321 E9.65646
G1 X101.724 Y110.563 E9.71280
G1 X100.599 Y110.685 E9.76926
G1 X99.632 Y110.689 E9.81750
G1 X99.434 Y110.689 E9.82738
G1 X98.337 Y110.573 E9.88241
G1 X97.237 Y110.340 E9.93851
G1 X96.162 Y109.992 E9.99488
G1 X95.126 Y109.530 E10.05147
G1 X94.149 Y108.962 E10.10786
G1 X93.237 Y108.296 E10.16420
G1 X92.397 Y107.534 E10.22078
G1 X91.646 Y106.690 E10.27714
G1 X90.987 Y105.773 E10.33348
G1 X90.414 Y104.764 E10.39137
G1 X89.963 Y103.721 E10.44806
G1 X89.741 Y103.008 E10.48532
G1 X89.323 Y101.530 E10.56195
G1 X88.428 Y101.531 E10.60660
G1 X88.881 Y99.968 E10.68779
G1 X88.459 Y98.477 E10.76510
G1 X89.313 Y98.476 E10.80770
G1 X89.855 Y96.608 E10.90474
G1 X89.994 Y96.204 E10.92606
G1 X90.305 Y95.482 E10.96528
G1 X90.428 Y95.209 E10.98021
G1 X90.931 Y94.316 E11.03135
G1 X91.602 Y93.364 E11.08945
G1 X92.352 Y92.511 E11.14612
G1 F2400 E7.14612
G0 F9000 X95.071 Y95.174
;TYPE:WALL-INNER
G1 F2400 E11.14612
G1 F1800 X95.610 Y94.678 E11.18267
G1 X96.194 Y94.247 E11.21888
G1 X96.815 Y93.881 E11.25484
G1 X97.487 Y93.577 E11.29164
G1 X98.184 Y93.346 E11.32827
G1 X98.891 Y93.191 E11.36438
G1 X99.609 Y93.113 E11.40041
G1 X100.362 Y93.110 E11.43798
G1 X101.070 Y93.185 E11.47350
G1 X101.778 Y93.335 E11.50961
G1 X102.477 Y93.561 E11.54626
G1 X103.138 Y93.856 E11.58237
G1 X103.766 Y94.221 E11.61861
G1 X104.364 Y94.658 E11.65556
G1 X104.896 Y95.141 E11.69141
G1 X105.384 Y95.689 E11.72802
G1 X105.806 Y96.276 E11.76408
G1 X106.179 Y96.931 E11.80169
G1 X106.467 Y97.598 E11.83794
G1 X106.507 Y97.727 E11.84467
G1 X105.400 Y97.733 E11.89990
G1 X105.400 Y102.256 E12.12556
G1 X106.123 Y102.273 E12.16164
G1 X106.511 Y102.273 E12.18100
G1 X106.462 Y102.415 E12.18849
G1 X106.214 Y102.990 E12.21973
G1 X105.849 Y103.654 E12.25753
G1 X105.409 Y104.279 E12.29567
G1 X104.928 Y104.825 E12.33197
G1 X104.389 Y105.321 E12.36851
G1 X103.805 Y105.752 E12.40472
G1 X103.184 Y106.118 E12.44069
G1 X102.512 Y106.422 E12.47748
G1 X101.815 Y106.653 E12.51412
G1 X101.108 Y106.808 E12.55023
G1 X100.390 Y106.886 E12.58626
G1 X99.637 Y106.889 E12.62383
G1 X98.929 Y106.814 E12.65935
G1 X98.221 Y106.664 E12.69545
G1 X97.522 Y106.438 E12.73210
G1 X96.861 Y106.143 E12.76822
G1 X96.233 Y105.778 E12.80446
G1 X95.633 Y105.340 E12.84152
G1 X95.103 Y104.858 E12.87726
G1 X94.615 Y104.310 E12.91387
G1 X94.193 Y103.723 E12.94993
G1 X93.820 Y103.068 E12.98754
G1 X93.531 Y102.398 E13.02394
G1 X93.492 Y102.272 E13.03052
G1 X94.600 Y102.266 E13.08580
G1 X94.600 Y97.743 E13.31146
G1 X93.876 Y97.726 E13.34759
G1 X93.488 Y97.726 E13.36694
G1 X93.537 Y97.584 E13.37444
G1 X93.785 Y97.009 E13.40568
G1 X94.150 Y96.345 E13.44348
G1 X94.590 Y95.720 E13.48162
G1 X95.071 Y95.174 E13.51792
G0 F9000 X96.109 Y97.753
G1 F1800 X96.109 Y102.246 E13.74207
G1 X100.000 Y104.493 E13.96624
G1 X103.497 Y102.474 E14.16770
G1 X103.890 Y102.244 E14.19042
G1 X103.890 Y97.753 E14.41447
G1 X100.394 Y95.734 E14.61589
G1 X100.002 Y95.505 E14.63854
G1 X96.109 Y97.753 E14.86281
G0 F9000 X96.509 Y97.984
;TYPE:WALL-OUTER
G1 F1800 X96.509 Y102.015 E15.06392
G1 X100.000 Y104.031 E15.26504
G1 X103.296 Y102.128 E15.45492
G1 X103.490 Y102.015 E15.46612
G1 X103.490 Y97.984 E15.66723
G1 X100.195 Y96.081 E15.85706
G1 X100.001 Y95.968 E15.86827
G1 X96.509 Y97.984 E16.06943
G0 F9000 X96.209 Y97.984
G0 X94.500 Y98.134
G0 X94.200 Y98.134
G1 F1800 X93.871 Y98.126 E16.08585
G1 X92.954 Y98.127 E16.13160
G1 X93.095 Y97.640 E16.15689
G1 X93.418 Y96.850 E16.19947
G1 X93.804 Y96.142 E16.23970
G1 X94.278 Y95.468 E16.28081
G1 X94.786 Y94.891 E16.31917
G1 X95.348 Y94.375 E16.35723
G1 X95.978 Y93.909 E16.39633
G1 X96.632 Y93.524 E16.43419
G1 X97.339 Y93.204 E16.47290
G1 X98.076 Y92.960 E16.51164
G1 X98.819 Y92.797 E16.54959
G1 X99.593 Y92.713 E16.58843
G1 X100.385 Y92.710 E16.62794
G1 X101.128 Y92.789 E16.66522
G1 X101.887 Y92.949 E16.70392
G1 X102.615 Y93.185 E16.74210
G1 X103.324 Y93.502 E16.78085
G1 X103.984 Y93.885 E16.81892
G1 X104.617 Y94.347 E16.85801
G1 X105.182 Y94.860 E16.89609
G1 X105.695 Y95.436 E16.93457
G1 X106.144 Y96.060 E16.97292
G1 X106.536 Y96.751 E17.01256
G1 X106.844 Y97.464 E17.05130
G1 X106.999 Y97.961 E17.07728
G1 X107.046 Y98.126 E17.08584
G1 X106.130 Y98.127 E17.13154
G1 X105.800 Y98.130 E17.14800
G1 X105.800 Y101.865 E17.33434
G1 X106.128 Y101.873 E17.35071
G1 X107.045 Y101.872 E17.39646
G1 X106.904 Y102.359 E17.42175
G1 X106.581 Y103.149 E17.46433
G1 X106.195 Y103.857 E17.50456
G1 X105.721 Y104.531 E17.54567
G1 X105.213 Y105.108 E17.58403
G1 X104.651 Y105.624 E17.62209
G1 X104.021 Y106.090 E17.66119
G1 X103.367 Y106.475 E17.69905
G1 X102.660 Y106.795 E17.73777
G1 X101.923 Y107.039 E17.77650
G1 X101.180 Y107.202 E17.81445
G1 X100.406 Y107.286 E17.85329
G1 X99.614 Y107.289 E17.89280
G1 X98.871 Y107.210 E17.93008
G1 X98.112 Y107.050 E17.96878
G1 X97.384 Y106.814 E18.00696
G1 X96.675 Y106.497 E18.04571
G1 X96.015 Y106.114 E18.08378
G1 X95.382 Y105.652 E18.12287
G1 X94.817 Y105.139 E18.16095
G1 X94.304 Y104.563 E18.19943
G1 X93.855 Y103.939 E18.23778
G1 X93.462 Y103.246 E18.27753
G1 X93.155 Y102.535 E18.31617
G1 X93.000 Y102.038 E18.34214
G1 X92.953 Y101.873 E18.35070
G1 X93.869 Y101.872 E18.39640
G1 X94.200 Y101.869 E18.41291
G1 X94.200 Y98.134 E18.59925
G0 F9000 X94.680 Y98.357
;TYPE:SKIN
G1 F1800 X96.029 Y99.706 E18.69443
G0 F9000 X96.029 Y100.271
G1 F1800 X94.680 Y98.922 E18.78961
G0 F9000 X94.680 Y99.488
G1 F1800 X96.029 Y100.837 E18.88479
G0 F9000 X96.029 Y101.403
G1 F1800 X94.680 Y100.054 E18.97997
G0 F9000 X94.680 Y100.619
G1 F1800 X96.029 Y101.969 E19.07518
G0 F9000 X96.793 Y102.732
G1 F1800 X100.818 Y106.758 E19.35920
G0 F9000 X101.307 Y106.681
G1 F1800 X98.132 Y103.506 E19.58322
G0 F9000 X99.470 Y104.279
G1 F1800 X101.771 Y106.580 E19.74557
G0 F9000 X102.198 Y106.440
G1 F1800 X100.216 Y104.459 E19.88537
G0 F9000 X100.575 Y104.252
G1 F1800 X102.611 Y106.288 E20.02902
G0 F9000 X103.000 Y106.111
G1 F1800 X100.933 Y104.045 E20.17482
G0 F9000 X101.292 Y103.837
G1 F1800 X103.369 Y105.914 E20.32137
G0 F9000 X103.724 Y105.704
G1 F1800 X101.650 Y103.630 E20.46770
G0 F9000 X102.009 Y103.423
G1 F1800 X104.053 Y105.467 E20.61192
G0 F9000 X104.375 Y105.223
G1 F1800 X102.367 Y103.216 E20.75356
G0 F9000 X102.726 Y103.009
G1 F1800 X104.670 Y104.953 E20.89072
G0 F9000 X104.955 Y104.673
G1 F1800 X103.084 Y102.802 E21.02272
G0 F9000 X103.443 Y102.594
G1 F1800 X105.220 Y104.371 E21.14810
G0 F9000 X105.467 Y104.053
G1 F1800 X103.801 Y102.387 E21.26565
G0 F9000 X103.968 Y101.988
G1 F1800 X105.701 Y103.721 E21.38792
G0 F9000 X105.914 Y103.369
G1 F1800 X103.968 Y101.423 E21.52522
G0 F9000 X103.968 Y100.857
G1 F1800 X105.319 Y102.208 E21.62054
G0 F9000 X105.448 Y102.337
G1 F1800 X106.115 Y103.004 E21.66760
G0 F9000 X106.290 Y102.613
G1 F1800 X106.027 Y102.350 E21.68616
G0 F9000 X105.319 Y101.642
G1 F1800 X103.968 Y100.291 E21.78148
G0 F9000 X103.968 Y99.726
G1 F1800 X105.319 Y101.076 E21.87676
G0 F9000 X105.319 Y100.510
G1 F1800 X103.968 Y99.160 E21.97205
G0 F9000 X103.968 Y98.594
G1 F1800 X105.319 Y99.945 E22.06737
G0 F9000 X105.319 Y99.379
G1 F1800 X103.968 Y98.029 E22.16265
G0 F9000 X103.205 Y97.265
G1 F1800 X99.179 Y93.239 E22.44671
G0 F9000 X98.690 Y93.316
G1 F1800 X101.864 Y96.490 E22.67065
G0 F9000 X100.523 Y95.715
G1 F1800 X98.227 Y93.418 E22.83268
G0 F9000 X97.800 Y93.558
G1 F1800 X99.781 Y95.539 E22.97245
G0 F9000 X99.423 Y95.746
G1 F1800 X97.386 Y93.709 E23.11617
G0 F9000 X96.997 Y93.886
G1 F1800 X99.064 Y95.953 E23.26201
G0 F9000 X98.706 Y96.160
G1 F1800 X96.628 Y94.083 E23.40859
G0 F9000 X96.273 Y94.293
G1 F1800 X98.347 Y96.367 E23.55492
G0 F9000 X97.988 Y96.574
G1 F1800 X95.945 Y94.530 E23.69910
G0 F9000 X95.623 Y94.774
G1 F1800 X97.630 Y96.781 E23.84071
G0 F9000 X97.271 Y96.988
G1 F1800 X95.327 Y95.045 E23.97783
G0 F9000 X95.042 Y95.325
G1 F1800 X96.913 Y97.196 E24.10984
G0 F9000 X96.554 Y97.403
G1 F1800 X94.777 Y95.626 E24.23522
G0 F9000 X94.530 Y95.944
G1 F1800 X96.195 Y97.609 E24.35269
G0 F9000 X96.029 Y98.009
G1 F1800 X94.296 Y96.276 E24.47496
G0 F9000 X94.083 Y96.628
G1 F1800 X96.029 Y98.574 E24.61227
G0 F9000 X96.029 Y99.140
G1 F1800 X94.680 Y97.791 E24.70744
G0 F9000 X94.549 Y97.660
G1 F1800 X93.882 Y96.993 E24.75451
G0 F9000 X93.708 Y97.385
G1 F1800 X93.970 Y97.647 E24.77299
G0 F9000 X99.697 Y93.192
G1 F1800 X105.319 Y98.813 E25.16962
G0 F9000 X105.319 Y98.248
G1 F1800 X100.262 Y93.191 E25.52642
G0 F9000 X100.882 Y93.246
G1 F1800 X105.319 Y97.682 E25.83944
G0 F9000 X105.852 Y97.650
G1 F1800 X101.577 Y93.374 E26.14110
G0 F9000 X102.383 Y93.615
G1 F1800 X106.389 Y97.621 E26.42374
G0 F9000 X105.851 Y96.517
G1 F1800 X103.485 Y94.151 E26.59067
G0 F9000 X100.001 Y95.536
G0 X96.136 Y97.768
G0 X94.680 Y101.185
G1 F1800 X100.300 Y106.805 E26.98720
G0 F9000 X99.735 Y106.807
G1 F1800 X94.680 Y101.751 E27.34389
G0 F9000 X94.680 Y102.316
G1 F1800 X99.115 Y106.751 E27.65680
G0 F9000 X98.420 Y106.623
G1 F1800 X94.145 Y102.348 E27.95843
G0 F9000 X93.608 Y102.377
G1 F1800 X97.614 Y106.382 E28.24104
G0 F9000 X96.514 Y105.848
G1 F1800 X94.147 Y103.481 E28.40804
;LAYER:1
M106 S63
G0 F9000 X94.206 Y103.742 Z0.500
;TYPE:WALL-INNER
G1 F2220 X93.818 Y103.063 E28.43405
G1 X93.622 Y102.609 E28.45050
G1 X94.600 Y102.598 E28.48303
G1 X94.600 Y97.404 E28.65578
G1 X93.621 Y97.389 E28.68835
G1 X93.829 Y96.913 E28.70562
G1 X94.129 Y96.380 E28.72597
G1 X94.579 Y95.735 E28.75213
G1 X95.054 Y95.192 E28.77612
G1 X95.616 Y94.672 E28.80159
G1 X96.178 Y94.258 E28.82480
G1 X96.824 Y93.875 E28.84978
G1 X96.839 Y93.867 E28.85035
G1 X97.493 Y93.573 E28.87420
G1 X98.152 Y93.355 E28.89728
G1 X98.910 Y93.188 E28.92310
G1 X99.595 Y93.115 E28.94601
G1 X100.354 Y93.110 E28.97126
G1 X101.054 Y93.184 E28.99467
G1 X101.783 Y93.335 E29.01943
G1 X102.447 Y93.551 E29.04265
G1 X103.149 Y93.862 E29.06819
G1 X103.777 Y94.228 E29.09237
G1 X104.345 Y94.643 E29.11576
G1 X104.904 Y95.148 E29.14082
G1 X105.372 Y95.674 E29.16424
G1 X105.793 Y96.257 E29.18815
G1 X106.179 Y96.933 E29.21404
G1 X106.377 Y97.390 E29.23061
G1 X105.400 Y97.401 E29.26311
G1 X105.400 Y102.595 E29.43586
G1 X106.378 Y102.610 E29.46839
G1 X106.170 Y103.086 E29.48567
G1 X105.870 Y103.619 E29.50601
G1 X105.420 Y104.264 E29.53217
G1 X104.945 Y104.807 E29.55617
G1 X104.383 Y105.327 E29.58163
G1 X103.821 Y105.741 E29.60485
G1 X103.175 Y106.124 E29.62983
G1 X103.160 Y106.132 E29.63039
G1 X102.506 Y106.426 E29.65424
G1 X101.847 Y106.644 E29.67733
G1 X101.089 Y106.811 E29.70314
G1 X100.404 Y106.884 E29.72606
G1 X99.645 Y106.889 E29.75130
G1 X98.945 Y106.815 E29.77471
G1 X98.216 Y106.664 E29.79947
G1 X97.552 Y106.448 E29.82270
G1 X96.850 Y106.137 E29.84823
G1 X96.222 Y105.771 E29.87241
G1 X95.653 Y105.355 E29.89585
G1 X95.093 Y104.849 E29.92096
G1 X94.627 Y104.325 E29.94428
